<?xml version="1.0" encoding="UTF-8"?>
<map version="1.10" tiledversion="1.12.2" orientation="orthogonal" renderorder="right-down" width="36" height="32" tilewidth="36" tileheight="36" infinite="1" nextlayerid="3" nextobjectid="1">
 <tileset firstgid="1" source="Floor.tsx"/>
 <tileset firstgid="10" source="corners.tsx"/>
 <tileset firstgid="19" source="sky.tsx"/>
 <tileset firstgid="28" source="background.tsx"/>
 <tileset firstgid="37" source="props.tsx"/>
 <layer id="2" name="Kachelebene 2" width="36" height="32">
  <data encoding="csv">
   <chunk x="-32" y="-96" width="16" height="16">
0,0,0,0,0,0,0,0,0,0,0,0,0,0,0,0,
0,0,0,0,0,0,0,0,0,0,0,0,0,0,0,0,
0,0,0,0,0,0,0,0,0,0,0,0,0,0,0,0,
0,0,0,0,0,0,0,0,0,0,0,0,0,0,0,0,
0,0,0,0,0,0,0,0,0,0,0,0,0,0,0,0,
0,0,0,0,0,0,0,0,0,0,0,0,0,19,19,19,
0,0,0,0,0,0,0,0,0,0,0,0,19,19,19,19,
0,0,0,0,0,0,0,0,0,0,0,0,19,19,19,19,
0,0,0,0,0,0,0,0,0,0,0,0,19,19,19,19,
0,0,0,0,0,0,0,0,0,0,0,0,19,19,19,19,
0,0,0,0,0,0,0,0,0,0,0,0,19,19,19,19,
0,0,0,0,0,0,0,0,0,0,0,0,19,19,19,19,
0,0,0,0,0,0,0,0,0,0,0,0,19,19,19,19,
0,0,0,0,0,0,0,0,0,0,0,0,19,19,19,19,
0,0,0,0,0,0,0,0,0,0,0,0,19,19,19,19,
0,0,0,0,0,0,0,0,0,0,0,0,19,19,19,19
</chunk>
   <chunk x="-16" y="-96" width="16" height="16">
0,0,0,0,0,0,0,0,0,0,0,0,0,0,0,0,
0,0,0,0,0,0,0,0,0,0,0,0,0,0,0,0,
0,0,0,0,0,0,0,0,0,0,0,0,0,0,0,0,
0,0,0,0,0,0,0,0,0,0,0,0,0,0,0,0,
0,19,19,19,19,19,19,19,19,19,19,19,19,19,19,19,
19,19,19,19,19,19,19,19,19,19,19,19,19,19,19,19,
19,19,19,19,19,19,19,19,19,19,19,19,19,19,19,19,
19,19,19,19,19,19,19,19,19,19,19,19,19,19,19,19,
19,19,19,19,19,19,19,19,19,19,19,19,19,19,19,19,
19,19,19,19,19,19,19,19,19,19,19,19,19,19,19,19,
19,19,19,19,19,19,19,19,19,19,19,19,19,19,19,19,
19,19,19,19,19,19,19,19,19,19,19,19,19,19,19,19,
19,19,19,19,19,19,19,19,19,19,19,19,19,19,19,19,
19,19,19,19,19,19,19,19,19,19,19,19,19,19,19,19,
19,19,19,19,19,19,19,19,19,19,19,19,19,19,19,19,
19,19,19,19,19,19,19,19,19,19,19,19,19,19,19,19
</chunk>
   <chunk x="0" y="-96" width="16" height="16">
0,0,0,0,0,0,0,0,0,0,0,0,0,0,0,0,
0,0,0,0,0,0,0,0,0,0,0,0,0,0,0,0,
0,0,0,19,19,19,19,19,19,19,19,19,19,19,19,19,
0,0,0,19,19,19,19,19,19,19,19,19,19,19,19,19,
19,19,19,19,19,19,19,19,19,19,19,19,19,19,19,19,
19,19,19,19,19,19,19,19,19,19,19,19,19,19,19,19,
19,19,19,19,19,19,19,19,19,19,19,19,19,19,19,19,
19,19,19,19,19,19,19,19,19,19,19,19,19,19,19,19,
19,19,19,19,19,19,19,19,19,19,19,19,19,19,19,19,
19,19,19,19,19,19,19,19,19,19,19,19,19,19,19,19,
19,19,19,19,19,19,19,19,19,19,19,19,19,19,19,19,
19,19,19,19,19,19,19,19,19,19,19,19,19,19,19,19,
19,19,19,19,19,19,19,19,19,19,19,19,19,19,19,19,
19,19,19,19,19,19,19,19,19,19,19,19,19,19,19,19,
19,19,19,19,19,19,19,19,19,19,19,19,19,19,19,19,
19,19,19,19,19,19,19,19,19,19,19,19,19,19,19,19
</chunk>
   <chunk x="16" y="-96" width="16" height="16">
0,0,0,0,0,0,0,0,0,0,0,0,0,0,0,0,
0,0,0,0,0,0,0,0,0,0,0,0,0,0,0,0,
19,19,19,19,19,19,19,19,19,19,19,19,19,19,19,19,
19,19,19,19,19,19,19,19,19,19,19,19,19,19,19,19,
19,19,19,19,19,19,19,19,19,19,19,19,19,19,19,19,
19,19,19,19,19,19,19,19,19,19,19,19,19,19,19,19,
19,19,19,19,19,19,19,19,19,19,19,19,19,19,19,19,
19,19,19,19,19,19,19,19,19,19,19,19,19,19,19,19,
19,19,19,19,19,19,19,19,19,19,19,19,19,19,19,19,
19,19,19,19,19,19,19,19,19,19,19,19,19,19,19,19,
19,19,19,19,19,19,19,19,19,19,19,19,19,19,19,19,
19,19,19,19,19,19,19,19,19,19,19,19,19,19,19,19,
19,19,19,19,19,19,19,19,19,19,19,19,19,19,19,19,
19,19,19,19,19,19,19,19,19,19,19,19,19,19,19,19,
19,19,19,19,19,19,19,19,19,19,19,19,19,19,19,19,
19,19,19,19,19,19,19,19,19,19,19,19,19,19,19,19
</chunk>
   <chunk x="32" y="-96" width="16" height="16">
0,0,0,0,0,0,0,0,0,0,0,0,0,0,0,0,
0,0,0,0,0,0,0,0,0,0,0,0,0,0,0,0,
19,19,19,19,19,19,19,19,19,19,19,19,19,19,19,19,
19,19,19,19,19,19,19,19,19,19,19,19,19,19,19,19,
19,19,19,19,19,19,19,19,19,19,19,19,19,19,19,19,
19,19,19,19,19,19,19,19,19,19,19,19,19,19,19,19,
19,19,19,19,19,19,19,19,19,19,19,19,19,19,19,19,
19,19,19,19,19,19,19,19,19,19,19,19,19,19,19,19,
19,19,19,19,19,19,19,19,19,19,19,19,19,19,19,19,
19,19,19,19,19,19,19,19,19,19,19,19,19,19,19,19,
19,19,19,19,19,19,19,19,19,19,19,19,19,19,19,19,
19,19,19,19,19,19,19,19,19,19,19,19,19,19,19,19,
19,19,19,19,19,19,19,19,19,19,19,19,19,19,19,19,
19,19,19,19,19,19,19,19,19,19,19,19,19,19,19,19,
19,19,19,19,19,19,19,19,19,19,19,19,19,19,19,19,
19,19,19,19,19,19,19,19,19,19,19,19,19,19,19,19
</chunk>
   <chunk x="48" y="-96" width="16" height="16">
0,0,0,0,0,0,0,0,0,0,0,0,0,0,0,0,
0,0,0,0,0,0,0,0,0,0,0,0,0,0,0,0,
19,19,19,19,19,19,19,19,19,19,19,19,19,19,19,19,
19,19,19,19,19,19,19,19,19,19,19,19,19,19,19,19,
19,19,19,19,19,19,19,19,19,19,19,19,19,19,19,19,
19,19,19,19,19,19,19,19,19,19,19,19,19,19,19,19,
19,19,19,19,19,19,19,19,19,19,19,19,19,19,19,19,
19,19,19,19,19,19,19,19,19,19,19,19,19,19,19,19,
19,19,19,19,19,19,19,19,19,19,19,19,19,19,19,19,
19,19,19,19,19,19,19,19,19,19,19,19,19,19,19,19,
19,19,19,19,19,19,19,19,19,19,19,19,19,19,19,19,
19,19,19,19,19,19,19,19,19,19,19,19,19,19,19,19,
19,19,19,19,19,19,19,19,19,19,19,19,19,19,19,19,
19,19,19,19,19,19,19,19,19,19,19,19,19,19,19,19,
19,19,19,19,19,19,19,19,19,19,19,19,19,19,19,19,
19,19,19,19,19,19,19,19,19,19,19,19,19,19,19,19
</chunk>
   <chunk x="64" y="-96" width="16" height="16">
0,0,0,0,0,0,0,0,0,0,0,0,0,0,0,0,
0,0,0,0,0,0,0,0,0,0,0,0,0,0,0,0,
19,19,19,19,19,19,19,19,19,19,19,19,19,19,19,19,
19,19,19,19,19,19,19,19,19,19,19,19,19,19,19,19,
19,19,19,19,19,19,19,19,19,19,19,19,19,19,19,19,
19,19,19,19,19,19,19,19,19,19,19,19,19,19,19,19,
19,19,19,19,19,19,19,19,19,19,19,19,19,19,19,19,
19,19,19,19,19,19,19,19,19,19,19,19,19,19,19,19,
19,19,19,19,19,19,19,19,19,19,19,19,19,19,19,19,
19,19,19,19,19,19,19,19,19,19,19,19,19,19,19,19,
19,19,19,19,19,19,19,19,19,19,19,19,19,19,19,19,
19,19,19,19,19,19,19,19,19,19,19,19,19,19,19,19,
19,19,19,19,19,19,19,19,19,19,19,19,19,19,19,19,
19,19,19,19,19,19,19,19,19,19,19,19,19,19,19,19,
19,19,19,19,19,19,19,19,19,19,19,19,19,19,19,19,
19,19,19,19,19,19,19,19,19,19,19,19,19,19,19,19
</chunk>
   <chunk x="80" y="-96" width="16" height="16">
0,0,0,0,0,0,0,0,0,0,0,0,0,0,0,0,
0,0,0,0,0,0,0,0,0,0,0,0,0,0,0,0,
0,0,0,0,0,0,0,0,0,0,0,0,0,0,0,0,
19,19,19,19,19,0,0,0,0,0,0,0,0,0,0,0,
19,19,19,19,19,19,19,19,19,19,19,0,0,0,0,0,
19,19,19,19,19,19,19,19,19,19,19,19,19,19,19,19,
19,19,19,19,19,19,19,19,19,19,19,19,19,19,19,19,
19,19,19,19,19,19,19,19,19,19,19,19,19,19,19,19,
19,19,19,19,19,19,19,19,19,19,19,19,19,19,19,19,
19,19,19,19,19,19,19,19,19,19,19,19,19,19,19,19,
19,19,19,19,19,19,19,19,19,19,19,19,19,19,19,19,
19,19,19,19,19,19,19,19,19,19,19,19,19,19,19,19,
19,19,19,19,19,19,19,19,19,19,19,19,19,19,19,19,
19,19,19,19,19,19,19,19,19,19,19,19,19,19,19,19,
19,19,19,19,19,19,19,19,19,19,19,19,19,19,19,19,
19,19,19,19,19,19,19,19,19,19,19,19,19,19,19,19
</chunk>
   <chunk x="96" y="-96" width="16" height="16">
0,0,0,0,0,0,0,0,0,0,0,0,0,0,0,0,
0,0,0,0,0,0,0,0,0,0,0,0,0,0,0,0,
0,0,0,0,0,0,0,0,0,0,0,0,0,0,0,0,
0,0,0,0,0,0,0,0,0,0,0,0,0,0,0,0,
0,0,0,0,0,0,0,0,0,0,0,0,0,0,0,0,
19,19,19,19,0,0,0,0,0,0,0,0,0,0,0,0,
19,19,19,19,19,19,19,19,19,19,19,19,19,19,19,19,
19,19,19,19,19,19,19,19,19,19,19,19,19,19,19,19,
19,19,19,19,19,19,19,19,19,19,19,19,19,19,19,19,
19,19,19,19,19,19,19,19,19,19,19,19,19,19,19,19,
19,19,19,19,19,19,19,19,19,19,19,19,19,19,19,19,
19,19,19,19,19,19,19,19,19,19,19,19,19,19,19,19,
19,19,19,19,19,19,19,19,19,19,19,19,19,19,19,19,
19,19,19,19,19,19,19,19,19,19,19,19,19,19,19,19,
19,19,19,19,19,19,19,19,19,19,19,19,19,19,19,19,
19,19,19,19,19,19,19,19,19,19,19,19,19,19,19,19
</chunk>
   <chunk x="112" y="-96" width="16" height="16">
0,0,0,0,0,0,0,0,0,0,0,0,0,0,0,0,
0,0,0,0,0,0,0,0,0,0,0,0,0,0,0,0,
0,0,0,0,0,0,0,0,0,0,0,0,0,0,0,0,
0,0,0,0,0,0,0,0,0,0,0,0,0,0,0,0,
0,0,0,0,0,0,0,0,0,0,0,0,0,0,0,0,
0,0,0,0,0,0,0,0,0,0,0,0,0,0,0,0,
19,19,19,19,19,19,19,19,19,19,19,19,19,19,19,19,
19,19,19,19,19,19,19,19,19,19,19,19,19,19,19,19,
19,19,19,19,19,19,19,19,19,19,19,19,19,19,19,19,
19,19,19,19,19,19,19,19,19,19,19,19,19,19,19,19,
19,19,19,19,19,19,19,19,19,19,19,19,19,19,19,19,
19,19,19,19,19,19,19,19,19,19,19,19,19,19,19,19,
19,19,19,19,19,19,19,19,19,19,19,19,19,19,19,19,
19,19,19,19,19,19,19,19,19,19,19,19,19,19,19,19,
19,19,19,19,19,19,19,19,19,19,19,19,19,19,19,19,
19,19,19,19,19,19,19,19,19,19,19,19,19,19,19,19
</chunk>
   <chunk x="128" y="-96" width="16" height="16">
0,0,0,0,0,0,0,0,0,0,0,0,0,0,0,0,
0,0,0,0,0,0,0,0,0,0,0,0,0,0,0,0,
0,0,0,0,0,0,0,0,0,0,0,0,0,0,0,0,
0,0,0,0,0,0,0,0,0,0,0,0,0,0,0,0,
0,0,0,0,0,0,0,0,0,0,0,0,0,0,0,0,
0,0,0,0,0,0,0,0,0,0,0,0,0,0,0,0,
19,19,19,19,19,19,19,19,19,19,19,19,19,19,19,19,
19,19,19,19,19,19,19,19,19,19,19,19,19,19,19,19,
19,19,19,19,19,19,19,19,19,19,19,19,19,19,19,19,
19,19,19,19,19,19,19,19,19,19,19,19,19,19,19,19,
19,19,19,19,19,19,19,19,19,19,19,19,19,19,19,19,
19,19,19,19,19,19,19,19,19,19,19,19,19,19,19,19,
19,19,19,19,19,19,19,19,19,19,19,19,19,19,19,19,
19,19,19,19,19,19,19,19,19,19,19,19,19,19,19,19,
19,19,19,19,19,19,19,19,19,19,19,19,19,19,19,19,
19,19,19,19,19,19,19,19,19,19,19,19,19,19,19,19
</chunk>
   <chunk x="144" y="-96" width="16" height="16">
0,0,0,0,0,0,0,0,0,0,0,0,0,0,0,0,
0,0,0,0,0,0,0,0,0,0,0,0,0,0,0,0,
0,0,0,0,0,0,0,0,0,0,0,0,0,0,0,0,
0,0,0,0,0,0,0,0,0,0,0,0,0,0,0,0,
0,0,0,0,0,0,0,0,0,0,0,0,0,0,0,0,
0,0,0,0,0,0,0,0,0,0,0,0,0,0,0,0,
19,19,19,19,19,19,19,19,19,19,19,19,19,19,19,19,
19,19,19,19,19,19,19,19,19,19,19,19,19,19,19,19,
19,19,19,19,19,19,19,19,19,19,19,19,19,19,19,19,
19,19,19,19,19,19,19,19,19,19,19,19,19,19,19,19,
19,19,19,19,19,19,19,19,19,19,19,19,19,19,19,19,
19,19,19,19,19,19,19,19,19,19,19,19,19,19,19,19,
19,19,19,19,19,19,19,19,19,19,19,19,19,19,19,19,
19,19,19,19,19,19,19,19,19,19,19,19,19,19,19,19,
19,19,19,19,19,19,19,19,19,19,19,19,19,19,19,19,
19,19,19,19,19,19,19,19,19,19,19,19,19,19,19,19
</chunk>
   <chunk x="160" y="-96" width="16" height="16">
0,0,0,0,0,0,0,0,0,0,0,0,0,0,0,0,
0,0,0,0,0,0,0,0,0,0,0,0,0,0,0,0,
0,0,0,0,0,0,0,0,0,0,0,0,0,0,0,0,
0,0,0,0,0,0,0,0,0,0,0,0,0,0,0,0,
0,0,0,0,0,0,0,0,0,0,0,0,0,0,0,0,
0,0,0,0,0,0,0,0,0,0,0,0,0,0,0,0,
19,19,19,19,19,19,19,19,19,19,19,19,19,19,19,19,
19,19,19,19,19,19,19,19,19,19,19,19,19,19,19,19,
19,19,19,19,19,19,19,19,19,19,19,19,19,19,19,19,
19,19,19,19,19,19,19,19,19,19,19,19,19,19,19,19,
19,19,19,19,19,19,19,19,19,19,19,19,19,19,19,19,
19,19,19,19,19,19,19,19,19,19,19,19,19,19,19,19,
19,19,19,19,19,19,19,19,19,19,19,19,19,19,19,19,
19,19,19,19,19,19,19,19,19,19,19,19,19,19,19,19,
19,19,19,19,19,19,19,19,19,19,19,19,19,19,19,19,
19,19,19,19,19,19,19,19,19,19,19,19,19,19,19,19
</chunk>
   <chunk x="176" y="-96" width="16" height="16">
0,0,0,0,0,0,0,0,0,0,0,0,0,0,0,0,
0,0,0,0,0,0,0,0,0,0,0,0,0,0,0,0,
0,0,0,0,0,0,0,0,0,0,0,0,0,0,0,0,
0,0,0,0,0,0,0,0,0,0,0,0,0,0,0,0,
0,0,0,0,0,0,0,0,0,0,0,0,0,0,0,0,
0,0,0,0,0,0,0,0,0,0,0,0,0,0,0,0,
19,19,19,19,19,19,19,19,19,19,19,19,19,19,19,19,
19,19,19,19,19,19,19,19,19,19,19,19,19,19,19,19,
19,19,19,19,19,19,19,19,19,19,19,19,19,19,19,19,
19,19,19,19,19,19,19,19,19,19,19,19,19,19,19,19,
19,19,19,19,19,19,19,19,19,19,19,19,19,19,19,19,
19,19,19,19,19,19,19,19,19,19,19,19,19,19,19,19,
19,19,19,19,19,19,19,19,19,19,19,19,19,19,19,19,
19,19,19,19,19,19,19,19,19,19,19,19,19,19,19,19,
19,19,19,19,19,19,19,19,19,19,19,19,19,19,19,19,
19,19,19,19,19,19,19,19,19,19,19,19,19,19,19,19
</chunk>
   <chunk x="192" y="-96" width="16" height="16">
0,0,0,0,0,0,0,0,0,0,0,0,0,0,0,0,
0,0,0,0,0,0,0,0,0,0,0,0,0,0,0,0,
0,0,0,0,0,0,0,0,0,0,0,0,0,0,0,0,
0,0,0,0,0,0,0,0,0,0,0,0,0,0,0,0,
0,0,0,0,0,0,0,0,0,0,0,0,0,0,0,0,
0,0,0,0,0,0,0,0,0,0,0,0,0,0,0,0,
19,19,19,19,19,19,19,19,19,19,19,19,19,19,19,19,
19,19,19,19,19,19,19,19,19,19,19,19,19,19,19,19,
19,19,19,19,19,19,19,19,19,19,19,19,19,19,19,19,
19,19,19,19,19,19,19,19,19,19,19,19,19,19,19,19,
19,19,19,19,19,19,19,19,19,19,19,19,19,19,19,19,
19,19,19,19,19,19,19,19,19,19,19,19,19,19,19,19,
19,19,19,19,19,19,19,19,19,19,19,19,19,19,19,19,
19,19,19,19,19,19,19,19,19,19,19,19,19,19,19,19,
19,19,19,19,19,19,19,19,19,19,19,19,19,19,19,19,
19,19,19,19,19,19,19,19,19,19,19,19,19,19,19,19
</chunk>
   <chunk x="208" y="-96" width="16" height="16">
0,0,0,0,0,0,0,0,0,0,0,0,0,0,0,0,
0,0,0,0,0,0,0,0,0,0,0,0,0,0,0,0,
0,0,0,0,0,0,0,0,0,0,0,0,0,0,0,0,
0,0,0,0,0,0,0,0,0,0,0,0,0,0,0,0,
0,0,0,0,0,0,0,0,0,0,0,0,0,0,0,0,
0,0,0,0,0,0,0,0,0,0,0,0,0,0,0,0,
19,19,19,19,19,19,19,19,19,19,19,19,19,19,19,19,
19,19,19,19,19,19,19,19,19,19,19,19,19,19,19,19,
19,19,19,19,19,19,19,19,19,19,19,19,19,19,19,19,
19,19,19,19,19,19,19,19,19,19,19,19,19,19,19,19,
19,19,19,19,19,19,19,19,19,19,19,19,19,19,19,19,
19,19,19,19,19,19,19,19,19,19,19,19,19,19,19,19,
19,19,19,19,19,19,19,19,19,19,19,19,19,19,19,19,
19,19,19,19,19,19,19,19,19,19,19,19,19,19,19,19,
19,19,19,19,19,19,19,19,19,19,19,19,19,19,19,19,
19,19,19,19,19,19,19,19,19,19,19,19,19,19,19,19
</chunk>
   <chunk x="224" y="-96" width="16" height="16">
0,0,0,0,0,0,0,0,0,0,0,0,0,0,0,0,
0,0,0,0,0,0,0,0,0,0,0,0,0,0,0,0,
0,0,0,0,0,0,0,0,0,0,0,0,0,0,0,0,
0,0,0,0,0,0,0,0,0,0,0,0,0,0,0,0,
0,0,0,0,0,0,0,0,0,0,0,0,0,0,0,0,
0,0,0,0,0,0,0,0,0,0,0,0,0,0,0,0,
19,19,19,19,19,19,19,19,19,19,19,19,19,19,19,19,
19,19,19,19,19,19,19,19,19,19,19,19,19,19,19,19,
19,19,19,19,19,19,19,19,19,19,19,19,19,19,19,19,
19,19,19,19,19,19,19,19,19,19,19,19,19,19,19,19,
19,19,19,19,19,19,19,19,19,19,19,19,19,19,19,19,
19,19,19,19,19,19,19,19,19,19,19,19,19,19,19,19,
19,19,19,19,19,19,19,19,19,19,19,19,19,19,19,19,
19,19,19,19,19,19,19,19,19,19,19,19,19,19,19,19,
19,19,19,19,19,19,19,19,19,19,19,19,19,19,19,19,
19,19,19,19,19,19,19,19,19,19,19,19,19,19,19,19
</chunk>
   <chunk x="240" y="-96" width="16" height="16">
0,0,0,0,0,0,0,0,0,0,0,0,0,0,0,0,
0,0,0,0,0,0,0,0,0,0,0,0,0,0,0,0,
0,0,0,0,0,0,0,0,0,0,0,0,0,0,0,0,
0,0,0,0,0,19,19,19,19,19,19,19,19,19,19,19,
0,19,19,19,19,19,19,19,19,19,19,19,19,19,19,19,
0,19,19,19,19,19,19,19,19,19,19,19,19,19,19,19,
19,19,19,19,19,19,19,19,19,19,19,19,19,19,19,19,
19,19,19,19,19,19,19,19,19,19,19,19,19,19,19,19,
19,19,19,19,19,19,19,19,19,19,19,19,19,19,19,19,
19,19,19,19,19,19,19,19,19,19,19,19,19,19,19,19,
19,19,19,19,19,19,19,19,19,19,19,19,19,19,19,19,
19,19,19,19,19,19,19,19,19,19,19,19,19,19,19,19,
19,19,19,19,19,19,19,19,19,19,19,19,19,19,19,19,
19,19,19,19,19,19,19,19,19,19,19,19,19,19,19,19,
19,19,19,19,19,19,19,19,19,19,19,19,19,19,19,19,
19,19,19,19,19,19,19,19,19,19,19,19,19,19,19,19
</chunk>
   <chunk x="256" y="-96" width="16" height="16">
0,0,0,0,0,0,0,0,0,0,0,0,0,0,0,0,
0,0,0,0,0,0,0,0,0,0,0,0,0,0,0,0,
0,0,0,0,0,0,0,0,0,0,0,0,0,0,0,0,
19,19,19,19,19,19,19,19,19,19,19,19,19,19,19,19,
19,19,19,19,19,19,19,19,19,19,19,19,19,19,19,19,
19,19,19,19,19,19,19,19,19,19,19,19,19,19,19,19,
19,19,19,19,19,19,19,19,19,19,19,19,19,19,19,19,
19,19,19,19,19,19,19,19,19,19,19,19,19,19,19,19,
19,19,19,19,19,19,19,19,19,19,19,19,19,19,19,19,
19,19,19,19,19,19,19,19,19,19,19,19,19,19,19,19,
19,19,19,19,19,19,19,19,19,19,19,19,19,19,19,19,
19,19,19,19,19,19,19,19,19,19,19,19,19,19,19,19,
19,19,19,19,19,19,19,19,19,19,19,19,19,19,19,19,
19,19,19,19,19,19,19,19,19,19,19,19,19,19,19,19,
19,19,19,19,19,19,19,19,19,19,19,19,19,19,19,19,
19,19,19,19,19,19,19,19,19,19,19,19,19,19,19,19
</chunk>
   <chunk x="272" y="-96" width="16" height="16">
0,0,0,0,0,0,0,0,0,0,0,0,0,0,0,0,
0,0,0,0,0,0,0,0,0,0,0,0,0,0,0,0,
0,0,0,0,0,0,0,0,0,0,0,0,0,0,0,0,
19,19,19,19,19,19,19,19,19,19,19,19,19,19,19,19,
19,19,19,19,19,19,19,19,19,19,19,19,19,19,19,19,
19,19,19,19,19,19,19,19,19,19,19,19,19,19,19,19,
19,19,19,19,19,19,19,19,19,19,19,19,19,19,19,19,
19,19,19,19,19,19,19,19,19,19,19,19,19,19,19,19,
19,19,19,19,19,19,19,19,19,19,19,19,19,19,19,19,
19,19,19,19,19,19,19,19,19,19,19,19,19,19,19,19,
19,19,19,19,19,19,19,19,19,19,19,19,19,19,19,19,
19,19,19,19,19,19,19,19,19,19,19,19,19,19,19,19,
19,19,19,19,19,19,19,19,19,19,19,19,19,19,19,19,
19,19,19,19,19,19,19,19,19,19,19,19,19,19,19,19,
19,19,19,19,19,19,19,19,19,19,19,19,19,19,19,19,
19,19,19,19,19,19,19,19,19,19,19,19,19,19,19,19
</chunk>
   <chunk x="288" y="-96" width="16" height="16">
0,0,0,0,0,0,0,0,0,0,0,0,0,0,0,0,
0,0,0,0,0,0,0,0,0,0,0,0,0,0,0,0,
0,0,0,0,0,0,0,0,0,0,0,0,0,0,0,0,
19,19,19,19,19,19,19,19,19,19,19,19,19,19,19,19,
19,19,19,19,19,19,19,19,19,19,19,19,19,19,19,19,
19,19,19,19,19,19,19,19,19,19,19,19,19,19,19,19,
19,19,19,19,19,19,19,19,19,19,19,19,19,19,19,19,
19,19,19,19,19,19,19,19,19,19,19,19,19,19,19,19,
19,19,19,19,19,19,19,19,19,19,19,19,19,19,19,19,
19,19,19,19,19,19,19,19,19,19,19,19,19,19,19,19,
19,19,19,19,19,19,19,19,19,19,19,19,19,19,19,19,
19,19,19,19,19,19,19,19,19,19,19,19,19,19,19,19,
19,19,19,19,19,19,19,19,19,19,19,19,19,19,19,19,
19,19,19,19,19,19,19,19,19,19,19,19,19,19,19,19,
19,19,19,19,19,19,19,19,19,19,19,19,19,19,19,19,
19,19,19,19,19,19,19,19,19,19,19,19,19,19,19,19
</chunk>
   <chunk x="304" y="-96" width="16" height="16">
0,0,0,0,0,0,0,0,0,0,0,0,0,0,0,0,
0,0,0,0,0,0,0,0,0,0,0,0,0,0,0,0,
0,0,0,0,0,0,0,0,0,0,0,0,0,0,0,0,
19,19,19,19,19,19,19,19,19,19,19,19,19,19,19,19,
19,19,19,19,19,19,19,19,19,19,19,19,19,19,19,19,
19,19,19,19,19,19,19,19,19,19,19,19,19,19,19,19,
19,19,19,19,19,19,19,19,19,19,19,19,19,19,19,19,
19,19,19,19,19,19,19,19,19,19,19,19,19,19,19,19,
19,19,19,19,19,19,19,19,19,19,19,19,19,19,19,19,
19,19,19,19,19,19,19,19,19,19,19,19,19,19,19,19,
19,19,19,19,19,19,19,19,19,19,19,19,19,19,19,19,
19,19,19,19,19,19,19,19,19,19,19,19,19,19,19,19,
19,19,19,19,19,19,19,19,19,19,19,19,19,19,19,19,
19,19,19,19,19,19,19,19,19,19,19,19,19,19,19,19,
19,19,19,19,19,19,19,19,19,19,19,19,19,19,19,19,
19,19,19,19,19,19,19,19,19,19,19,19,19,19,19,19
</chunk>
   <chunk x="320" y="-96" width="16" height="16">
0,0,0,0,0,0,0,0,0,0,0,0,0,0,0,0,
0,0,0,0,0,0,0,0,0,0,0,0,0,0,0,0,
0,0,0,0,0,0,0,0,0,0,0,0,0,0,0,0,
19,19,19,19,19,19,19,19,19,19,19,19,19,19,19,19,
19,19,19,19,19,19,19,19,19,19,19,19,19,19,19,19,
19,19,19,19,19,19,19,19,19,19,19,19,19,19,19,19,
19,19,19,19,19,19,19,19,19,19,19,19,19,19,19,19,
19,19,19,19,19,19,19,19,19,19,19,19,19,19,19,19,
19,19,19,19,19,19,19,19,19,19,19,19,19,19,19,19,
19,19,19,19,19,19,19,19,19,19,19,19,19,19,19,19,
19,19,19,19,19,19,19,19,19,19,19,19,19,19,19,19,
19,19,19,19,19,19,19,19,19,19,19,19,19,19,19,19,
19,19,19,19,19,19,19,19,19,19,19,19,19,19,19,19,
19,19,19,19,19,19,19,19,19,19,19,19,19,19,19,19,
19,19,19,19,19,19,19,19,19,19,19,19,19,19,19,19,
19,19,19,19,19,19,19,19,19,19,19,19,19,19,19,19
</chunk>
   <chunk x="336" y="-96" width="16" height="16">
0,0,0,0,0,0,0,0,0,0,0,0,0,0,0,0,
0,0,0,0,0,0,0,0,0,0,0,0,0,0,0,0,
0,0,0,0,0,0,0,0,0,0,0,0,0,0,0,0,
19,19,19,19,19,19,19,19,19,19,19,19,19,19,19,19,
19,19,19,19,19,19,19,19,19,19,19,19,19,19,19,19,
19,19,19,19,19,19,19,19,19,19,19,19,19,19,19,19,
19,19,19,19,19,19,19,19,19,19,19,19,19,19,19,19,
19,19,19,19,19,19,19,19,19,19,19,19,19,19,19,19,
19,19,19,19,19,19,19,19,19,19,19,19,19,19,19,19,
19,19,19,19,19,19,19,19,19,19,19,19,19,19,19,19,
19,19,19,19,19,19,19,19,19,19,19,19,19,19,19,19,
19,19,19,19,19,19,19,19,19,19,19,19,19,19,19,19,
19,19,19,19,19,19,19,19,19,19,19,19,19,19,19,19,
19,19,19,19,19,19,19,19,19,19,19,19,19,19,19,19,
19,19,19,19,19,19,19,19,19,19,19,19,19,19,19,19,
19,19,19,19,19,19,19,19,19,19,19,19,19,19,19,19
</chunk>
   <chunk x="352" y="-96" width="16" height="16">
0,0,0,0,0,0,0,0,0,0,0,0,0,0,0,0,
0,0,0,0,0,0,0,0,0,0,0,0,0,0,0,0,
0,0,0,0,0,0,0,0,0,0,0,0,0,0,0,0,
19,19,19,19,19,19,19,19,19,19,19,19,19,19,19,19,
19,19,19,19,19,19,19,19,19,19,19,19,19,19,19,19,
19,19,19,19,19,19,19,19,19,19,19,19,19,19,19,19,
19,19,19,19,19,19,19,19,19,19,19,19,19,19,19,19,
19,19,19,19,19,19,19,19,19,19,19,19,19,19,19,19,
19,19,19,19,19,19,19,19,19,19,19,19,19,19,19,19,
19,19,19,19,19,19,19,19,19,19,19,19,19,19,19,19,
19,19,19,19,19,19,19,19,19,19,19,19,19,19,19,19,
19,19,19,19,19,19,19,19,19,19,19,19,19,19,19,19,
19,19,19,19,19,19,19,19,19,19,19,19,19,19,19,19,
19,19,19,19,19,19,19,19,19,19,19,19,19,19,19,19,
19,19,19,19,19,19,19,19,19,19,19,19,19,19,19,19,
19,19,19,19,19,19,19,19,19,19,19,19,19,19,19,19
</chunk>
   <chunk x="368" y="-96" width="16" height="16">
0,0,0,0,0,0,0,0,0,0,0,0,0,0,0,0,
0,0,0,0,0,0,0,0,0,0,0,0,0,0,0,0,
0,0,0,0,0,0,0,0,0,0,0,0,0,0,0,0,
19,19,19,19,19,19,19,19,19,19,19,19,19,19,19,19,
19,19,19,19,19,19,19,19,19,19,19,19,19,19,19,19,
19,19,19,19,19,19,19,19,19,19,19,19,19,19,19,19,
19,19,19,19,19,19,19,19,19,19,19,19,19,19,19,19,
19,19,19,19,19,19,19,19,19,19,19,19,19,19,19,19,
19,19,19,19,19,19,19,19,19,19,19,19,19,19,19,19,
19,19,19,19,19,19,19,19,19,19,19,19,19,19,19,19,
19,19,19,19,19,19,19,19,19,19,19,19,19,19,19,19,
19,19,19,19,19,19,19,19,19,19,19,19,19,19,19,19,
19,19,19,19,19,19,19,19,19,19,19,19,19,19,19,19,
19,19,19,19,19,19,19,19,19,19,19,19,19,19,19,19,
19,19,19,19,19,19,19,19,19,19,19,19,19,19,19,19,
19,19,19,19,19,19,19,19,19,19,19,19,19,19,19,19
</chunk>
   <chunk x="384" y="-96" width="16" height="16">
0,0,0,0,0,0,0,0,0,0,0,0,0,0,0,0,
0,0,0,0,0,0,0,0,0,0,0,0,0,0,0,0,
0,0,0,0,0,0,0,0,0,0,0,0,0,0,0,0,
19,19,19,19,19,19,19,19,19,19,19,19,19,19,19,19,
19,19,19,19,19,19,19,19,19,19,19,19,19,19,19,19,
19,19,19,19,19,19,19,19,19,19,19,19,19,19,19,19,
19,19,19,19,19,19,19,19,19,19,19,19,19,19,19,19,
19,19,19,19,19,19,19,19,19,19,19,19,19,19,19,19,
19,19,19,19,19,19,19,19,19,19,19,19,19,19,19,19,
19,19,19,19,19,19,19,19,19,19,19,19,19,19,19,19,
19,19,19,19,19,19,19,19,19,19,19,19,19,19,19,19,
19,19,19,19,19,19,19,19,19,19,19,19,19,19,19,19,
19,19,19,19,19,19,19,19,19,19,19,19,19,19,19,19,
19,19,19,19,19,19,19,19,19,19,19,19,19,19,19,19,
19,19,19,19,19,19,19,19,19,19,19,19,19,19,19,19,
19,19,19,19,19,19,19,19,19,19,19,19,19,19,19,19
</chunk>
   <chunk x="400" y="-96" width="16" height="16">
0,0,0,0,0,0,0,0,0,0,0,0,0,0,0,0,
0,0,0,0,0,0,0,0,0,0,0,0,0,0,0,0,
0,0,0,0,0,0,0,0,0,0,0,0,0,0,0,0,
19,19,19,19,19,19,19,19,19,19,19,19,19,19,19,19,
19,19,19,19,19,19,19,19,19,19,19,19,19,19,19,19,
19,19,19,19,19,19,19,19,19,19,19,19,19,19,19,19,
19,19,19,19,19,19,19,19,19,19,19,19,19,19,19,19,
19,19,19,19,19,19,19,19,19,19,19,19,19,19,19,19,
19,19,19,19,19,19,19,19,19,19,19,19,19,19,19,19,
19,19,19,19,19,19,19,19,19,19,19,19,19,19,19,19,
19,19,19,19,19,19,19,19,19,19,19,19,19,19,19,19,
19,19,19,19,19,19,19,19,19,19,19,19,19,19,19,19,
19,19,19,19,19,19,19,19,19,19,19,19,19,19,19,19,
19,19,19,19,19,19,19,19,19,19,19,19,19,19,19,19,
19,19,19,19,19,19,19,19,19,19,19,19,19,19,19,19,
19,19,19,19,19,19,19,19,19,19,19,19,19,19,19,19
</chunk>
   <chunk x="416" y="-96" width="16" height="16">
0,0,0,0,0,0,0,0,0,0,0,0,0,0,0,0,
0,0,0,0,0,0,0,0,0,0,0,0,0,0,0,0,
0,0,0,0,0,0,0,0,0,0,0,0,0,0,0,0,
19,19,19,19,19,19,19,19,19,19,19,19,19,19,19,19,
19,19,19,19,19,19,19,19,19,19,19,19,19,19,19,19,
19,19,19,19,19,19,19,19,19,19,19,19,19,19,19,19,
19,19,19,19,19,19,19,19,19,19,19,19,19,19,19,19,
19,19,19,19,19,19,19,19,19,19,19,19,19,19,19,19,
19,19,19,19,19,19,19,19,19,19,19,19,19,19,19,19,
19,19,19,19,19,19,19,19,19,19,19,19,19,19,19,19,
19,19,19,19,19,19,19,19,19,19,19,19,19,19,19,19,
19,19,19,19,19,19,19,19,19,19,19,19,19,19,19,19,
19,19,19,19,19,19,19,19,19,19,19,19,19,19,19,19,
19,19,19,19,19,19,19,19,19,19,19,19,19,19,19,19,
19,19,19,19,19,19,19,19,19,19,19,19,19,19,19,19,
19,19,19,19,19,19,19,19,19,19,19,19,19,19,19,19
</chunk>
   <chunk x="432" y="-96" width="16" height="16">
0,0,0,0,0,0,0,0,0,0,0,0,0,0,0,0,
0,0,0,0,0,0,0,0,0,0,0,0,0,0,0,0,
0,0,0,0,0,0,0,0,0,0,0,0,0,0,0,0,
19,19,19,19,19,19,19,19,19,19,19,19,19,19,19,19,
19,19,19,19,19,19,19,19,19,19,19,19,19,19,19,19,
19,19,19,19,19,19,19,19,19,19,19,19,19,19,19,19,
19,19,19,19,19,19,19,19,19,19,19,19,19,19,19,19,
19,19,19,19,19,19,19,19,19,19,19,19,19,19,19,19,
19,19,19,19,19,19,19,19,19,19,19,19,19,19,19,19,
19,19,19,19,19,19,19,19,19,19,19,19,19,19,19,19,
19,19,19,19,19,19,19,19,19,19,19,19,19,19,19,19,
19,19,19,19,19,19,19,19,19,19,19,19,19,19,19,19,
19,19,19,19,19,19,19,19,19,19,19,19,19,19,19,19,
19,19,19,19,19,19,19,19,19,19,19,19,19,19,19,19,
19,19,19,19,19,19,19,19,19,19,19,19,19,19,19,19,
19,19,19,19,19,19,19,19,19,19,19,19,19,19,19,19
</chunk>
   <chunk x="448" y="-96" width="16" height="16">
0,0,0,0,0,0,0,0,0,0,0,0,0,0,0,0,
0,0,0,0,0,0,0,0,0,0,0,0,0,0,0,0,
0,0,0,0,0,0,0,0,0,0,0,0,0,0,0,0,
19,19,19,19,19,19,19,19,19,19,19,19,19,19,19,19,
19,19,19,19,19,19,19,19,19,19,19,19,19,19,19,19,
19,19,19,19,19,19,19,19,19,19,19,19,19,19,19,19,
19,19,19,19,19,19,19,19,19,19,19,19,19,19,19,19,
19,19,19,19,19,19,19,19,19,19,19,19,19,19,19,19,
19,19,19,19,19,19,19,19,19,19,19,19,19,19,19,19,
19,19,19,19,19,19,19,19,19,19,19,19,19,19,19,19,
19,19,19,19,19,19,19,19,19,19,19,19,19,19,19,19,
19,19,19,19,19,19,19,19,19,19,19,19,19,19,19,19,
19,19,19,19,19,19,19,19,19,19,19,19,19,19,19,19,
19,19,19,19,19,19,19,19,19,19,19,19,19,19,19,19,
19,19,19,19,19,19,19,19,19,19,19,19,19,19,19,19,
19,19,19,19,19,19,19,19,19,19,19,19,19,19,19,19
</chunk>
   <chunk x="464" y="-96" width="16" height="16">
0,0,0,0,0,0,0,0,0,0,0,0,0,0,0,0,
0,0,0,0,0,0,0,0,0,0,0,0,0,0,0,0,
0,0,0,0,0,0,0,0,0,0,0,0,0,0,0,0,
19,19,19,19,19,19,19,19,19,19,19,19,19,19,19,19,
19,19,19,19,19,19,19,19,19,19,19,19,19,19,19,19,
19,19,19,19,19,19,19,19,19,19,19,19,19,19,19,19,
19,19,19,19,19,19,19,19,19,19,19,19,19,19,19,19,
19,19,19,19,19,19,19,19,19,19,19,19,19,19,19,19,
19,19,19,19,19,19,19,19,19,19,19,19,19,19,19,19,
19,19,19,19,19,19,19,19,19,19,19,19,19,19,19,19,
19,19,19,19,19,19,19,19,19,19,19,19,19,19,19,19,
19,19,19,19,19,19,19,19,19,19,19,19,19,19,19,19,
19,19,19,19,19,19,19,19,19,19,19,19,19,19,19,19,
19,19,19,19,19,19,19,19,19,19,19,19,19,19,19,19,
19,19,19,19,19,19,19,19,19,19,19,19,19,19,19,19,
19,19,19,19,19,19,19,19,19,19,19,19,19,19,19,19
</chunk>
   <chunk x="480" y="-96" width="16" height="16">
0,0,0,0,0,0,0,0,0,0,0,0,0,0,0,0,
0,0,0,0,0,0,0,0,0,0,0,0,0,0,0,0,
0,0,0,0,0,0,0,0,0,0,0,0,0,0,0,0,
19,19,19,19,19,19,19,19,19,19,19,19,19,19,19,19,
19,19,19,19,19,19,19,19,19,19,19,19,19,19,19,19,
19,19,19,19,19,19,19,19,19,19,19,19,19,19,19,19,
19,19,19,19,19,19,19,19,19,19,19,19,19,19,19,19,
19,19,19,19,19,19,19,19,19,19,19,19,19,19,19,19,
19,19,19,19,19,19,19,19,19,19,19,19,19,19,19,19,
19,19,19,19,19,19,19,19,19,19,19,19,19,19,19,19,
19,19,19,19,19,19,19,19,19,19,19,19,19,19,19,19,
19,19,19,19,19,19,19,19,19,19,19,19,19,19,19,19,
19,19,19,19,19,19,19,19,19,19,19,19,19,19,19,19,
19,19,19,19,19,19,19,19,19,19,19,19,19,19,19,19,
19,19,19,19,19,19,19,19,19,19,19,19,19,19,19,19,
19,19,19,19,19,19,19,19,19,19,19,19,19,19,19,19
</chunk>
   <chunk x="496" y="-96" width="16" height="16">
0,0,0,0,0,0,0,0,0,0,0,0,0,0,0,0,
0,0,0,0,0,0,0,0,0,0,0,0,0,0,0,0,
0,0,0,0,0,0,0,0,0,0,0,0,0,0,0,0,
19,19,19,19,19,19,19,19,19,19,19,19,19,19,19,19,
19,19,19,19,19,19,19,19,19,19,19,19,19,19,19,19,
19,19,19,19,19,19,19,19,19,19,19,19,19,19,19,19,
19,19,19,19,19,19,19,19,19,19,19,19,19,19,19,19,
19,19,19,19,19,19,19,19,19,19,19,19,19,19,19,19,
19,19,19,19,19,19,19,19,19,19,19,19,19,19,19,19,
19,19,19,19,19,19,19,19,19,19,19,19,19,19,19,19,
19,19,19,19,19,19,19,19,19,19,19,19,19,19,19,19,
19,19,19,19,19,19,19,19,19,19,19,19,19,19,19,19,
19,19,19,19,19,19,19,19,19,19,19,19,19,19,19,19,
19,19,19,19,19,19,19,19,19,19,19,19,19,19,19,19,
19,19,19,19,19,19,19,19,19,19,19,19,19,19,19,19,
19,19,19,19,19,19,19,19,19,19,19,19,19,19,19,19
</chunk>
   <chunk x="512" y="-96" width="16" height="16">
0,0,0,0,0,0,0,0,0,0,0,0,0,0,0,0,
0,0,0,0,0,0,0,0,0,0,0,0,0,0,0,0,
0,0,0,0,0,0,0,0,0,0,0,0,0,0,0,0,
19,19,19,19,19,19,19,19,19,19,19,0,0,0,0,0,
19,19,19,19,19,19,19,19,19,19,19,0,0,0,0,0,
19,19,19,19,19,19,19,19,19,19,19,0,0,0,0,0,
19,19,19,19,19,19,19,19,19,19,19,0,0,0,0,0,
19,19,19,19,19,19,19,19,19,19,19,0,0,0,0,0,
19,19,19,19,19,19,19,19,19,19,19,0,0,0,0,0,
19,19,19,19,19,19,19,19,19,19,19,0,0,0,0,0,
19,19,19,19,19,19,19,19,19,19,19,0,0,0,0,0,
19,19,19,19,19,19,19,19,19,19,19,0,0,0,0,0,
19,19,19,19,19,19,19,19,19,19,19,0,0,0,0,0,
19,19,19,19,19,19,19,19,19,19,19,0,0,0,0,0,
19,19,19,19,19,19,19,19,19,19,19,0,0,0,0,0,
19,19,19,19,19,19,19,19,19,19,19,0,0,0,0,0
</chunk>
   <chunk x="-32" y="-80" width="16" height="16">
0,0,0,0,0,0,0,0,0,0,0,0,19,19,19,19,
0,0,0,0,0,0,0,0,0,0,0,0,19,19,19,19,
0,0,0,0,0,0,0,0,0,0,0,0,19,19,19,19,
0,0,0,0,0,0,0,0,0,0,0,0,19,19,19,19,
0,0,0,0,0,0,0,0,0,0,0,0,19,19,19,19,
0,0,0,0,0,0,0,0,0,0,0,0,19,19,19,19,
0,0,0,0,0,0,0,0,0,0,0,0,19,19,19,19,
0,0,0,0,0,0,0,0,0,0,0,0,19,19,19,19,
0,0,0,0,0,0,0,0,0,0,0,0,19,19,19,19,
0,0,0,0,0,0,0,0,0,0,0,0,19,19,19,19,
0,0,0,0,0,0,0,0,0,0,0,0,19,19,19,19,
0,0,0,0,0,0,0,0,0,0,0,0,19,19,19,19,
0,0,0,0,0,0,0,0,0,0,0,0,19,19,19,19,
0,0,0,0,0,0,0,0,0,0,0,0,19,19,19,19,
0,0,0,0,0,0,0,0,0,0,0,0,19,19,19,19,
0,0,0,0,0,0,0,0,0,0,0,0,19,19,19,19
</chunk>
   <chunk x="-16" y="-80" width="16" height="16">
19,19,19,19,19,19,19,19,19,19,19,19,19,19,19,19,
19,19,19,19,19,19,19,19,19,19,19,19,19,19,19,19,
19,19,19,19,19,19,19,19,19,19,19,19,19,19,19,19,
19,19,19,19,19,19,19,19,19,19,19,19,19,19,19,19,
19,19,19,19,19,19,19,19,19,19,19,19,19,19,19,19,
19,19,19,19,19,19,19,19,19,19,19,19,19,19,19,19,
19,19,19,19,19,19,19,19,19,19,19,19,19,19,19,19,
19,19,19,19,19,19,19,19,19,19,19,19,19,19,19,19,
19,19,19,19,19,19,19,19,19,19,19,19,19,19,19,19,
19,19,19,19,19,19,19,19,19,19,19,19,19,19,19,19,
19,19,19,19,19,19,19,19,19,19,19,19,19,19,19,19,
19,19,19,19,19,19,19,19,19,19,19,19,19,19,19,19,
19,19,19,19,19,19,19,19,19,19,19,19,19,19,19,19,
19,19,19,19,19,19,19,19,19,19,19,19,19,19,19,19,
19,19,19,19,19,19,19,19,19,19,19,19,19,19,19,19,
19,19,19,19,19,19,19,19,19,19,19,19,19,19,19,19
</chunk>
   <chunk x="0" y="-80" width="16" height="16">
19,19,19,19,19,19,19,19,19,19,19,19,19,19,19,19,
19,19,19,19,19,19,19,19,19,19,19,19,19,19,19,19,
19,19,19,19,19,19,19,19,19,19,19,19,19,19,19,19,
19,19,19,19,19,19,19,19,19,19,19,19,19,19,19,19,
19,19,19,19,19,19,19,19,19,19,19,19,19,19,19,19,
19,19,19,19,19,19,19,19,19,19,19,19,19,19,19,19,
19,19,19,19,19,19,19,19,19,19,19,19,19,19,19,19,
19,19,19,19,19,19,19,19,19,19,19,19,19,19,19,19,
19,19,19,19,19,19,19,19,19,19,19,19,19,19,19,19,
19,19,19,19,19,19,19,19,19,19,19,19,19,19,19,19,
19,19,19,19,19,19,19,19,19,19,19,19,19,19,19,19,
19,19,19,19,19,19,19,19,19,19,19,19,19,19,19,19,
19,19,19,19,19,19,19,19,19,19,19,19,19,19,19,19,
19,19,19,19,19,19,19,19,19,19,19,19,19,19,19,19,
19,19,19,19,19,19,19,19,19,19,19,19,19,19,19,19,
19,19,19,19,19,19,19,19,19,19,19,19,19,19,19,19
</chunk>
   <chunk x="16" y="-80" width="16" height="16">
19,19,19,19,19,19,19,19,19,19,19,19,19,19,19,19,
19,19,19,19,19,19,19,19,19,19,19,19,19,19,19,19,
19,19,19,19,19,19,19,19,19,19,19,19,19,19,19,19,
19,19,19,19,19,19,19,19,19,19,19,19,19,19,19,19,
19,19,19,19,19,19,19,19,19,19,19,19,19,19,19,19,
19,19,19,19,19,19,19,19,19,19,19,19,19,19,19,19,
19,19,19,19,19,19,19,19,19,19,19,19,19,19,19,19,
19,19,19,19,19,19,19,19,19,19,19,19,19,19,19,19,
19,19,19,19,19,19,19,19,19,19,19,19,19,19,19,19,
19,19,19,19,19,19,19,19,19,19,19,19,19,19,19,19,
19,19,19,19,19,19,19,19,19,19,19,19,19,19,19,19,
19,19,19,19,19,19,19,19,19,19,19,19,19,19,19,19,
19,19,19,19,19,19,19,19,19,19,19,19,19,19,19,19,
19,19,19,19,19,19,19,19,19,19,19,19,19,19,19,19,
19,19,19,19,19,19,19,19,19,19,19,19,19,19,19,19,
19,19,19,19,19,19,19,19,19,19,19,19,19,19,19,19
</chunk>
   <chunk x="32" y="-80" width="16" height="16">
19,19,19,19,19,19,19,19,19,19,19,19,19,19,19,19,
19,19,19,19,19,19,19,19,19,19,19,19,19,19,19,19,
19,19,19,19,19,19,19,19,19,19,19,19,19,19,19,19,
19,19,19,19,19,19,19,19,19,19,19,19,19,19,19,19,
19,19,19,19,19,19,19,19,19,19,19,19,19,19,19,19,
19,19,19,19,19,19,19,19,19,19,19,19,19,19,19,19,
19,19,19,19,19,19,19,19,19,19,19,19,19,19,19,19,
19,19,19,19,19,19,19,19,19,19,19,19,19,19,19,19,
19,19,19,19,19,19,19,19,19,19,19,19,19,19,19,19,
19,19,19,19,19,19,19,19,19,19,19,19,19,19,19,19,
19,19,19,19,19,19,19,19,19,19,19,19,19,19,19,19,
19,19,19,19,19,19,19,19,19,19,19,19,19,19,19,19,
19,19,19,19,19,19,19,19,19,19,19,19,19,19,19,19,
19,19,19,19,19,19,19,19,19,19,19,19,19,19,19,19,
19,19,19,19,19,19,19,19,19,19,19,19,19,19,19,19,
19,19,19,19,19,19,19,19,19,19,19,19,19,19,19,19
</chunk>
   <chunk x="48" y="-80" width="16" height="16">
19,19,19,19,19,19,19,19,19,19,19,19,19,19,19,19,
19,19,19,19,19,19,19,19,19,19,19,19,19,19,19,19,
19,19,19,19,19,19,19,19,19,19,19,19,19,19,19,19,
19,19,19,19,19,19,19,19,19,19,19,19,19,19,19,19,
19,19,19,19,19,19,19,19,19,19,19,19,19,19,19,19,
19,19,19,19,19,19,19,19,19,19,19,19,19,19,19,19,
19,19,19,19,19,19,19,19,19,19,19,19,19,19,19,19,
19,19,19,19,19,19,19,19,19,19,19,19,19,19,19,19,
19,19,19,19,19,19,19,19,19,19,19,19,19,19,19,19,
19,19,19,19,19,19,19,19,19,19,19,19,19,19,19,19,
19,19,19,19,19,19,19,19,19,19,19,19,19,19,19,19,
19,19,19,19,19,19,19,19,19,19,19,19,19,19,19,19,
19,19,19,19,19,19,19,19,19,19,19,19,19,19,19,19,
19,19,19,19,19,19,19,19,19,19,19,19,19,19,19,19,
19,19,19,19,19,19,19,19,19,19,19,19,19,19,19,19,
19,19,19,19,19,19,19,19,19,19,19,19,19,19,19,19
</chunk>
   <chunk x="64" y="-80" width="16" height="16">
19,19,19,19,19,19,19,19,19,19,19,19,19,19,19,19,
19,19,19,19,19,19,19,19,19,19,19,19,19,19,19,19,
19,19,19,19,19,19,19,19,19,19,19,19,19,19,19,19,
19,19,19,19,19,19,19,19,19,19,19,19,19,19,19,19,
19,19,19,19,19,19,19,19,19,19,19,19,19,19,19,19,
19,19,19,19,19,19,19,19,19,19,19,19,19,19,19,19,
19,19,19,19,19,19,19,19,19,19,19,19,19,19,19,19,
19,19,19,19,19,19,19,19,19,19,19,19,19,19,19,19,
19,19,19,19,19,19,19,19,19,19,19,19,19,19,19,19,
19,19,19,19,19,19,19,19,19,19,19,19,19,19,19,19,
19,19,19,19,19,19,19,19,19,19,19,19,19,19,19,19,
19,19,19,19,19,19,19,19,19,19,19,19,19,19,19,19,
19,19,19,19,19,19,19,19,19,19,19,19,19,19,19,19,
19,19,19,19,19,19,19,19,19,19,19,19,19,19,19,19,
19,19,19,19,19,19,19,19,19,19,19,19,19,19,19,19,
19,19,19,19,19,19,19,19,19,19,19,19,19,19,19,19
</chunk>
   <chunk x="80" y="-80" width="16" height="16">
19,19,19,19,19,19,19,19,19,19,19,19,19,19,19,19,
19,19,19,19,19,19,19,19,19,19,19,19,19,19,19,19,
19,19,19,19,19,19,19,19,19,19,19,19,19,19,19,19,
19,19,19,19,19,19,19,19,19,19,19,19,19,19,19,19,
19,19,19,19,19,19,19,19,19,19,19,19,19,19,19,19,
19,19,19,19,19,19,19,19,19,19,19,19,19,19,19,19,
19,19,19,19,19,19,19,19,19,19,19,19,19,19,19,19,
19,19,19,19,19,19,19,19,19,19,19,19,19,19,19,19,
19,19,19,19,19,19,19,19,19,19,19,19,19,19,19,19,
19,19,19,19,19,19,19,19,19,19,19,19,19,19,19,19,
19,19,19,19,19,19,19,19,19,19,19,19,19,19,19,19,
19,19,19,19,19,19,19,19,19,19,19,19,19,19,19,19,
19,19,19,19,19,19,19,19,19,19,19,19,19,19,19,19,
19,19,19,19,19,19,19,19,19,19,19,19,19,19,19,19,
19,19,19,19,19,19,19,19,19,19,19,19,19,19,19,19,
19,19,19,19,19,19,19,19,19,19,19,19,19,19,19,19
</chunk>
   <chunk x="96" y="-80" width="16" height="16">
19,19,19,19,19,19,19,19,19,19,19,19,19,19,19,19,
19,19,19,19,19,19,19,19,19,19,19,19,19,19,19,19,
19,19,19,19,19,19,19,19,19,19,19,19,19,19,19,19,
19,19,19,19,19,19,19,19,19,19,19,19,19,19,19,19,
19,19,19,19,19,19,19,19,19,19,19,19,19,19,19,19,
19,19,19,19,19,19,19,19,19,19,19,19,19,19,19,19,
19,19,19,19,19,19,19,19,19,19,19,19,19,19,19,19,
19,19,19,19,19,19,19,19,19,19,19,19,19,19,19,19,
19,19,19,19,19,19,19,19,19,19,19,19,19,19,19,19,
19,19,19,19,19,19,19,19,19,19,19,19,19,19,19,19,
19,19,19,19,19,19,19,19,19,19,19,19,19,19,19,19,
19,19,19,19,19,19,19,19,19,19,19,19,19,19,19,19,
19,19,19,19,19,19,19,19,19,19,19,19,19,19,19,19,
19,19,19,19,19,19,19,19,19,19,19,19,19,19,19,19,
19,19,19,19,19,19,19,19,19,19,19,19,19,19,19,19,
19,19,19,19,19,19,19,19,19,19,19,19,19,19,19,19
</chunk>
   <chunk x="112" y="-80" width="16" height="16">
19,19,19,19,19,19,19,19,19,19,19,19,19,19,19,19,
19,19,19,19,19,19,19,19,19,19,19,19,19,19,19,19,
19,19,19,19,19,19,19,19,19,19,19,19,19,19,19,19,
19,19,19,19,19,19,19,19,19,19,19,19,19,19,19,19,
19,19,19,19,19,19,19,19,19,19,19,19,19,19,19,19,
19,19,19,19,19,19,19,19,19,19,19,19,19,19,19,19,
19,19,19,19,19,19,19,19,19,19,19,19,19,19,19,19,
19,19,19,19,19,19,19,19,19,19,19,19,19,19,19,19,
19,19,19,19,19,19,19,19,19,19,19,19,19,19,19,19,
19,19,19,19,19,19,19,19,19,19,19,19,19,19,19,19,
19,19,19,19,19,19,19,19,19,19,19,19,19,19,19,19,
19,19,19,19,19,19,19,19,19,19,19,19,19,19,19,19,
19,19,19,19,19,19,19,19,19,19,19,19,19,19,19,19,
19,19,19,19,19,19,19,19,19,19,19,19,19,19,19,19,
19,19,19,19,19,19,19,19,19,19,19,19,19,19,19,19,
19,19,19,19,19,19,19,19,19,19,19,19,19,19,19,19
</chunk>
   <chunk x="128" y="-80" width="16" height="16">
19,19,19,19,19,19,19,19,19,19,19,19,19,19,19,19,
19,19,19,19,19,19,19,19,19,19,19,19,19,19,19,19,
19,19,19,19,19,19,19,19,19,19,19,19,19,19,19,19,
19,19,19,19,19,19,19,19,19,19,19,19,19,19,19,19,
19,19,19,19,19,19,19,19,19,19,19,19,19,19,19,19,
19,19,19,19,19,19,19,19,19,19,19,19,19,19,19,19,
19,19,19,19,19,19,19,19,19,19,19,19,19,19,19,19,
19,19,19,19,19,19,19,19,19,19,19,19,19,19,19,19,
19,19,19,19,19,19,19,19,19,19,19,19,19,19,19,19,
19,19,19,19,19,19,19,19,19,19,19,19,19,19,19,19,
19,19,19,19,19,19,19,19,19,19,19,19,19,19,19,19,
19,19,19,19,19,19,19,19,19,19,19,19,19,19,19,19,
19,19,19,19,19,19,19,19,19,19,19,19,19,19,19,19,
19,19,19,19,19,19,19,19,19,19,19,19,19,19,19,19,
19,19,19,19,19,19,19,19,19,19,19,19,19,19,19,19,
19,19,19,19,19,19,19,19,19,19,19,19,19,19,19,19
</chunk>
   <chunk x="144" y="-80" width="16" height="16">
19,19,19,19,19,19,19,19,19,19,19,19,19,19,19,19,
19,19,19,19,19,19,19,19,19,19,19,19,19,19,19,19,
19,19,19,19,19,19,19,19,19,19,19,19,19,19,19,19,
19,19,19,19,19,19,19,19,19,19,19,19,19,19,19,19,
19,19,19,19,19,19,19,19,19,19,19,19,19,19,19,19,
19,19,19,19,19,19,19,19,19,19,19,19,19,19,19,19,
19,19,19,19,19,19,19,19,19,19,19,19,19,19,19,19,
19,19,19,19,19,19,19,19,19,19,19,19,19,19,19,19,
19,19,19,19,19,19,19,19,19,19,19,19,19,19,19,19,
19,19,19,19,19,19,19,19,19,19,19,19,19,19,19,19,
19,19,19,19,19,19,19,19,19,19,19,19,19,19,19,19,
19,19,19,19,19,19,19,19,19,19,19,19,19,19,19,19,
19,19,19,19,19,19,19,19,19,19,19,19,19,19,19,19,
19,19,19,19,19,19,19,19,19,19,19,19,19,19,19,19,
19,19,19,19,19,19,19,19,19,19,19,19,19,19,19,19,
19,19,19,19,19,19,19,19,19,19,19,19,19,19,19,19
</chunk>
   <chunk x="160" y="-80" width="16" height="16">
19,19,19,19,19,19,19,19,19,19,19,19,19,19,19,19,
19,19,19,19,19,19,19,19,19,19,19,19,19,19,19,19,
19,19,19,19,19,19,19,19,19,19,19,19,19,19,19,19,
19,19,19,19,19,19,19,19,19,19,19,19,19,19,19,19,
19,19,19,19,19,19,19,19,19,19,19,19,19,19,19,19,
19,19,19,19,19,19,19,19,19,19,19,19,19,19,19,19,
19,19,19,19,19,19,19,19,19,19,19,19,19,19,19,19,
19,19,19,19,19,19,19,19,19,19,19,19,19,19,19,19,
19,19,19,19,19,19,19,19,19,19,19,19,19,19,19,19,
19,19,19,19,19,19,19,19,19,19,19,19,19,19,19,19,
19,19,19,19,19,19,19,19,19,19,19,19,19,19,19,19,
19,19,19,19,19,19,19,19,19,19,19,19,19,19,19,19,
19,19,19,19,19,19,19,19,19,19,19,19,19,19,19,19,
19,19,19,19,19,19,19,19,19,19,19,19,19,19,19,19,
19,19,19,19,19,19,19,19,19,19,19,19,19,19,19,19,
19,19,19,19,19,19,19,19,19,19,19,19,19,19,19,19
</chunk>
   <chunk x="176" y="-80" width="16" height="16">
19,19,19,19,19,19,19,19,19,19,19,19,19,19,19,19,
19,19,19,19,19,19,19,19,19,19,19,19,19,19,19,19,
19,19,19,19,19,19,19,19,19,19,19,19,19,19,19,19,
19,19,19,19,19,19,19,19,19,19,19,19,19,19,19,19,
19,19,19,19,19,19,19,19,19,19,19,19,19,19,19,19,
19,19,19,19,19,19,19,19,19,19,19,19,19,19,19,19,
19,19,19,19,19,19,19,19,19,19,19,19,19,19,19,19,
19,19,19,19,19,19,19,19,19,19,19,19,19,19,19,19,
19,19,19,19,19,19,19,19,19,19,19,19,19,19,19,19,
19,19,19,19,19,19,19,19,19,19,19,19,19,19,19,19,
19,19,19,19,19,19,19,19,19,19,19,19,19,19,19,19,
19,19,19,19,19,19,19,19,19,19,19,19,19,19,19,19,
19,19,19,19,19,19,19,19,19,19,19,19,19,19,19,19,
19,19,19,19,19,19,19,19,19,19,19,19,19,19,19,19,
19,19,19,19,19,19,19,19,19,19,19,19,19,19,19,19,
19,19,19,19,19,19,19,19,19,19,19,19,19,19,19,19
</chunk>
   <chunk x="192" y="-80" width="16" height="16">
19,19,19,19,19,19,19,19,19,19,19,19,19,19,19,19,
19,19,19,19,19,19,19,19,19,19,19,19,19,19,19,19,
19,19,19,19,19,19,19,19,19,19,19,19,19,19,19,19,
19,19,19,19,19,19,19,19,19,19,19,19,19,19,19,19,
19,19,19,19,19,19,19,19,19,19,19,19,19,19,19,19,
19,19,19,19,19,19,19,19,19,19,19,19,19,19,19,19,
19,19,19,19,19,19,19,19,19,19,19,19,19,19,19,19,
19,19,19,19,19,19,19,19,19,19,19,19,19,19,19,19,
19,19,19,19,19,19,19,19,19,19,19,19,19,19,19,19,
19,19,19,19,19,19,19,19,19,19,19,19,19,19,19,19,
19,19,19,19,19,19,19,19,19,19,19,19,19,19,19,19,
19,19,19,19,19,19,19,19,19,19,19,19,19,19,19,19,
19,19,19,19,19,19,19,19,19,19,19,19,19,19,19,19,
19,19,19,19,19,19,19,19,19,19,19,19,19,19,19,19,
19,19,19,19,19,19,19,19,19,19,19,19,19,19,19,19,
19,19,19,19,19,19,19,19,19,19,19,19,19,19,19,19
</chunk>
   <chunk x="208" y="-80" width="16" height="16">
19,19,19,19,19,19,19,19,19,19,19,19,19,19,19,19,
19,19,19,19,19,19,19,19,19,19,19,19,19,19,19,19,
19,19,19,19,19,19,19,19,19,19,19,19,19,19,19,19,
19,19,19,19,19,19,19,19,19,19,19,19,19,19,19,19,
19,19,19,19,19,19,19,19,19,19,19,19,19,19,19,19,
19,19,19,19,19,19,19,19,19,19,19,19,19,19,19,19,
19,19,19,19,19,19,19,19,19,19,19,19,19,19,19,19,
19,19,19,19,19,19,19,19,19,19,19,19,19,19,19,19,
19,19,19,19,19,19,19,19,19,19,19,19,19,19,19,19,
19,19,19,19,19,19,19,19,19,19,19,19,19,19,19,19,
19,19,19,19,19,19,19,19,19,19,19,19,19,19,19,19,
19,19,19,19,19,19,19,19,19,19,19,19,19,19,19,19,
19,19,19,19,19,19,19,19,19,19,19,19,19,19,19,19,
19,19,19,19,19,19,19,19,19,19,19,19,19,19,19,19,
19,19,19,19,19,19,19,19,19,19,19,19,19,19,19,19,
19,19,19,19,19,19,19,19,19,19,19,19,19,19,19,19
</chunk>
   <chunk x="224" y="-80" width="16" height="16">
19,19,19,19,19,19,19,19,19,19,19,19,19,19,19,19,
19,19,19,19,19,19,19,19,19,19,19,19,19,19,19,19,
19,19,19,19,19,19,19,19,19,19,19,19,19,19,19,19,
19,19,19,19,19,19,19,19,19,19,19,19,19,19,19,19,
19,19,19,19,19,19,19,19,19,19,19,19,19,19,19,19,
19,19,19,19,19,19,19,19,19,19,19,19,19,19,19,19,
19,19,19,19,19,19,19,19,19,19,19,19,19,19,19,19,
19,19,19,19,19,19,19,19,19,19,19,19,19,19,19,19,
19,19,19,19,19,19,19,19,19,19,19,19,19,19,19,19,
19,19,19,19,19,19,19,19,19,19,19,19,19,19,19,19,
19,19,19,19,19,19,19,19,19,19,19,19,19,19,19,19,
19,19,19,19,19,19,19,19,19,19,19,19,19,19,19,19,
19,19,19,19,19,19,19,19,19,19,19,19,19,19,19,19,
19,19,19,19,19,19,19,19,19,19,19,19,19,19,19,19,
19,19,19,19,19,19,19,19,19,19,19,19,19,19,19,19,
19,19,19,19,19,19,19,19,19,19,19,19,19,19,19,19
</chunk>
   <chunk x="240" y="-80" width="16" height="16">
19,19,19,19,19,19,19,19,19,19,19,19,19,19,19,19,
19,19,19,19,19,19,19,19,19,19,19,19,19,19,19,19,
19,19,19,19,19,19,19,19,19,19,19,19,19,19,19,19,
19,19,19,19,19,19,19,19,19,19,19,19,19,19,19,19,
19,19,19,19,19,19,19,19,19,19,19,19,19,19,19,19,
19,19,19,19,19,19,19,19,19,19,19,19,19,19,19,19,
19,19,19,19,19,19,19,19,19,19,19,19,19,19,19,19,
19,19,19,19,19,19,19,19,19,19,19,19,19,19,19,19,
19,19,19,19,19,19,19,19,19,19,19,19,19,19,19,19,
19,19,19,19,19,19,19,19,19,19,19,19,19,19,19,19,
19,19,19,19,19,19,19,19,19,19,19,19,19,19,19,19,
19,19,19,19,19,19,19,19,19,19,19,19,19,19,19,19,
19,19,19,19,19,19,19,19,19,19,19,19,19,19,19,19,
19,19,19,19,19,19,19,19,19,19,19,19,19,19,19,19,
19,19,19,19,19,19,19,19,19,19,19,19,19,19,19,19,
19,19,19,19,19,19,19,19,19,19,19,19,19,19,19,19
</chunk>
   <chunk x="256" y="-80" width="16" height="16">
19,19,19,19,19,19,19,19,19,19,19,19,19,19,19,19,
19,19,19,19,19,19,19,19,19,19,19,19,19,19,19,19,
19,19,19,19,19,19,19,19,19,19,19,19,19,19,19,19,
19,19,19,19,19,19,19,19,19,19,19,19,19,19,19,19,
19,19,19,19,19,19,19,19,19,19,19,19,19,19,19,19,
19,19,19,19,19,19,19,19,19,19,19,19,19,19,19,19,
19,19,19,19,19,19,19,19,19,19,19,19,19,19,19,19,
19,19,19,19,19,19,19,19,19,19,19,19,19,19,19,19,
19,19,19,19,19,19,19,19,19,19,19,19,19,19,19,19,
19,19,19,19,19,19,19,19,19,19,19,19,19,19,19,19,
19,19,19,19,19,19,19,19,19,19,19,19,19,19,19,19,
19,19,19,19,19,19,19,19,19,19,19,19,19,19,19,19,
19,19,19,19,19,19,19,19,19,19,19,19,19,19,19,19,
19,19,19,19,19,19,19,19,19,19,19,19,19,19,19,19,
19,19,19,19,19,19,19,19,19,19,19,19,19,19,19,19,
19,19,19,19,19,19,19,19,19,19,19,19,19,19,19,19
</chunk>
   <chunk x="272" y="-80" width="16" height="16">
19,19,19,19,19,19,19,19,19,19,19,19,19,19,19,19,
19,19,19,19,19,19,19,19,19,19,19,19,19,19,19,19,
19,19,19,19,19,19,19,19,19,19,19,19,19,19,19,19,
19,19,19,19,19,19,19,19,19,19,19,19,19,19,19,19,
19,19,19,19,19,19,19,19,19,19,19,19,19,19,19,19,
19,19,19,19,19,19,19,19,19,19,19,19,19,19,19,19,
19,19,19,19,19,19,19,19,19,19,19,19,19,19,19,19,
19,19,19,19,19,19,19,19,19,19,19,19,19,19,19,19,
19,19,19,19,19,19,19,19,19,19,19,19,19,19,19,19,
19,19,19,19,19,19,19,19,19,19,19,19,19,19,19,19,
19,19,19,19,19,19,19,19,19,19,19,19,19,19,19,19,
19,19,19,19,19,19,19,19,19,19,19,19,19,19,19,19,
19,19,19,19,19,19,19,19,19,19,19,19,19,19,19,19,
19,19,19,19,19,19,19,19,19,19,19,19,19,19,19,19,
19,19,19,19,19,19,19,19,19,19,19,19,19,19,19,19,
19,19,19,19,19,19,19,19,19,19,19,19,19,19,19,19
</chunk>
   <chunk x="288" y="-80" width="16" height="16">
19,19,19,19,19,19,19,19,19,19,19,19,19,19,19,19,
19,19,19,19,19,19,19,19,19,19,19,19,19,19,19,19,
19,19,19,19,19,19,19,19,19,19,19,19,19,19,19,19,
19,19,19,19,19,19,19,19,19,19,19,19,19,19,19,19,
19,19,19,19,19,19,19,19,19,19,19,19,19,19,19,19,
19,19,19,19,19,19,19,19,19,19,19,19,19,19,19,19,
19,19,19,19,19,19,19,19,19,19,19,19,19,19,19,19,
19,19,19,19,19,19,19,19,19,19,19,19,19,19,19,19,
19,19,19,19,19,19,19,19,19,19,19,19,19,19,19,19,
19,19,19,19,19,19,19,19,19,19,19,19,19,19,19,19,
19,19,19,19,19,19,19,19,19,19,19,19,19,19,19,19,
19,19,19,19,19,19,19,19,19,19,19,19,19,19,19,19,
19,19,19,19,19,19,19,19,19,19,19,19,19,19,19,19,
19,19,19,19,19,19,19,19,19,19,19,19,19,19,19,19,
19,19,19,19,19,19,19,19,19,19,19,19,19,19,19,19,
19,19,19,19,19,19,19,19,19,19,19,19,19,19,19,19
</chunk>
   <chunk x="304" y="-80" width="16" height="16">
19,19,19,19,19,19,19,19,19,19,19,19,19,19,19,19,
19,19,19,19,19,19,19,19,19,19,19,19,19,19,19,19,
19,19,19,19,19,19,19,19,19,19,19,19,19,19,19,19,
19,19,19,19,19,19,19,19,19,19,19,19,19,19,19,19,
19,19,19,19,19,19,19,19,19,19,19,19,19,19,19,19,
19,19,19,19,19,19,19,19,19,19,19,19,19,19,19,19,
19,19,19,19,19,19,19,19,19,19,19,19,19,19,19,19,
19,19,19,19,19,19,19,19,19,19,19,19,19,19,19,19,
19,19,19,19,19,19,19,19,19,19,19,19,19,19,19,19,
19,19,19,19,19,19,19,19,19,19,19,19,19,19,19,19,
19,19,19,19,19,19,19,19,19,19,19,19,19,19,19,19,
19,19,19,19,19,19,19,19,19,19,19,19,19,19,19,19,
19,19,19,19,19,19,19,19,19,19,19,19,19,19,19,19,
19,19,19,19,19,19,19,19,19,19,19,19,19,19,19,19,
19,19,19,19,19,19,19,19,19,19,19,19,19,19,19,19,
19,19,19,19,19,19,19,19,19,19,19,19,19,19,19,19
</chunk>
   <chunk x="320" y="-80" width="16" height="16">
19,19,19,19,19,19,19,19,19,19,19,19,19,19,19,19,
19,19,19,19,19,19,19,19,19,19,19,19,19,19,19,19,
19,19,19,19,19,19,19,19,19,19,19,19,19,19,19,19,
19,19,19,19,19,19,19,19,19,19,19,19,19,19,19,19,
19,19,19,19,19,19,19,19,19,19,19,19,19,19,19,19,
19,19,19,19,19,19,19,19,19,19,19,19,19,19,19,19,
19,19,19,19,19,19,19,19,19,19,19,19,19,19,19,19,
19,19,19,19,19,19,19,19,19,19,19,19,19,19,19,19,
19,19,19,19,19,19,19,19,19,19,19,19,19,19,19,19,
19,19,19,19,19,19,19,19,19,19,19,19,19,19,19,19,
19,19,19,19,19,19,19,19,19,19,19,19,19,19,19,19,
19,19,19,19,19,19,19,19,19,19,19,19,19,19,19,19,
19,19,19,19,19,19,19,19,19,19,19,19,19,19,19,19,
19,19,19,19,19,19,19,19,19,19,19,19,19,19,19,19,
19,19,19,19,19,19,19,19,19,19,19,19,19,19,19,19,
19,19,19,19,19,19,19,19,19,19,19,19,19,19,19,19
</chunk>
   <chunk x="336" y="-80" width="16" height="16">
19,19,19,19,19,19,19,19,19,19,19,19,19,19,19,19,
19,19,19,19,19,19,19,19,19,19,19,19,19,19,19,19,
19,19,19,19,19,19,19,19,19,19,19,19,19,19,19,19,
19,19,19,19,19,19,19,19,19,19,19,19,19,19,19,19,
19,19,19,19,19,19,19,19,19,19,19,19,19,19,19,19,
19,19,19,19,19,19,19,19,19,19,19,19,19,19,19,19,
19,19,19,19,19,19,19,19,19,19,19,19,19,19,19,19,
19,19,19,19,19,19,19,19,19,19,19,19,19,19,19,19,
19,19,19,19,19,19,19,19,19,19,19,19,19,19,19,19,
19,19,19,19,19,19,19,19,19,19,19,19,19,19,19,19,
19,19,19,19,19,19,19,19,19,19,19,19,19,19,19,19,
19,19,19,19,19,19,19,19,19,19,19,19,19,19,19,19,
19,19,19,19,19,19,19,19,19,19,19,19,19,19,19,19,
19,19,19,19,19,19,19,19,19,19,19,19,19,19,19,19,
19,19,19,19,19,19,19,19,19,19,19,19,19,19,19,19,
19,19,19,19,19,19,19,19,19,19,19,19,19,19,19,19
</chunk>
   <chunk x="352" y="-80" width="16" height="16">
19,19,19,19,19,19,19,19,19,19,19,19,19,19,19,19,
19,19,19,19,19,19,19,19,19,19,19,19,19,19,19,19,
19,19,19,19,19,19,19,19,19,19,19,19,19,19,19,19,
19,19,19,19,19,19,19,19,19,19,19,19,19,19,19,19,
19,19,19,19,19,19,19,19,19,19,19,19,19,19,19,19,
19,19,19,19,19,19,19,19,19,19,19,19,19,19,19,19,
19,19,19,19,19,19,19,19,19,19,19,19,19,19,19,19,
19,19,19,19,19,19,19,19,19,19,19,19,19,19,19,19,
19,19,19,19,19,19,19,19,19,19,19,19,19,19,19,19,
19,19,19,19,19,19,19,19,19,19,19,19,19,19,19,19,
19,19,19,19,19,19,19,19,19,19,19,19,19,19,19,19,
19,19,19,19,19,19,19,19,19,19,19,19,19,19,19,19,
19,19,19,19,19,19,19,19,19,19,19,19,19,19,19,19,
19,19,19,19,19,19,19,19,19,19,19,19,19,19,19,19,
19,19,19,19,19,19,19,19,19,19,19,19,19,19,19,19,
19,19,19,19,19,19,19,19,19,19,19,19,19,19,19,19
</chunk>
   <chunk x="368" y="-80" width="16" height="16">
19,19,19,19,19,19,19,19,19,19,19,19,19,19,19,19,
19,19,19,19,19,19,19,19,19,19,19,19,19,19,19,19,
19,19,19,19,19,19,19,19,19,19,19,19,19,19,19,19,
19,19,19,19,19,19,19,19,19,19,19,19,19,19,19,19,
19,19,19,19,19,19,19,19,19,19,19,19,19,19,19,19,
19,19,19,19,19,19,19,19,19,19,19,19,19,19,19,19,
19,19,19,19,19,19,19,19,19,19,19,19,19,19,19,19,
19,19,19,19,19,19,19,19,19,19,19,19,19,19,19,19,
19,19,19,19,19,19,19,19,19,19,19,19,19,19,19,19,
19,19,19,19,19,19,19,19,19,19,19,19,19,19,19,19,
19,19,19,19,19,19,19,19,19,19,19,19,19,19,19,19,
19,19,19,19,19,19,19,19,19,19,19,19,19,19,19,19,
19,19,19,19,19,19,19,19,19,19,19,19,19,19,19,19,
19,19,19,19,19,19,19,19,19,19,19,19,19,19,19,19,
19,19,19,19,19,19,19,19,19,19,19,19,19,19,19,19,
19,19,19,19,19,19,19,19,19,19,19,19,19,19,19,19
</chunk>
   <chunk x="384" y="-80" width="16" height="16">
19,19,19,19,19,19,19,19,19,19,19,19,19,19,19,19,
19,19,19,19,19,19,19,19,19,19,19,19,19,19,19,19,
19,19,19,19,19,19,19,19,19,19,19,19,19,19,19,19,
19,19,19,19,19,19,19,19,19,19,19,19,19,19,19,19,
19,19,19,19,19,19,19,19,19,19,19,19,19,19,19,19,
19,19,19,19,19,19,19,19,19,19,19,19,19,19,19,19,
19,19,19,19,19,19,19,19,19,19,19,19,19,19,19,19,
19,19,19,19,19,19,19,19,19,19,19,19,19,19,19,19,
19,19,19,19,19,19,19,19,19,19,19,19,19,19,19,19,
19,19,19,19,19,19,19,19,19,19,19,19,19,19,19,19,
19,19,19,19,19,19,19,19,19,19,19,19,19,19,19,19,
19,19,19,19,19,19,19,19,19,19,19,19,19,19,19,19,
19,19,19,19,19,19,19,19,19,19,19,19,19,19,19,19,
19,19,19,19,19,19,19,19,19,19,19,19,19,19,19,19,
19,19,19,19,19,19,19,19,19,19,19,19,19,19,19,19,
19,19,19,19,19,19,19,19,19,19,19,19,19,19,19,19
</chunk>
   <chunk x="400" y="-80" width="16" height="16">
19,19,19,19,19,19,19,19,19,19,19,19,19,19,19,19,
19,19,19,19,19,19,19,19,19,19,19,19,19,19,19,19,
19,19,19,19,19,19,19,19,19,19,19,19,19,19,19,19,
19,19,19,19,19,19,19,19,19,19,19,19,19,19,19,19,
19,19,19,19,19,19,19,19,19,19,19,19,19,19,19,19,
19,19,19,19,19,19,19,19,19,19,19,19,19,19,19,19,
19,19,19,19,19,19,19,19,19,19,19,19,19,19,19,19,
19,19,19,19,19,19,19,19,19,19,19,19,19,19,19,19,
19,19,19,19,19,19,19,19,19,19,19,19,19,19,19,19,
19,19,19,19,19,19,19,19,19,19,19,19,19,19,19,19,
19,19,19,19,19,19,19,19,19,19,19,19,19,19,19,19,
19,19,19,19,19,19,19,19,19,19,19,19,19,19,19,19,
19,19,19,19,19,19,19,19,19,19,19,19,19,19,19,19,
19,19,19,19,19,19,19,19,19,19,19,19,19,19,19,19,
19,19,19,19,19,19,19,19,19,19,19,19,19,19,19,19,
19,19,19,19,19,19,19,19,19,19,19,19,19,19,19,19
</chunk>
   <chunk x="416" y="-80" width="16" height="16">
19,19,19,19,19,19,19,19,19,19,19,19,19,19,19,19,
19,19,19,19,19,19,19,19,19,19,19,19,19,19,19,19,
19,19,19,19,19,19,19,19,19,19,19,19,19,19,19,19,
19,19,19,19,19,19,19,19,19,19,19,19,19,19,19,19,
19,19,19,19,19,19,19,19,19,19,19,19,19,19,19,19,
19,19,19,19,19,19,19,19,19,19,19,19,19,19,19,19,
19,19,19,19,19,19,19,19,19,19,19,19,19,19,19,19,
19,19,19,19,19,19,19,19,19,19,19,19,19,19,19,19,
19,19,19,19,19,19,19,19,19,19,19,19,19,19,19,19,
19,19,19,19,19,19,19,19,19,19,19,19,19,19,19,19,
19,19,19,19,19,19,19,19,19,19,19,19,19,19,19,19,
19,19,19,19,19,19,19,19,19,19,19,19,19,19,19,19,
19,19,19,19,19,19,19,19,19,19,19,19,19,19,19,19,
19,19,19,19,19,19,19,19,19,19,19,19,19,19,19,19,
19,19,19,19,19,19,19,19,19,19,19,19,19,19,19,19,
19,19,19,19,19,19,19,19,19,19,19,19,19,19,19,19
</chunk>
   <chunk x="432" y="-80" width="16" height="16">
19,19,19,19,19,19,19,19,19,19,19,19,19,19,19,19,
19,19,19,19,19,19,19,19,19,19,19,19,19,19,19,19,
19,19,19,19,19,19,19,19,19,19,19,19,19,19,19,19,
19,19,19,19,19,19,19,19,19,19,19,19,19,19,19,19,
19,19,19,19,19,19,19,19,19,19,19,19,19,19,19,19,
19,19,19,19,19,19,19,19,19,19,19,19,19,19,19,19,
19,19,19,19,19,19,19,19,19,19,19,19,19,19,19,19,
19,19,19,19,19,19,19,19,19,19,19,19,19,19,19,19,
19,19,19,19,19,19,19,19,19,19,19,19,19,19,19,19,
19,19,19,19,19,19,19,19,19,19,19,19,19,19,19,19,
19,19,19,19,19,19,19,19,19,19,19,19,19,19,19,19,
19,19,19,19,19,19,19,19,19,19,19,19,19,19,19,19,
19,19,19,19,19,19,19,19,19,19,19,19,19,19,19,19,
19,19,19,19,19,19,19,19,19,19,19,19,19,19,19,19,
19,19,19,19,19,19,19,19,19,19,19,19,19,19,19,19,
19,19,19,19,19,19,19,19,19,19,19,19,19,19,19,19
</chunk>
   <chunk x="448" y="-80" width="16" height="16">
19,19,19,19,19,19,19,19,19,19,19,19,19,19,19,19,
19,19,19,19,19,19,19,19,19,19,19,19,19,19,19,19,
19,19,19,19,19,19,19,19,19,19,19,19,19,19,19,19,
19,19,19,19,19,19,19,19,19,19,19,19,19,19,19,19,
19,19,19,19,19,19,19,19,19,19,19,19,19,19,19,19,
19,19,19,19,19,19,19,19,19,19,19,19,19,19,19,19,
19,19,19,19,19,19,19,19,19,19,19,19,19,19,19,19,
19,19,19,19,19,19,19,19,19,19,19,19,19,19,19,19,
19,19,19,19,19,19,19,19,19,19,19,19,19,19,19,19,
19,19,19,19,19,19,19,19,19,19,19,19,19,19,19,19,
19,19,19,19,19,19,19,19,19,19,19,19,19,19,19,19,
19,19,19,19,19,19,19,19,19,19,19,19,19,19,19,19,
19,19,19,19,19,19,19,19,19,19,19,19,19,19,19,19,
19,19,19,19,19,19,19,19,19,19,19,19,19,19,19,19,
19,19,19,19,19,19,19,19,19,19,19,19,19,19,19,19,
19,19,19,19,19,19,19,19,19,19,19,19,19,19,19,19
</chunk>
   <chunk x="464" y="-80" width="16" height="16">
19,19,19,19,19,19,19,19,19,19,19,19,19,19,19,19,
19,19,19,19,19,19,19,19,19,19,19,19,19,19,19,19,
19,19,19,19,19,19,19,19,19,19,19,19,19,19,19,19,
19,19,19,19,19,19,19,19,19,19,19,19,19,19,19,19,
19,19,19,19,19,19,19,19,19,19,19,19,19,19,19,19,
19,19,19,19,19,19,19,19,19,19,19,19,19,19,19,19,
19,19,19,19,19,19,19,19,19,19,19,19,19,19,19,19,
19,19,19,19,19,19,19,19,19,19,19,19,19,19,19,19,
19,19,19,19,19,19,19,19,19,19,19,19,19,19,19,19,
19,19,19,19,19,19,19,19,19,19,19,19,19,19,19,19,
19,19,19,19,19,19,19,19,19,19,19,19,19,19,19,19,
19,19,19,19,19,19,19,19,19,19,19,19,19,19,19,19,
19,19,19,19,19,19,19,19,19,19,19,19,19,19,19,19,
19,19,19,19,19,19,19,19,19,19,19,19,19,19,19,19,
19,19,19,19,19,19,19,19,19,19,19,19,19,19,19,19,
19,19,19,19,19,19,19,19,19,19,19,19,19,19,19,19
</chunk>
   <chunk x="480" y="-80" width="16" height="16">
19,19,19,19,19,19,19,19,19,19,19,19,19,19,19,19,
19,19,19,19,19,19,19,19,19,19,19,19,19,19,19,19,
19,19,19,19,19,19,19,19,19,19,19,19,19,19,19,19,
19,19,19,19,19,19,19,19,19,19,19,19,19,19,19,19,
19,19,19,19,19,19,19,19,19,19,19,19,19,19,19,19,
19,19,19,19,19,19,19,19,19,19,19,19,19,19,19,19,
19,19,19,19,19,19,19,19,19,19,19,19,19,19,19,19,
19,19,19,19,19,19,19,19,19,19,19,19,19,19,19,19,
19,19,19,19,19,19,19,19,19,19,19,19,19,19,19,19,
19,19,19,19,19,19,19,19,19,19,19,19,19,19,19,19,
19,19,19,19,19,19,19,19,19,19,19,19,19,19,19,19,
19,19,19,19,19,19,19,19,19,19,19,19,19,19,19,19,
19,19,19,19,19,19,19,19,19,19,19,19,19,19,19,19,
19,19,19,19,19,19,19,19,19,19,19,19,19,19,19,19,
19,19,19,19,19,19,19,19,19,19,19,19,19,19,19,19,
19,19,19,19,19,19,19,19,19,19,19,19,19,19,19,19
</chunk>
   <chunk x="496" y="-80" width="16" height="16">
19,19,19,19,19,19,19,19,19,19,19,19,19,19,19,19,
19,19,19,19,19,19,19,19,19,19,19,19,19,19,19,19,
19,19,19,19,19,19,19,19,19,19,19,19,19,19,19,19,
19,19,19,19,19,19,19,19,19,19,19,19,19,19,19,19,
19,19,19,19,19,19,19,19,19,19,19,19,19,19,19,19,
19,19,19,19,19,19,19,19,19,19,19,19,19,19,19,19,
19,19,19,19,19,19,19,19,19,19,19,19,19,19,19,19,
19,19,19,19,19,19,19,19,19,19,19,19,19,19,19,19,
19,19,19,19,19,19,19,19,19,19,19,19,19,19,19,19,
19,19,19,19,19,19,19,19,19,19,19,19,19,19,19,19,
19,19,19,19,19,19,19,19,19,19,19,19,19,19,19,19,
19,19,19,19,19,19,19,19,19,19,19,19,19,19,19,19,
19,19,19,19,19,19,19,19,19,19,19,19,19,19,19,19,
19,19,19,19,19,19,19,19,19,19,19,19,19,19,19,19,
19,19,19,19,19,19,19,19,19,19,19,19,19,19,19,19,
19,19,19,19,19,19,19,19,19,19,19,19,19,19,19,19
</chunk>
   <chunk x="512" y="-80" width="16" height="16">
19,19,19,19,19,19,19,19,19,19,19,0,0,0,0,0,
19,19,19,19,19,19,19,19,19,19,19,0,0,0,0,0,
19,19,19,19,19,19,19,19,19,19,19,0,0,0,0,0,
19,19,19,19,19,19,19,19,19,19,19,0,0,0,0,0,
19,19,19,19,19,19,19,19,19,19,19,0,0,0,0,0,
19,19,19,19,19,19,19,19,19,19,19,0,0,0,0,0,
19,19,19,19,19,19,19,19,19,19,19,0,0,0,0,0,
19,19,19,19,19,19,19,19,19,19,19,0,0,0,0,0,
19,19,19,19,19,19,19,19,19,19,19,0,0,0,0,0,
19,19,19,19,19,19,19,19,19,19,19,0,0,0,0,0,
19,19,19,19,19,19,19,19,19,19,19,0,0,0,0,0,
19,19,19,19,19,19,19,19,19,19,19,0,0,0,0,0,
19,19,19,19,19,19,19,19,19,19,19,0,0,0,0,0,
19,19,19,19,19,19,19,19,19,19,19,0,0,0,0,0,
19,19,19,19,19,19,19,19,19,19,19,0,0,0,0,0,
19,19,19,19,19,19,19,19,19,19,19,0,0,0,0,0
</chunk>
   <chunk x="-32" y="-64" width="16" height="16">
0,0,0,0,0,0,0,0,0,0,0,0,19,19,19,19,
0,0,0,0,0,0,0,0,0,0,0,0,19,19,19,19,
0,0,0,0,0,0,0,0,0,0,0,0,19,19,19,19,
0,0,0,0,0,0,0,0,0,0,0,0,19,19,19,19,
0,0,0,0,0,0,0,0,0,0,0,0,19,19,19,19,
0,0,0,0,0,0,0,0,0,0,0,0,19,19,19,19,
0,0,0,0,0,0,0,0,0,0,0,0,19,19,19,19,
0,0,0,0,0,0,0,0,0,0,0,0,19,19,19,19,
0,0,0,0,0,0,0,0,0,0,0,0,19,19,19,19,
0,0,0,0,0,0,0,0,0,0,0,0,19,19,19,19,
0,0,0,0,0,0,0,0,0,0,0,0,19,19,19,19,
0,0,0,0,0,0,0,0,0,0,0,0,19,19,19,19,
0,0,0,0,0,0,0,0,0,0,0,0,19,19,19,19,
0,0,0,0,0,0,0,0,0,0,0,0,19,19,19,19,
0,0,0,0,0,0,0,0,0,0,0,0,19,19,19,19,
0,0,0,0,0,0,0,0,0,0,0,0,19,19,19,19
</chunk>
   <chunk x="-16" y="-64" width="16" height="16">
19,19,19,19,19,19,19,19,19,19,19,19,19,19,19,19,
19,19,19,19,19,19,19,19,19,19,19,19,19,19,19,19,
19,19,19,19,19,19,19,19,19,19,19,19,19,19,19,19,
19,19,19,19,19,19,19,19,19,19,19,19,19,19,19,19,
19,19,19,19,19,19,19,19,19,19,19,19,19,19,19,19,
19,19,19,19,19,19,19,19,19,19,19,19,19,19,19,19,
19,19,19,19,19,19,19,19,19,19,19,19,19,19,19,19,
19,19,19,19,19,19,19,19,19,19,19,19,19,19,19,19,
19,19,19,19,19,19,19,19,19,19,19,19,19,19,19,19,
19,19,19,19,19,19,19,19,19,19,19,19,19,19,19,19,
19,19,19,19,19,19,19,19,19,19,19,19,19,19,19,19,
19,19,19,19,19,19,19,19,19,19,19,19,19,19,19,19,
19,19,19,19,19,19,19,19,19,19,19,19,19,19,19,19,
19,19,19,19,19,19,19,19,19,19,19,19,19,19,19,19,
19,19,19,19,19,19,19,19,19,19,19,19,19,19,19,19,
19,19,19,19,19,19,19,19,19,19,19,19,19,19,19,19
</chunk>
   <chunk x="0" y="-64" width="16" height="16">
19,19,19,19,19,19,19,19,19,19,19,19,19,19,19,19,
19,19,19,19,19,19,19,19,19,19,19,19,19,19,19,19,
19,19,19,19,19,19,19,19,19,19,19,19,19,19,19,19,
19,19,19,19,19,19,19,19,19,19,19,19,19,19,19,19,
19,19,19,19,19,19,19,19,19,19,19,19,19,19,19,19,
19,19,19,19,19,19,19,19,19,19,19,19,19,19,19,19,
19,19,19,19,19,19,19,19,19,19,19,19,19,19,19,19,
19,19,19,19,19,19,19,19,19,19,19,19,19,19,19,19,
19,19,19,19,19,19,19,19,19,19,19,19,19,19,19,19,
19,19,19,19,19,19,19,19,19,19,19,19,19,19,19,19,
19,19,19,19,19,19,19,19,19,19,19,19,19,19,19,19,
19,19,19,19,19,19,19,19,19,19,19,19,19,19,19,19,
19,19,19,19,19,19,19,19,19,19,19,19,19,19,19,19,
19,19,19,19,19,19,19,19,19,19,19,19,19,19,19,19,
19,19,19,19,19,19,19,19,19,19,19,19,19,19,19,19,
19,19,19,19,19,19,19,19,19,19,19,19,19,19,19,19
</chunk>
   <chunk x="16" y="-64" width="16" height="16">
19,19,19,19,19,19,19,19,19,19,19,19,19,19,19,19,
19,19,19,19,19,19,19,19,19,19,19,19,19,19,19,19,
19,19,19,19,19,19,19,19,19,19,19,19,19,19,19,19,
19,19,19,19,19,19,19,19,19,19,19,19,19,19,19,19,
19,19,19,19,19,19,19,19,19,19,19,19,19,19,19,19,
19,19,19,19,19,19,19,19,19,19,19,19,19,19,19,19,
19,19,19,19,19,19,19,19,19,19,19,19,19,19,19,19,
19,19,19,19,19,19,19,19,19,19,19,19,19,19,19,19,
19,19,19,19,19,19,19,19,19,19,19,19,19,19,19,19,
19,19,19,19,19,19,19,19,19,19,19,19,19,19,19,19,
19,19,19,19,19,19,19,19,19,19,19,19,19,19,19,19,
19,19,19,19,19,19,19,19,19,19,19,19,19,19,19,19,
19,19,19,19,19,19,19,19,19,19,19,19,19,19,19,19,
19,19,19,19,19,19,19,19,19,19,19,19,19,19,19,19,
19,19,19,19,19,19,19,19,19,19,19,19,19,19,19,19,
19,19,19,19,19,19,19,19,19,19,19,19,19,19,19,19
</chunk>
   <chunk x="32" y="-64" width="16" height="16">
19,19,19,19,19,19,19,19,19,19,19,19,19,19,19,19,
19,19,19,19,19,19,19,19,19,19,19,19,19,19,19,19,
19,19,19,19,19,19,19,19,19,19,19,19,19,19,19,19,
19,19,19,19,19,19,19,19,19,19,19,19,19,19,19,19,
19,19,19,19,19,19,19,19,19,19,19,19,19,19,19,19,
19,19,19,19,19,19,19,19,19,19,19,19,19,19,19,19,
19,19,19,19,19,19,19,19,19,19,19,19,19,19,19,19,
19,19,19,19,19,19,19,19,19,19,19,19,19,19,19,19,
19,19,19,19,19,19,19,19,19,19,19,19,19,19,19,19,
19,19,19,19,19,19,19,19,19,19,19,19,19,19,19,19,
19,19,19,19,19,19,19,19,19,19,19,19,19,19,19,19,
19,19,19,19,19,19,19,19,19,19,19,19,19,19,19,19,
19,19,19,19,19,19,19,19,19,19,19,19,19,19,19,19,
19,19,19,19,19,19,19,19,19,19,19,19,19,19,19,19,
19,19,19,19,19,19,19,19,19,19,19,19,19,19,19,19,
19,19,19,19,19,19,19,19,19,19,19,19,19,19,19,19
</chunk>
   <chunk x="48" y="-64" width="16" height="16">
19,19,19,19,19,19,19,19,19,19,19,19,19,19,19,19,
19,19,19,19,19,19,19,19,19,19,19,19,19,19,19,19,
19,19,19,19,19,19,19,19,19,19,19,19,19,19,19,19,
19,19,19,19,19,19,19,19,19,19,19,19,19,19,19,19,
19,19,19,19,19,19,19,19,19,19,19,19,19,19,19,19,
19,19,19,19,19,19,19,19,19,19,19,19,19,19,19,19,
19,19,19,19,19,19,19,19,19,19,19,19,19,19,19,19,
19,19,19,19,19,19,19,19,19,19,19,19,19,19,19,19,
19,19,19,19,19,19,19,19,19,19,19,19,19,19,19,19,
19,19,19,19,19,19,19,19,19,19,19,19,19,19,19,19,
19,19,19,19,19,19,19,19,19,19,19,19,19,19,19,19,
19,19,19,19,19,19,19,19,19,19,19,19,19,19,19,19,
19,19,19,19,19,19,19,19,19,19,19,19,19,19,19,19,
19,19,19,19,19,19,19,19,19,19,19,19,19,19,19,19,
19,19,19,19,19,19,19,19,19,19,19,19,19,19,19,19,
19,19,19,19,19,19,19,19,19,19,19,19,19,19,19,19
</chunk>
   <chunk x="64" y="-64" width="16" height="16">
19,19,19,19,19,19,19,19,19,19,19,19,19,19,19,19,
19,19,19,19,19,19,19,19,19,19,19,19,19,19,19,19,
19,19,19,19,19,19,19,19,19,19,19,19,19,19,19,19,
19,19,19,19,19,19,19,19,19,19,19,19,19,19,19,19,
19,19,19,19,19,19,19,19,19,19,19,19,19,19,19,19,
19,19,19,19,19,19,19,19,19,19,19,19,19,19,19,19,
19,19,19,19,19,19,19,19,19,19,19,19,19,19,19,19,
19,19,19,19,19,19,19,19,19,19,19,19,19,19,19,19,
19,19,19,19,19,19,19,19,19,19,19,19,19,19,19,19,
19,19,19,19,19,19,19,19,19,19,19,19,19,19,19,19,
19,19,19,19,19,19,19,19,19,19,19,19,19,19,19,19,
19,19,19,19,19,19,19,19,19,19,19,19,19,19,19,19,
19,19,19,19,19,19,19,19,19,19,19,19,19,19,19,19,
19,19,19,19,19,19,19,19,19,19,19,19,19,19,19,19,
19,19,19,19,19,19,19,19,19,19,19,19,19,19,19,19,
19,19,19,19,19,19,19,19,19,19,19,19,19,19,19,19
</chunk>
   <chunk x="80" y="-64" width="16" height="16">
19,19,19,19,19,19,19,19,19,19,19,19,19,19,19,19,
19,19,19,19,19,19,19,19,19,19,19,19,19,19,19,19,
19,19,19,19,19,19,19,19,19,19,19,19,19,19,19,19,
19,19,19,19,19,19,19,19,19,19,19,19,19,19,19,19,
19,19,19,19,19,19,19,19,19,19,19,19,19,19,19,19,
19,19,19,19,19,19,19,19,19,19,19,19,19,19,19,19,
19,19,19,19,19,19,19,19,19,19,19,19,19,19,19,19,
19,19,19,19,19,19,19,19,19,19,19,19,19,19,19,19,
19,19,19,19,19,19,19,19,19,19,19,19,19,19,19,19,
19,19,19,19,19,19,19,19,19,19,19,19,19,19,19,19,
19,19,19,19,19,19,19,19,19,19,19,19,19,19,19,19,
19,19,19,19,19,19,19,19,19,19,19,19,19,19,19,19,
19,19,19,19,19,19,19,19,19,19,19,19,19,19,19,19,
19,19,19,19,19,19,19,19,19,19,19,19,19,19,19,19,
19,19,19,19,19,19,19,19,19,19,19,19,19,19,19,19,
19,19,19,19,19,19,19,19,19,19,19,19,19,19,19,19
</chunk>
   <chunk x="96" y="-64" width="16" height="16">
19,19,19,19,19,19,19,19,19,19,19,19,19,19,19,19,
19,19,19,19,19,19,19,19,19,19,19,19,19,19,19,19,
19,19,19,19,19,19,19,19,19,19,19,19,19,19,19,19,
19,19,19,19,19,19,19,19,19,19,19,19,19,19,19,19,
19,19,19,19,19,19,19,19,19,19,19,19,19,19,19,19,
19,19,19,19,19,19,19,19,19,19,19,19,19,19,19,19,
19,19,19,19,19,19,19,19,19,19,19,19,19,19,19,19,
19,19,19,19,19,19,19,19,19,19,19,19,19,19,19,19,
19,19,19,19,19,19,19,19,19,19,19,19,19,19,19,19,
19,19,19,19,19,19,19,19,19,19,19,19,19,19,19,19,
19,19,19,19,19,19,19,19,19,19,19,19,19,19,19,19,
19,19,19,19,19,19,19,19,19,19,19,19,19,19,19,19,
19,19,19,19,19,19,19,19,19,19,19,19,19,19,19,19,
19,19,19,19,19,19,19,19,19,19,19,19,19,19,19,19,
19,19,19,19,19,19,19,19,19,19,19,19,19,19,19,19,
19,19,19,19,19,19,19,19,19,19,19,19,19,19,19,19
</chunk>
   <chunk x="112" y="-64" width="16" height="16">
19,19,19,19,19,19,19,19,19,19,19,19,19,19,19,19,
19,19,19,19,19,19,19,19,19,19,19,19,19,19,19,19,
19,19,19,19,19,19,19,19,19,19,19,19,19,19,19,19,
19,19,19,19,19,19,19,19,19,19,19,19,19,19,19,19,
19,19,19,19,19,19,19,19,19,19,19,19,19,19,19,19,
19,19,19,19,19,19,19,19,19,19,19,19,19,19,19,19,
19,19,19,19,19,19,19,19,19,19,19,19,19,19,19,19,
19,19,19,19,19,19,19,19,19,19,19,19,19,19,19,19,
19,19,19,19,19,19,19,19,19,19,19,19,19,19,19,19,
19,19,19,19,19,19,19,19,19,19,19,19,19,19,19,19,
19,19,19,19,19,19,19,19,19,19,19,19,19,19,19,19,
19,19,19,19,19,19,19,19,19,19,19,19,19,19,19,19,
19,19,19,19,19,19,19,19,19,19,19,19,19,19,19,19,
19,19,19,19,19,19,19,19,19,19,19,19,19,19,19,19,
19,19,19,19,19,19,19,19,19,19,19,19,19,19,19,19,
19,19,19,19,19,19,19,19,19,19,19,19,19,19,19,19
</chunk>
   <chunk x="128" y="-64" width="16" height="16">
19,19,19,19,19,19,19,19,19,19,19,19,19,19,19,19,
19,19,19,19,19,19,19,19,19,19,19,19,19,19,19,19,
19,19,19,19,19,19,19,19,19,19,19,19,19,19,19,19,
19,19,19,19,19,19,19,19,19,19,19,19,19,19,19,19,
19,19,19,19,19,19,19,19,19,19,19,19,19,19,19,19,
19,19,19,19,19,19,19,19,19,19,19,19,19,19,19,19,
19,19,19,19,19,19,19,19,19,19,19,19,19,19,19,19,
19,19,19,19,19,19,19,19,19,19,19,19,19,19,19,19,
19,19,19,19,19,19,19,19,19,19,19,19,19,19,19,19,
19,19,19,19,19,19,19,19,19,19,19,19,19,19,19,19,
19,19,19,19,19,19,19,19,19,19,19,19,19,19,19,19,
19,19,19,19,19,19,19,19,19,19,19,19,19,19,19,19,
19,19,19,19,19,19,19,19,19,19,19,19,19,19,19,19,
19,19,19,19,19,19,19,19,19,19,19,19,19,19,19,19,
19,19,19,19,19,19,19,19,19,19,19,19,19,19,19,19,
19,19,19,19,19,19,19,19,19,19,19,19,19,19,19,19
</chunk>
   <chunk x="144" y="-64" width="16" height="16">
19,19,19,19,19,19,19,19,19,19,19,19,19,19,19,19,
19,19,19,19,19,19,19,19,19,19,19,19,19,19,19,19,
19,19,19,19,19,19,19,19,19,19,19,19,19,19,19,19,
19,19,19,19,19,19,19,19,19,19,19,19,19,19,19,19,
19,19,19,19,19,19,19,19,19,19,19,19,19,19,19,19,
19,19,19,19,19,19,19,19,19,19,19,19,19,19,19,19,
19,19,19,19,19,19,19,19,19,19,19,19,19,19,19,19,
19,19,19,19,19,19,19,19,19,19,19,19,19,19,19,19,
19,19,19,19,19,19,19,19,19,19,19,19,19,19,19,19,
19,19,19,19,19,19,19,19,19,19,19,19,19,19,19,19,
19,19,19,19,19,19,19,19,19,19,19,19,19,19,19,19,
19,19,19,19,19,19,19,19,19,19,19,19,19,19,19,19,
19,19,19,19,19,19,19,19,19,19,19,19,19,19,19,19,
19,19,19,19,19,19,19,19,19,19,19,19,19,19,19,19,
19,19,19,19,19,19,19,19,19,19,19,19,19,19,19,19,
19,19,19,19,19,19,19,19,19,19,19,19,19,19,19,19
</chunk>
   <chunk x="160" y="-64" width="16" height="16">
19,19,19,19,19,19,19,19,19,19,19,19,19,19,19,19,
19,19,19,19,19,19,19,19,19,19,19,19,19,19,19,19,
19,19,19,19,19,19,19,19,19,19,19,19,19,19,19,19,
19,19,19,19,19,19,19,19,19,19,19,19,19,19,19,19,
19,19,19,19,19,19,19,19,19,19,19,19,19,19,19,19,
19,19,19,19,19,19,19,19,19,19,19,19,19,19,19,19,
19,19,19,19,19,19,19,19,19,19,19,19,19,19,19,19,
19,19,19,19,19,19,19,19,19,19,19,19,19,19,19,19,
19,19,19,19,19,19,19,19,19,19,19,19,19,19,19,19,
19,19,19,19,19,19,19,19,19,19,19,19,19,19,19,19,
19,19,19,19,19,19,19,19,19,19,19,19,19,19,19,19,
19,19,19,19,19,19,19,19,19,19,19,19,19,19,19,19,
19,19,19,19,19,19,19,19,19,19,19,19,19,19,19,19,
19,19,19,19,19,19,19,19,19,19,19,19,19,19,19,19,
19,19,19,19,19,19,19,19,19,19,19,19,19,19,19,19,
19,19,19,19,19,19,19,19,19,19,19,19,19,19,19,19
</chunk>
   <chunk x="176" y="-64" width="16" height="16">
19,19,19,19,19,19,19,19,19,19,19,19,19,19,19,19,
19,19,19,19,19,19,19,19,19,19,19,19,19,19,19,19,
19,19,19,19,19,19,19,19,19,19,19,19,19,19,19,19,
19,19,19,19,19,19,19,19,19,19,19,19,19,19,19,19,
19,19,19,19,19,19,19,19,19,19,19,19,19,19,19,19,
19,19,19,19,19,19,19,19,19,19,19,19,19,19,19,19,
19,19,19,19,19,19,19,19,19,19,19,19,19,19,19,19,
19,19,19,19,19,19,19,19,19,19,19,19,19,19,19,19,
19,19,19,19,19,19,19,19,19,19,19,19,19,19,19,19,
19,19,19,19,19,19,19,19,19,19,19,19,19,19,19,19,
19,19,19,19,19,19,19,19,19,19,19,19,19,19,19,19,
19,19,19,19,19,19,19,19,19,19,19,19,19,19,19,19,
19,19,19,19,19,19,19,19,19,19,19,19,19,19,19,19,
19,19,19,19,19,19,19,19,19,19,19,19,19,19,19,19,
19,19,19,19,19,19,19,19,19,19,19,19,19,19,19,19,
19,19,19,19,19,19,19,19,19,19,19,19,19,19,19,19
</chunk>
   <chunk x="192" y="-64" width="16" height="16">
19,19,19,19,19,19,19,19,19,19,19,19,19,19,19,19,
19,19,19,19,19,19,19,19,19,19,19,19,19,19,19,19,
19,19,19,19,19,19,19,19,19,19,19,19,19,19,19,19,
19,19,19,19,19,19,19,19,19,19,19,19,19,19,19,19,
19,19,19,19,19,19,19,19,19,19,19,19,19,19,19,19,
19,19,19,19,19,19,19,19,19,19,19,19,19,19,19,19,
19,19,19,19,19,19,19,19,19,19,19,19,19,19,19,19,
19,19,19,19,19,19,19,19,19,19,19,19,19,19,19,19,
19,19,19,19,19,19,19,19,19,19,19,19,19,19,19,19,
19,19,19,19,19,19,19,19,19,19,19,19,19,19,19,19,
19,19,19,19,19,19,19,19,19,19,19,19,19,19,19,19,
19,19,19,19,19,19,19,19,19,19,19,19,19,19,19,19,
19,19,19,19,19,19,19,19,19,19,19,19,19,19,19,19,
19,19,19,19,19,19,19,19,19,19,19,19,19,19,19,19,
19,19,19,19,19,19,19,19,19,19,19,19,19,19,19,19,
19,19,19,19,19,19,19,19,19,19,19,19,19,19,19,19
</chunk>
   <chunk x="208" y="-64" width="16" height="16">
19,19,19,19,19,19,19,19,19,19,19,19,19,19,19,19,
19,19,19,19,19,19,19,19,19,19,19,19,19,19,19,19,
19,19,19,19,19,19,19,19,19,19,19,19,19,19,19,19,
19,19,19,19,19,19,19,19,19,19,19,19,19,19,19,19,
19,19,19,19,19,19,19,19,19,19,19,19,19,19,19,19,
19,19,19,19,19,19,19,19,19,19,19,19,19,19,19,19,
19,19,19,19,19,19,19,19,19,19,19,19,19,19,19,19,
19,19,19,19,19,19,19,19,19,19,19,19,19,19,19,19,
19,19,19,19,19,19,19,19,19,19,19,19,19,19,19,19,
19,19,19,19,19,19,19,19,19,19,19,19,19,19,19,19,
19,19,19,19,19,19,19,19,19,19,19,19,19,19,19,19,
19,19,19,19,19,19,19,19,19,19,19,19,19,19,19,19,
19,19,19,19,19,19,19,19,19,19,19,19,19,19,19,19,
19,19,19,19,19,19,19,19,19,19,19,19,19,19,19,19,
19,19,19,19,19,19,19,19,19,19,19,19,19,19,19,19,
19,19,19,19,19,19,19,19,19,19,19,19,19,19,19,19
</chunk>
   <chunk x="224" y="-64" width="16" height="16">
19,19,19,19,19,19,19,19,19,19,19,19,19,19,19,19,
19,19,19,19,19,19,19,19,19,19,19,19,19,19,19,19,
19,19,19,19,19,19,19,19,19,19,19,19,19,19,19,19,
19,19,19,19,19,19,19,19,19,19,19,19,19,19,19,19,
19,19,19,19,19,19,19,19,19,19,19,19,19,19,19,19,
19,19,19,19,19,19,19,19,19,19,19,19,19,19,19,19,
19,19,19,19,19,19,19,19,19,19,19,19,19,19,19,19,
19,19,19,19,19,19,19,19,19,19,19,19,19,19,19,19,
19,19,19,19,19,19,19,19,19,19,19,19,19,19,19,19,
19,19,19,19,19,19,19,19,19,19,19,19,19,19,19,19,
19,19,19,19,19,19,19,19,19,19,19,19,19,19,19,19,
19,19,19,19,19,19,19,19,19,19,19,19,19,19,19,19,
19,19,19,19,19,19,19,19,19,19,19,19,19,19,19,19,
19,19,19,19,19,19,19,19,19,19,19,19,19,19,19,19,
19,19,19,19,19,19,19,19,19,19,19,19,19,19,19,19,
19,19,19,19,19,19,19,19,19,19,19,19,19,19,19,19
</chunk>
   <chunk x="240" y="-64" width="16" height="16">
19,19,19,19,19,19,19,19,19,19,19,19,19,19,19,19,
19,19,19,19,19,19,19,19,19,19,19,19,19,19,19,19,
19,19,19,19,19,19,19,19,19,19,19,19,19,19,19,19,
19,19,19,19,19,19,19,19,19,19,19,19,19,19,19,19,
19,19,19,19,19,19,19,19,19,19,19,19,19,19,19,19,
19,19,19,19,19,19,19,19,19,19,19,19,19,19,19,19,
19,19,19,19,19,19,19,19,19,19,19,19,19,19,19,19,
19,19,19,19,19,19,19,19,19,19,19,19,19,19,19,19,
19,19,19,19,19,19,19,19,19,19,19,19,19,19,19,19,
19,19,19,19,19,19,19,19,19,19,19,19,19,19,19,19,
19,19,19,19,19,19,19,19,19,19,19,19,19,19,19,19,
19,19,19,19,19,19,19,19,19,19,19,19,19,19,19,19,
19,19,19,19,19,19,19,19,19,19,19,19,19,19,19,19,
19,19,19,19,19,19,19,19,19,19,19,19,19,19,19,19,
19,19,19,19,19,19,19,19,19,19,19,19,19,19,19,19,
19,19,19,19,19,19,19,19,19,19,19,19,19,19,19,19
</chunk>
   <chunk x="256" y="-64" width="16" height="16">
19,19,19,19,19,19,19,19,19,19,19,19,19,19,19,19,
19,19,19,19,19,19,19,19,19,19,19,19,19,19,19,19,
19,19,19,19,19,19,19,19,19,19,19,19,19,19,19,19,
19,19,19,19,19,19,19,19,19,19,19,19,19,19,19,19,
19,19,19,19,19,19,19,19,19,19,19,19,19,19,19,19,
19,19,19,19,19,19,19,19,19,19,19,19,19,19,19,19,
19,19,19,19,19,19,19,19,19,19,19,19,19,19,19,19,
19,19,19,19,19,19,19,19,19,19,19,19,19,19,19,19,
19,19,19,19,19,19,19,19,19,19,19,19,19,19,19,19,
19,19,19,19,19,19,19,19,19,19,19,19,19,19,19,19,
19,19,19,19,19,19,19,19,19,19,19,19,19,19,19,19,
19,19,19,19,19,19,19,19,19,19,19,19,19,19,19,19,
19,19,19,19,19,19,19,19,19,19,19,19,19,19,19,19,
19,19,19,19,19,19,19,19,19,19,19,19,19,19,19,19,
19,19,19,19,19,19,19,19,19,19,19,19,19,19,19,19,
19,19,19,19,19,19,19,19,19,19,19,19,19,19,19,19
</chunk>
   <chunk x="272" y="-64" width="16" height="16">
19,19,19,19,19,19,19,19,19,19,19,19,19,19,19,19,
19,19,19,19,19,19,19,19,19,19,19,19,19,19,19,19,
19,19,19,19,19,19,19,19,19,19,19,19,19,19,19,19,
19,19,19,19,19,19,19,19,19,19,19,19,19,19,19,19,
19,19,19,19,19,19,19,19,19,19,19,19,19,19,19,19,
19,19,19,19,19,19,19,19,19,19,19,19,19,19,19,19,
19,19,19,19,19,19,19,19,19,19,19,19,19,19,19,19,
19,19,19,19,19,19,19,19,19,19,19,19,19,19,19,19,
19,19,19,19,19,19,19,19,19,19,19,19,19,19,19,19,
19,19,19,19,19,19,19,19,19,19,19,19,19,19,19,19,
19,19,19,19,19,19,19,19,19,19,19,19,19,19,19,19,
19,19,19,19,19,19,19,19,19,19,19,19,19,19,19,19,
19,19,19,19,19,19,19,19,19,19,19,19,19,19,19,19,
19,19,19,19,19,19,19,19,19,19,19,19,19,19,19,19,
19,19,19,19,19,19,19,19,19,19,19,19,19,19,19,19,
19,19,19,19,19,19,19,19,19,19,19,19,19,19,19,19
</chunk>
   <chunk x="288" y="-64" width="16" height="16">
19,19,19,19,19,19,19,19,19,19,19,19,19,19,19,19,
19,19,19,19,19,19,19,19,19,19,19,19,19,19,19,19,
19,19,19,19,19,19,19,19,19,19,19,19,19,19,19,19,
19,19,19,19,19,19,19,19,19,19,19,19,19,19,19,19,
19,19,19,19,19,19,19,19,19,19,19,19,19,19,19,19,
19,19,19,19,19,19,19,19,19,19,19,19,19,19,19,19,
19,19,19,19,19,19,19,19,19,19,19,19,19,19,19,19,
19,19,19,19,19,19,19,19,19,19,19,19,19,19,19,19,
19,19,19,19,19,19,19,19,19,19,19,19,19,19,19,19,
19,19,19,19,19,19,19,19,19,19,19,19,19,19,19,19,
19,19,19,19,19,19,19,19,19,19,19,19,19,19,19,19,
19,19,19,19,19,19,19,19,19,19,19,19,19,19,19,19,
19,19,19,19,19,19,19,19,19,19,19,19,19,19,19,19,
19,19,19,19,19,19,19,19,19,19,19,19,19,19,19,19,
19,19,19,19,19,19,19,19,19,19,19,19,19,19,19,19,
19,19,19,19,19,19,19,19,19,19,19,19,19,19,19,19
</chunk>
   <chunk x="304" y="-64" width="16" height="16">
19,19,19,19,19,19,19,19,19,19,19,19,19,19,19,19,
19,19,19,19,19,19,19,19,19,19,19,19,19,19,19,19,
19,19,19,19,19,19,19,19,19,19,19,19,19,19,19,19,
19,19,19,19,19,19,19,19,19,19,19,19,19,19,19,19,
19,19,19,19,19,19,19,19,19,19,19,19,19,19,19,19,
19,19,19,19,19,19,19,19,19,19,19,19,19,19,19,19,
19,19,19,19,19,19,19,19,19,19,19,19,19,19,19,19,
19,19,19,19,19,19,19,19,19,19,19,19,19,19,19,19,
19,19,19,19,19,19,19,19,19,19,19,19,19,19,19,19,
19,19,19,19,19,19,19,19,19,19,19,19,19,19,19,19,
19,19,19,19,19,19,19,19,19,19,19,19,19,19,19,19,
19,19,19,19,19,19,19,19,19,19,19,19,19,19,19,19,
19,19,19,19,19,19,19,19,19,19,19,19,19,19,19,19,
19,19,19,19,19,19,19,19,19,19,19,19,19,19,19,19,
19,19,19,19,19,19,19,19,19,19,19,19,19,19,19,19,
19,19,19,19,19,19,19,19,19,19,19,19,19,19,19,19
</chunk>
   <chunk x="320" y="-64" width="16" height="16">
19,19,19,19,19,19,19,19,19,19,19,19,19,19,19,19,
19,19,19,19,19,19,19,19,19,19,19,19,19,19,19,19,
19,19,19,19,19,19,19,19,19,19,19,19,19,19,19,19,
19,19,19,19,19,19,19,19,19,19,19,19,19,19,19,19,
19,19,19,19,19,19,19,19,19,19,19,19,19,19,19,19,
19,19,19,19,19,19,19,19,19,19,19,19,19,19,19,19,
19,19,19,19,19,19,19,19,19,19,19,19,19,19,19,19,
19,19,19,19,19,19,19,19,19,19,19,19,19,19,19,19,
19,19,19,19,19,19,19,19,19,19,19,19,19,19,19,19,
19,19,19,19,19,19,19,19,19,19,19,19,19,19,19,19,
19,19,19,19,19,19,19,19,19,19,19,19,19,19,19,19,
19,19,19,19,19,19,19,19,19,19,19,19,19,19,19,19,
19,19,19,19,19,19,19,19,19,19,19,19,19,19,19,19,
19,19,19,19,19,19,19,19,19,19,19,19,19,19,19,19,
19,19,19,19,19,19,19,19,19,19,19,19,19,19,19,19,
19,19,19,19,19,19,19,19,19,19,19,19,19,19,19,19
</chunk>
   <chunk x="336" y="-64" width="16" height="16">
19,19,19,19,19,19,19,19,19,19,19,19,19,19,19,19,
19,19,19,19,19,19,19,19,19,19,19,19,19,19,19,19,
19,19,19,19,19,19,19,19,19,19,19,19,19,19,19,19,
19,19,19,19,19,19,19,19,19,19,19,19,19,19,19,19,
19,19,19,19,19,19,19,19,19,19,19,19,19,19,19,19,
19,19,19,19,19,19,19,19,19,19,19,19,19,19,19,19,
19,19,19,19,19,19,19,19,19,19,19,19,19,19,19,19,
19,19,19,19,19,19,19,19,19,19,19,19,19,19,19,19,
19,19,19,19,19,19,19,19,19,19,19,19,19,19,19,19,
19,19,19,19,19,19,19,19,19,19,19,19,19,19,19,19,
19,19,19,19,19,19,19,19,19,19,19,19,19,19,19,19,
19,19,19,19,19,19,19,19,19,19,19,19,19,19,19,19,
19,19,19,19,19,19,19,19,19,19,19,19,19,19,19,19,
19,19,19,19,19,19,19,19,19,19,19,19,19,19,19,19,
19,19,19,19,19,19,19,19,19,19,19,19,19,19,19,19,
19,19,19,19,19,19,19,19,19,19,19,19,19,19,19,19
</chunk>
   <chunk x="352" y="-64" width="16" height="16">
19,19,19,19,19,19,19,19,19,19,19,19,19,19,19,19,
19,19,19,19,19,19,19,19,19,19,19,19,19,19,19,19,
19,19,19,19,19,19,19,19,19,19,19,19,19,19,19,19,
19,19,19,19,19,19,19,19,19,19,19,19,19,19,19,19,
19,19,19,19,19,19,19,19,19,19,19,19,19,19,19,19,
19,19,19,19,19,19,19,19,19,19,19,19,19,19,19,19,
19,19,19,19,19,19,19,19,19,19,19,19,19,19,19,19,
19,19,19,19,19,19,19,19,19,19,19,19,19,19,19,19,
19,19,19,19,19,19,19,19,19,19,19,19,19,19,19,19,
19,19,19,19,19,19,19,19,19,19,19,19,19,19,19,19,
19,19,19,19,19,19,19,19,19,19,19,19,19,19,19,19,
19,19,19,19,19,19,19,19,19,19,19,19,19,19,19,19,
19,19,19,19,19,19,19,19,19,19,19,19,19,19,19,19,
19,19,19,19,19,19,19,19,19,19,19,19,19,19,19,19,
19,19,19,19,19,19,19,19,19,19,19,19,19,19,19,19,
19,19,19,19,19,19,19,19,19,19,19,19,19,19,19,19
</chunk>
   <chunk x="368" y="-64" width="16" height="16">
19,19,19,19,19,19,19,19,19,19,19,19,19,19,19,19,
19,19,19,19,19,19,19,19,19,19,19,19,19,19,19,19,
19,19,19,19,19,19,19,19,19,19,19,19,19,19,19,19,
19,19,19,19,19,19,19,19,19,19,19,19,19,19,19,19,
19,19,19,19,19,19,19,19,19,19,19,19,19,19,19,19,
19,19,19,19,19,19,19,19,19,19,19,19,19,19,19,19,
19,19,19,19,19,19,19,19,19,19,19,19,19,19,19,19,
19,19,19,19,19,19,19,19,19,19,19,19,19,19,19,19,
19,19,19,19,19,19,19,19,19,19,19,19,19,19,19,19,
19,19,19,19,19,19,19,19,19,19,19,19,19,19,19,19,
19,19,19,19,19,19,19,19,19,19,19,19,19,19,19,19,
19,19,19,19,19,19,19,19,19,19,19,19,19,19,19,19,
19,19,19,19,19,19,19,19,19,19,19,19,19,19,19,19,
19,19,19,19,19,19,19,19,19,19,19,19,19,19,19,19,
19,19,19,19,19,19,19,19,19,19,19,19,19,19,19,19,
19,19,19,19,19,19,19,19,19,19,19,19,19,19,19,19
</chunk>
   <chunk x="384" y="-64" width="16" height="16">
19,19,19,19,19,19,19,19,19,19,19,19,19,19,19,19,
19,19,19,19,19,19,19,19,19,19,19,19,19,19,19,19,
19,19,19,19,19,19,19,19,19,19,19,19,19,19,19,19,
19,19,19,19,19,19,19,19,19,19,19,19,19,19,19,19,
19,19,19,19,19,19,19,19,19,19,19,19,19,19,19,19,
19,19,19,19,19,19,19,19,19,19,19,19,19,19,19,19,
19,19,19,19,19,19,19,19,19,19,19,19,19,19,19,19,
19,19,19,19,19,19,19,19,19,19,19,19,19,19,19,19,
19,19,19,19,19,19,19,19,19,19,19,19,19,19,19,19,
19,19,19,19,19,19,19,19,19,19,19,19,19,19,19,19,
19,19,19,19,19,19,19,19,19,19,19,19,19,19,19,19,
19,19,19,19,19,19,19,19,19,19,19,19,19,19,19,19,
19,19,19,19,19,19,19,19,19,19,19,19,19,19,19,19,
19,19,19,19,19,19,19,19,19,19,19,19,19,19,19,19,
19,19,19,19,19,19,19,19,19,19,19,19,19,19,19,19,
19,19,19,19,19,19,19,19,19,19,19,19,19,19,19,19
</chunk>
   <chunk x="400" y="-64" width="16" height="16">
19,19,19,19,19,19,19,19,19,19,19,19,19,19,19,19,
19,19,19,19,19,19,19,19,19,19,19,19,19,19,19,19,
19,19,19,19,19,19,19,19,19,19,19,19,19,19,19,19,
19,19,19,19,19,19,19,19,19,19,19,19,19,19,19,19,
19,19,19,19,19,19,19,19,19,19,19,19,19,19,19,19,
19,19,19,19,19,19,19,19,19,19,19,19,19,19,19,19,
19,19,19,19,19,19,19,19,19,19,19,19,19,19,19,19,
19,19,19,19,19,19,19,19,19,19,19,19,19,19,19,19,
19,19,19,19,19,19,19,19,19,19,19,19,19,19,19,19,
19,19,19,19,19,19,19,19,19,19,19,19,19,19,19,19,
19,19,19,19,19,19,19,19,19,19,19,19,19,19,19,19,
19,19,19,19,19,19,19,19,19,19,19,19,19,19,19,19,
19,19,19,19,19,19,19,19,19,19,19,19,19,19,19,19,
19,19,19,19,19,19,19,19,19,19,19,19,19,19,19,19,
19,19,19,19,19,19,19,19,19,19,19,19,19,19,19,19,
19,19,19,19,19,19,19,19,19,19,19,19,19,19,19,19
</chunk>
   <chunk x="416" y="-64" width="16" height="16">
19,19,19,19,19,19,19,19,19,19,19,19,19,19,19,19,
19,19,19,19,19,19,19,19,19,19,19,19,19,19,19,19,
19,19,19,19,19,19,19,19,19,19,19,19,19,19,19,19,
19,19,19,19,19,19,19,19,19,19,19,19,19,19,19,19,
19,19,19,19,19,19,19,19,19,19,19,19,19,19,19,19,
19,19,19,19,19,19,19,19,19,19,19,19,19,19,19,19,
19,19,19,19,19,19,19,19,19,19,19,19,19,19,19,19,
19,19,19,19,19,19,19,19,19,19,19,19,19,19,19,19,
19,19,19,19,19,19,19,19,19,19,19,19,19,19,19,19,
19,19,19,19,19,19,19,19,19,19,19,19,19,19,19,19,
19,19,19,19,19,19,19,19,19,19,19,19,19,19,19,19,
19,19,19,19,19,19,19,19,19,19,19,19,19,19,19,19,
19,19,19,19,19,19,19,19,19,19,19,19,19,19,19,19,
19,19,19,19,19,19,19,19,19,19,19,19,19,19,19,19,
19,19,19,19,19,19,19,19,19,19,19,19,19,19,19,19,
19,19,19,19,19,19,19,19,19,19,19,19,19,19,19,19
</chunk>
   <chunk x="432" y="-64" width="16" height="16">
19,19,19,19,19,19,19,19,19,19,19,19,19,19,19,19,
19,19,19,19,19,19,19,19,19,19,19,19,19,19,19,19,
19,19,19,19,19,19,19,19,19,19,19,19,19,19,19,19,
19,19,19,19,19,19,19,19,19,19,19,19,19,19,19,19,
19,19,19,19,19,19,19,19,19,19,19,19,19,19,19,19,
19,19,19,19,19,19,19,19,19,19,19,19,19,19,19,19,
19,19,19,19,19,19,19,19,19,19,19,19,19,19,19,19,
19,19,19,19,19,19,19,19,19,19,19,19,19,19,19,19,
19,19,19,19,19,19,19,19,19,19,19,19,19,19,19,19,
19,19,19,19,19,19,19,19,19,19,19,19,19,19,19,19,
19,19,19,19,19,19,19,19,19,19,19,19,19,19,19,19,
19,19,19,19,19,19,19,19,19,19,19,19,19,19,19,19,
19,19,19,19,19,19,19,19,19,19,19,19,19,19,19,19,
19,19,19,19,19,19,19,19,19,19,19,19,19,19,19,19,
19,19,19,19,19,19,19,19,19,19,19,19,19,19,19,19,
19,19,19,19,19,19,19,19,19,19,19,19,19,19,19,19
</chunk>
   <chunk x="448" y="-64" width="16" height="16">
19,19,19,19,19,19,19,19,19,19,19,19,19,19,19,19,
19,19,19,19,19,19,19,19,19,19,19,19,19,19,19,19,
19,19,19,19,19,19,19,19,19,19,19,19,19,19,19,19,
19,19,19,19,19,19,19,19,19,19,19,19,19,19,19,19,
19,19,19,19,19,19,19,19,19,19,19,19,19,19,19,19,
19,19,19,19,19,19,19,19,19,19,19,19,19,19,19,19,
19,19,19,19,19,19,19,19,19,19,19,19,19,19,19,19,
19,19,19,19,19,19,19,19,19,19,19,19,19,19,19,19,
19,19,19,19,19,19,19,19,19,19,19,19,19,19,19,19,
19,19,19,19,19,19,19,19,19,19,19,19,19,19,19,19,
19,19,19,19,19,19,19,19,19,19,19,19,19,19,19,19,
19,19,19,19,19,19,19,19,19,19,19,19,19,19,19,19,
19,19,19,19,19,19,19,19,19,19,19,19,19,19,19,19,
19,19,19,19,19,19,19,19,19,19,19,19,19,19,19,19,
19,19,19,19,19,19,19,19,19,19,19,19,19,19,19,19,
19,19,19,19,19,19,19,19,19,19,19,19,19,19,19,19
</chunk>
   <chunk x="464" y="-64" width="16" height="16">
19,19,19,19,19,19,19,19,19,19,19,19,19,19,19,19,
19,19,19,19,19,19,19,19,19,19,19,19,19,19,19,19,
19,19,19,19,19,19,19,19,19,19,19,19,19,19,19,19,
19,19,19,19,19,19,19,19,19,19,19,19,19,19,19,19,
19,19,19,19,19,19,19,19,19,19,19,19,19,19,19,19,
19,19,19,19,19,19,19,19,19,19,19,19,19,19,19,19,
19,19,19,19,19,19,19,19,19,19,19,19,19,19,19,19,
19,19,19,19,19,19,19,19,19,19,19,19,19,19,19,19,
19,19,19,19,19,19,19,19,19,19,19,19,19,19,19,19,
19,19,19,19,19,19,19,19,19,19,19,19,19,19,19,19,
19,19,19,19,19,19,19,19,19,19,19,19,19,19,19,19,
19,19,19,19,19,19,19,19,19,19,19,19,19,19,19,19,
19,19,19,19,19,19,19,19,19,19,19,19,19,19,19,19,
19,19,19,19,19,19,19,19,19,19,19,19,19,19,19,19,
19,19,19,19,19,19,19,19,19,19,19,19,19,19,19,19,
19,19,19,19,19,19,19,19,19,19,19,19,19,19,19,19
</chunk>
   <chunk x="480" y="-64" width="16" height="16">
19,19,19,19,19,19,19,19,19,19,19,19,19,19,19,19,
19,19,19,19,19,19,19,19,19,19,19,19,19,19,19,19,
19,19,19,19,19,19,19,19,19,19,19,19,19,19,19,19,
19,19,19,19,19,19,19,19,19,19,19,19,19,19,19,19,
19,19,19,19,19,19,19,19,19,19,19,19,19,19,19,19,
19,19,19,19,19,19,19,19,19,19,19,19,19,19,19,19,
19,19,19,19,19,19,19,19,19,19,19,19,19,19,19,19,
19,19,19,19,19,19,19,19,19,19,19,19,19,19,19,19,
19,19,19,19,19,19,19,19,19,19,19,19,19,19,19,19,
19,19,19,19,19,19,19,19,19,19,19,19,19,19,19,19,
19,19,19,19,19,19,19,19,19,19,19,19,19,19,19,19,
19,19,19,19,19,19,19,19,19,19,19,19,19,19,19,19,
19,19,19,19,19,19,19,19,19,19,19,19,19,19,19,19,
19,19,19,19,19,19,19,19,19,19,19,19,19,19,19,19,
19,19,19,19,19,19,19,19,19,19,19,19,19,19,19,19,
19,19,19,19,19,19,19,19,19,19,19,19,19,19,19,19
</chunk>
   <chunk x="496" y="-64" width="16" height="16">
19,19,19,19,19,19,19,19,19,19,19,19,19,19,19,19,
19,19,19,19,19,19,19,19,19,19,19,19,19,19,19,19,
19,19,19,19,19,19,19,19,19,19,19,19,19,19,19,19,
19,19,19,19,19,19,19,19,19,19,19,19,19,19,19,19,
19,19,19,19,19,19,19,19,19,19,19,19,19,19,19,19,
19,19,19,19,19,19,19,19,19,19,19,19,19,19,19,19,
19,19,19,19,19,19,19,19,19,19,19,19,19,19,19,19,
19,19,19,19,19,19,19,19,19,19,19,19,19,19,19,19,
19,19,19,19,19,19,19,19,19,19,19,19,19,19,19,19,
19,19,19,19,19,19,19,19,19,19,19,19,19,19,19,19,
19,19,19,19,19,19,19,19,19,19,19,19,19,19,19,19,
19,19,19,19,19,19,19,19,19,19,19,19,19,19,19,19,
19,19,19,19,19,19,19,19,19,19,19,19,19,19,19,19,
19,19,19,19,19,19,19,19,19,19,19,19,19,19,19,19,
19,19,19,19,19,19,19,19,19,19,19,19,19,19,19,19,
19,19,19,19,19,19,19,19,19,19,19,19,19,19,19,19
</chunk>
   <chunk x="512" y="-64" width="16" height="16">
19,19,19,19,19,19,19,19,19,19,19,0,0,0,0,0,
19,19,19,19,19,19,19,19,19,19,19,0,0,0,0,0,
19,19,19,19,19,19,19,19,19,19,19,0,0,0,0,0,
19,19,19,19,19,19,19,19,19,19,19,0,0,0,0,0,
19,19,19,19,19,19,19,19,19,19,19,0,0,0,0,0,
19,19,19,19,19,19,19,19,19,19,19,0,0,0,0,0,
19,19,19,19,19,19,19,19,19,19,19,0,0,0,0,0,
19,19,19,19,19,19,19,19,19,19,19,0,0,0,0,0,
19,19,19,19,19,19,19,19,19,19,19,0,0,0,0,0,
19,19,19,19,19,19,19,19,19,19,19,0,0,0,0,0,
19,19,19,19,19,19,19,19,19,19,19,0,0,0,0,0,
19,19,19,19,19,19,19,19,19,19,19,0,0,0,0,0,
19,19,19,19,19,19,19,19,19,19,19,0,0,0,0,0,
19,19,19,19,19,19,19,19,19,19,19,0,0,0,0,0,
19,19,19,19,19,19,19,19,19,19,19,0,0,0,0,0,
19,19,19,19,19,19,19,19,19,19,19,0,0,0,0,0
</chunk>
   <chunk x="-32" y="-48" width="16" height="16">
0,0,0,0,0,0,0,0,0,0,0,0,19,19,19,19,
0,0,0,0,0,0,0,0,0,0,0,0,19,19,19,19,
0,0,0,0,0,0,0,0,0,0,0,0,19,19,19,19,
0,0,0,0,0,0,0,0,0,0,0,0,19,19,19,19,
0,0,0,0,0,0,0,0,0,0,0,0,19,19,19,19,
0,0,0,0,0,0,0,0,0,0,0,0,0,19,19,19,
0,0,0,0,0,0,0,0,0,0,0,0,0,0,0,19,
0,0,0,0,0,0,0,0,0,0,0,0,0,0,0,19,
0,0,0,0,0,0,0,0,0,0,0,0,0,0,0,19,
0,0,0,0,0,0,0,0,0,0,0,0,0,0,0,19,
0,0,0,0,0,0,0,0,0,0,0,0,0,0,0,19,
0,0,0,0,0,0,0,0,0,0,0,0,0,0,0,19,
0,0,0,0,0,0,0,0,0,0,0,0,0,0,0,19,
0,0,0,0,0,0,0,0,0,0,0,0,0,0,0,19,
0,0,0,0,0,0,0,0,0,0,0,0,0,0,0,19,
0,0,0,0,0,0,0,0,0,0,0,0,0,0,0,19
</chunk>
   <chunk x="-16" y="-48" width="16" height="16">
19,19,19,19,19,19,19,19,19,19,19,19,19,19,19,19,
19,19,19,19,19,19,19,19,19,19,19,19,19,19,19,19,
19,19,19,19,19,19,19,19,19,19,19,19,19,19,19,19,
19,19,19,19,19,19,19,19,19,19,19,19,19,19,19,19,
19,19,19,19,19,19,19,19,19,19,19,19,19,19,19,19,
19,19,19,19,19,19,19,19,19,19,19,19,19,19,19,19,
19,19,19,19,19,19,19,19,19,19,19,19,19,19,19,19,
19,19,19,19,19,19,19,19,19,19,19,19,19,19,19,19,
19,19,19,19,19,19,19,19,19,19,19,19,19,19,19,19,
19,19,19,19,19,19,19,19,19,19,19,19,19,19,19,19,
19,19,19,19,19,19,19,19,19,19,19,19,19,19,19,19,
19,19,19,19,19,19,19,19,19,19,19,19,19,19,19,19,
19,19,19,19,19,19,19,19,19,19,19,19,19,19,19,19,
19,19,19,19,19,19,19,19,19,19,19,19,19,19,19,19,
19,19,19,19,19,19,19,19,19,19,19,19,19,19,19,19,
19,19,19,19,19,19,19,19,19,19,19,19,19,19,19,19
</chunk>
   <chunk x="0" y="-48" width="16" height="16">
19,19,19,19,19,19,19,19,19,19,19,19,19,19,19,19,
19,19,19,19,19,19,19,19,19,19,19,19,19,19,19,19,
19,19,19,19,19,19,19,19,19,19,19,19,19,19,19,19,
19,19,19,19,19,19,19,19,19,19,19,19,19,19,19,19,
19,19,19,19,19,19,19,19,19,19,19,19,19,19,19,19,
19,19,19,19,19,19,19,19,19,19,19,19,19,19,19,19,
19,19,19,19,19,19,19,19,19,19,19,19,19,19,19,19,
19,19,19,19,19,19,19,19,19,19,19,19,19,19,19,19,
19,19,19,19,19,19,19,19,19,19,19,19,19,19,19,19,
19,19,19,19,19,19,19,19,19,19,19,19,19,19,19,19,
19,19,19,19,19,19,19,19,19,19,19,19,19,19,19,19,
19,19,19,19,19,19,19,19,19,19,19,19,19,19,19,19,
19,19,19,19,19,19,19,19,19,19,19,19,19,19,19,19,
19,19,19,19,19,19,19,19,19,19,19,19,19,19,19,19,
19,19,19,19,19,19,19,19,19,19,19,19,19,19,19,19,
19,19,19,19,19,19,19,19,19,19,19,19,19,19,19,19
</chunk>
   <chunk x="16" y="-48" width="16" height="16">
19,19,19,19,19,19,19,19,19,19,19,19,19,19,19,19,
19,19,19,19,19,19,19,19,19,19,19,19,19,19,19,19,
19,19,19,19,19,19,19,19,19,19,19,19,19,19,19,19,
19,19,19,19,19,19,19,19,19,19,19,19,19,19,19,19,
19,19,19,19,19,19,19,19,19,19,19,19,19,19,19,19,
19,19,19,19,19,19,19,19,19,19,19,19,19,19,19,19,
19,19,19,19,19,19,19,19,19,19,19,19,19,19,19,19,
19,19,19,19,19,19,19,19,19,19,19,19,19,19,19,19,
19,19,19,19,19,19,19,19,19,19,19,19,19,19,19,19,
19,19,19,19,19,19,19,19,19,19,19,19,19,19,19,19,
19,19,19,19,19,19,19,19,19,19,19,19,19,19,19,19,
19,19,19,19,19,19,19,19,19,19,19,19,19,19,19,19,
19,19,19,19,19,19,19,19,19,19,19,19,19,19,19,19,
19,19,19,19,19,19,19,19,19,19,19,19,19,19,19,19,
19,19,19,19,19,19,19,19,19,19,19,19,19,19,19,19,
19,19,19,19,19,19,19,19,19,19,19,19,19,19,19,19
</chunk>
   <chunk x="32" y="-48" width="16" height="16">
19,19,19,19,19,19,19,19,19,19,19,19,19,19,19,19,
19,19,19,19,19,19,19,19,19,19,19,19,19,19,19,19,
19,19,19,19,19,19,19,19,19,19,19,19,19,19,19,19,
19,19,19,19,19,19,19,19,19,19,19,19,19,19,19,19,
19,19,19,19,19,19,19,19,19,19,19,19,19,19,19,19,
19,19,19,19,19,19,19,19,19,19,19,19,19,19,19,19,
19,19,19,19,19,19,19,19,19,19,19,19,19,19,19,19,
19,19,19,19,19,19,19,19,19,19,19,19,19,19,19,19,
19,19,19,19,19,19,19,19,19,19,19,19,19,19,19,19,
19,19,19,19,19,19,19,19,19,19,19,19,19,19,19,19,
19,19,19,19,19,19,19,19,19,19,19,19,19,19,19,19,
19,19,19,19,19,19,19,19,19,19,19,19,19,19,19,19,
19,19,19,19,19,19,19,19,19,19,19,19,19,19,19,19,
19,19,19,19,19,19,19,19,19,19,19,19,19,19,19,19,
19,19,19,19,19,19,19,19,19,19,19,19,19,19,19,19,
19,19,19,19,19,19,19,19,19,19,19,19,19,19,19,19
</chunk>
   <chunk x="48" y="-48" width="16" height="16">
19,19,19,19,19,19,19,19,19,19,19,19,19,19,19,19,
19,19,19,19,19,19,19,19,19,19,19,19,19,19,19,19,
19,19,19,19,19,19,19,19,19,19,19,19,19,19,19,19,
19,19,19,19,19,19,19,19,19,19,19,19,19,19,19,19,
19,19,19,19,19,19,19,19,19,19,19,19,19,19,19,19,
19,19,19,19,19,19,19,19,19,19,19,19,19,19,19,19,
19,19,19,19,19,19,19,19,19,19,19,19,19,19,19,19,
19,19,19,19,19,19,19,19,19,19,19,19,19,19,19,19,
19,19,19,19,19,19,19,19,19,19,19,19,19,19,19,19,
19,19,19,19,19,19,19,19,19,19,19,19,19,19,19,19,
19,19,19,19,19,19,19,19,19,19,19,19,19,19,19,19,
19,19,19,19,19,19,19,19,19,19,19,19,19,19,19,19,
19,19,19,19,19,19,19,19,19,19,19,19,19,19,19,19,
19,19,19,19,19,19,19,19,19,19,19,19,19,19,19,19,
19,19,19,19,19,19,19,19,19,19,19,19,19,19,19,19,
19,19,19,19,19,19,19,19,19,19,19,19,19,19,19,19
</chunk>
   <chunk x="64" y="-48" width="16" height="16">
19,19,19,19,19,19,19,19,19,19,19,19,19,19,19,19,
19,19,19,19,19,19,19,19,19,19,19,19,19,19,19,19,
19,19,19,19,19,19,19,19,19,19,19,19,19,19,19,19,
19,19,19,19,19,19,19,19,19,19,19,19,19,19,19,19,
19,19,19,19,19,19,19,19,19,19,19,19,19,19,19,19,
19,19,19,19,19,19,19,19,19,19,19,19,19,19,19,19,
19,19,19,19,19,19,19,19,19,19,19,19,19,19,19,19,
19,19,19,19,19,19,19,19,19,19,19,19,19,19,19,19,
19,19,19,19,19,19,19,19,19,19,19,19,19,19,19,19,
19,19,19,19,19,19,19,19,19,19,19,19,19,19,19,19,
19,19,19,19,19,19,19,19,19,19,19,19,19,19,19,19,
19,19,19,19,19,19,19,19,19,19,19,19,19,19,19,19,
19,19,19,19,19,19,19,19,19,19,19,19,19,19,19,19,
19,19,19,19,19,19,19,19,19,19,19,19,19,19,19,19,
19,19,19,19,19,19,19,19,19,19,19,19,19,19,19,19,
19,19,19,19,19,19,19,19,19,19,19,19,19,19,19,19
</chunk>
   <chunk x="80" y="-48" width="16" height="16">
19,19,19,19,19,19,19,19,19,19,19,19,19,19,19,19,
19,19,19,19,19,19,19,19,19,19,19,19,19,19,19,19,
19,19,19,19,19,19,19,19,19,19,19,19,19,19,19,19,
19,19,19,19,19,19,19,19,19,19,19,19,19,19,19,19,
19,19,19,19,19,19,19,19,19,19,19,19,19,19,19,19,
19,19,19,19,19,19,19,19,19,19,19,19,19,19,19,19,
19,19,19,19,19,19,19,19,19,19,19,19,19,19,19,19,
19,19,19,19,19,19,19,19,19,19,19,19,19,19,19,19,
19,19,19,19,19,19,19,19,19,19,19,19,19,19,19,19,
19,19,19,19,19,19,19,19,19,19,19,19,19,19,19,19,
19,19,19,19,19,19,19,19,19,19,19,19,19,19,19,19,
19,19,19,19,19,19,19,19,19,19,19,19,19,19,19,19,
19,19,19,19,19,19,19,19,19,19,19,19,19,19,19,19,
19,19,19,19,19,19,19,19,19,19,19,19,19,19,19,19,
19,19,19,19,19,19,19,19,19,19,19,19,19,19,19,19,
19,19,19,19,19,19,19,19,19,19,19,19,19,19,19,19
</chunk>
   <chunk x="96" y="-48" width="16" height="16">
19,19,19,19,19,19,19,19,19,19,19,19,19,19,19,19,
19,19,19,19,19,19,19,19,19,19,19,19,19,19,19,19,
19,19,19,19,19,19,19,19,19,19,19,19,19,19,19,19,
19,19,19,19,19,19,19,19,19,19,19,19,19,19,19,19,
19,19,19,19,19,19,19,19,19,19,19,19,19,19,19,19,
19,19,19,19,19,19,19,19,19,19,19,19,19,19,19,19,
19,19,19,19,19,19,19,19,19,19,19,19,19,19,19,19,
19,19,19,19,19,19,19,19,19,19,19,19,19,19,19,19,
19,19,19,19,19,19,19,19,19,19,19,19,19,19,19,19,
19,19,19,19,19,19,19,19,19,19,19,19,19,19,19,19,
19,19,19,19,19,19,19,19,19,19,19,19,19,19,19,19,
19,19,19,19,19,19,19,19,19,19,19,19,19,19,19,19,
19,19,19,19,19,19,19,19,19,19,19,19,19,19,19,19,
19,19,19,19,19,19,19,19,19,19,19,19,19,19,19,19,
19,19,19,19,19,19,19,19,19,19,19,19,19,19,19,19,
19,19,19,19,19,19,19,19,19,19,19,19,19,19,19,19
</chunk>
   <chunk x="112" y="-48" width="16" height="16">
19,19,19,19,19,19,19,19,19,19,19,19,19,19,19,19,
19,19,19,19,19,19,19,19,19,19,19,19,19,19,19,19,
19,19,19,19,19,19,19,19,19,19,19,19,19,19,19,19,
19,19,19,19,19,19,19,19,19,19,19,19,19,19,19,19,
19,19,19,19,19,19,19,19,19,19,19,19,19,19,19,19,
19,19,19,19,19,19,19,19,19,19,19,19,19,19,19,19,
19,19,19,19,19,19,19,19,19,19,19,19,19,19,19,19,
19,19,19,19,19,19,19,19,19,19,19,19,19,19,19,19,
19,19,19,19,19,19,19,19,19,19,19,19,19,19,19,19,
19,19,19,19,19,19,19,19,19,19,19,19,19,19,19,19,
19,19,19,19,19,19,19,19,19,19,19,19,19,19,19,19,
19,19,19,19,19,19,19,19,19,19,19,19,19,19,19,19,
19,19,19,19,19,19,19,19,19,19,19,19,19,19,19,19,
19,19,19,19,19,19,19,19,19,19,19,19,19,19,19,19,
19,19,19,19,19,19,19,19,19,19,19,19,19,19,19,19,
19,19,19,19,19,19,19,19,19,19,19,19,19,19,19,19
</chunk>
   <chunk x="128" y="-48" width="16" height="16">
19,19,19,19,19,19,19,19,19,19,19,19,19,19,19,19,
19,19,19,19,19,19,19,19,19,19,19,19,19,19,19,19,
19,19,19,19,19,19,19,19,19,19,19,19,19,19,19,19,
19,19,19,19,19,19,19,19,19,19,19,19,19,19,19,19,
19,19,19,19,19,19,19,19,19,19,19,19,19,19,19,19,
19,19,19,19,19,19,19,19,19,19,19,19,19,19,19,19,
19,19,19,19,19,19,19,19,19,19,19,19,19,19,19,19,
19,19,19,19,19,19,19,19,19,19,19,19,19,19,19,19,
19,19,19,19,19,19,19,19,19,19,19,19,19,19,19,19,
19,19,19,19,19,19,19,19,19,19,19,19,19,19,19,19,
19,19,19,19,19,19,19,19,19,19,19,19,19,19,19,19,
19,19,19,19,19,19,19,19,19,19,19,19,19,19,19,19,
19,19,19,19,19,19,19,19,19,19,19,19,19,19,19,19,
19,19,19,19,19,19,19,19,19,19,19,19,19,19,19,19,
19,19,19,19,19,19,19,19,19,19,19,19,19,19,19,19,
19,19,19,19,19,19,19,19,19,19,19,19,19,19,19,19
</chunk>
   <chunk x="144" y="-48" width="16" height="16">
19,19,19,19,19,19,19,19,19,19,19,19,19,19,19,19,
19,19,19,19,19,19,19,19,19,19,19,19,19,19,19,19,
19,19,19,19,19,19,19,19,19,19,19,19,19,19,19,19,
19,19,19,19,19,19,19,19,19,19,19,19,19,19,19,19,
19,19,19,19,19,19,19,19,19,19,19,19,19,19,19,19,
19,19,19,19,19,19,19,19,19,19,19,19,19,19,19,19,
19,19,19,19,19,19,19,19,19,19,19,19,19,19,19,19,
19,19,19,19,19,19,19,19,19,19,19,19,19,19,19,19,
19,19,19,19,19,19,19,19,19,19,19,19,19,19,19,19,
19,19,19,19,19,19,19,19,19,19,19,19,19,19,19,19,
19,19,19,19,19,19,19,19,19,19,19,19,19,19,19,19,
19,19,19,19,19,19,19,19,19,19,19,19,19,19,19,19,
19,19,19,19,19,19,19,19,19,19,19,19,19,19,19,19,
19,19,19,19,19,19,19,19,19,19,19,19,19,19,19,19,
19,19,19,19,19,19,19,19,19,19,19,19,19,19,19,19,
19,19,19,19,19,19,19,19,19,19,19,19,19,19,19,19
</chunk>
   <chunk x="160" y="-48" width="16" height="16">
19,19,19,19,19,19,19,19,19,19,19,19,19,19,19,19,
19,19,19,19,19,19,19,19,19,19,19,19,19,19,19,19,
19,19,19,19,19,19,19,19,19,19,19,19,19,19,19,19,
19,19,19,19,19,19,19,19,19,19,19,19,19,19,19,19,
19,19,19,19,19,19,19,19,19,19,19,19,19,19,19,19,
19,19,19,19,19,19,19,19,19,19,19,19,19,19,19,19,
19,19,19,19,19,19,19,19,19,19,19,19,19,19,19,19,
19,19,19,19,19,19,19,19,19,19,19,19,19,19,19,19,
19,19,19,19,19,19,19,19,19,19,19,19,19,19,19,19,
19,19,19,19,19,19,19,19,19,19,19,19,19,19,19,19,
19,19,19,19,19,19,19,19,19,19,19,19,19,19,19,19,
19,19,19,19,19,19,19,19,19,19,19,19,19,19,19,19,
19,19,19,19,19,19,19,19,19,19,19,19,19,19,19,19,
19,19,19,19,19,19,19,19,19,19,19,19,19,19,19,19,
19,19,19,19,19,19,19,19,19,19,19,19,19,19,19,19,
19,19,19,19,19,19,19,19,19,19,19,19,19,19,19,19
</chunk>
   <chunk x="176" y="-48" width="16" height="16">
19,19,19,19,19,19,19,19,19,19,19,19,19,19,19,19,
19,19,19,19,19,19,19,19,19,19,19,19,19,19,19,19,
19,19,19,19,19,19,19,19,19,19,19,19,19,19,19,19,
19,19,19,19,19,19,19,19,19,19,19,19,19,19,19,19,
19,19,19,19,19,19,19,19,19,19,19,19,19,19,19,19,
19,19,19,19,19,19,19,19,19,19,19,19,19,19,19,19,
19,19,19,19,19,19,19,19,19,19,19,19,19,19,19,19,
19,19,19,19,19,19,19,19,19,19,19,19,19,19,19,19,
19,19,19,19,19,19,19,19,19,19,19,19,19,19,19,19,
19,19,19,19,19,19,19,19,19,19,19,19,19,19,19,19,
19,19,19,19,19,19,19,19,19,19,19,19,19,19,19,19,
19,19,19,19,19,19,19,19,19,19,19,19,19,19,19,19,
19,19,19,19,19,19,19,19,19,19,19,19,19,19,19,19,
19,19,19,19,19,19,19,19,19,19,19,19,19,19,19,19,
19,19,19,19,19,19,19,19,19,19,19,19,19,19,19,19,
19,19,19,19,19,19,19,19,19,19,19,19,19,19,19,19
</chunk>
   <chunk x="192" y="-48" width="16" height="16">
19,19,19,19,19,19,19,19,19,19,19,19,19,19,19,19,
19,19,19,19,19,19,19,19,19,19,19,19,19,19,19,19,
19,19,19,19,19,19,19,19,19,19,19,19,19,19,19,19,
19,19,19,19,19,19,19,19,19,19,19,19,19,19,19,19,
19,19,19,19,19,19,19,19,19,19,19,19,19,19,19,19,
19,19,19,19,19,19,19,19,19,19,19,19,19,19,19,19,
19,19,19,19,19,19,19,19,19,19,19,19,19,19,19,19,
19,19,19,19,19,19,19,19,19,19,19,19,19,19,19,19,
19,19,19,19,19,19,19,19,19,19,19,19,19,19,19,19,
19,19,19,19,19,19,19,19,19,19,19,19,19,19,19,19,
19,19,19,19,19,19,19,19,19,19,19,19,19,19,19,19,
19,19,19,19,19,19,19,19,19,19,19,19,19,19,19,19,
19,19,19,19,19,19,19,19,19,19,19,19,19,19,19,19,
19,19,19,19,19,19,19,19,19,19,19,19,19,19,19,19,
19,19,19,19,19,19,19,19,19,19,19,19,19,19,19,19,
19,19,19,19,19,19,19,19,19,19,19,19,19,19,19,19
</chunk>
   <chunk x="208" y="-48" width="16" height="16">
19,19,19,19,19,19,19,19,19,19,19,19,19,19,19,19,
19,19,19,19,19,19,19,19,19,19,19,19,19,19,19,19,
19,19,19,19,19,19,19,19,19,19,19,19,19,19,19,19,
19,19,19,19,19,19,19,19,19,19,19,19,19,19,19,19,
19,19,19,19,19,19,19,19,19,19,19,19,19,19,19,19,
19,19,19,19,19,19,19,19,19,19,19,19,19,19,19,19,
19,19,19,19,19,19,19,19,19,19,19,19,19,19,19,19,
19,19,19,19,19,19,19,19,19,19,19,19,19,19,19,19,
19,19,19,19,19,19,19,19,19,19,19,19,19,19,19,19,
19,19,19,19,19,19,19,19,19,19,19,19,19,19,19,19,
19,19,19,19,19,19,19,19,19,19,19,19,19,19,19,19,
19,19,19,19,19,19,19,19,19,19,19,19,19,19,19,19,
19,19,19,19,19,19,19,19,19,19,19,19,19,19,19,19,
19,19,19,19,19,19,19,19,19,19,19,19,19,19,19,19,
19,19,19,19,19,19,19,19,19,19,19,19,19,19,19,19,
19,19,19,19,19,19,19,19,19,19,19,19,19,19,19,19
</chunk>
   <chunk x="224" y="-48" width="16" height="16">
19,19,19,19,19,19,19,19,19,19,19,19,19,19,19,19,
19,19,19,19,19,19,19,19,19,19,19,19,19,19,19,19,
19,19,19,19,19,19,19,19,19,19,19,19,19,19,19,19,
19,19,19,19,19,19,19,19,19,19,19,19,19,19,19,19,
19,19,19,19,19,19,19,19,19,19,19,19,19,19,19,19,
19,19,19,19,19,19,19,19,19,19,19,19,19,19,19,19,
19,19,19,19,19,19,19,19,19,19,19,19,19,19,19,19,
19,19,19,19,19,19,19,19,19,19,19,19,19,19,19,19,
19,19,19,19,19,19,19,19,19,19,19,19,19,19,19,19,
19,19,19,19,19,19,19,19,19,19,19,19,19,19,19,19,
19,19,19,19,19,19,19,19,19,19,19,19,19,19,19,19,
19,19,19,19,19,19,19,19,19,19,19,19,19,19,19,19,
19,19,19,19,19,19,19,19,19,19,19,19,19,19,19,19,
19,19,19,19,19,19,19,19,19,19,19,19,19,19,19,19,
19,19,19,19,19,19,19,19,19,19,19,19,19,19,19,19,
19,19,19,19,19,19,19,19,19,19,19,19,19,19,19,19
</chunk>
   <chunk x="240" y="-48" width="16" height="16">
19,19,19,19,19,19,19,19,19,19,19,19,19,19,19,19,
19,19,19,19,19,19,19,19,19,19,19,19,19,19,19,19,
19,19,19,19,19,19,19,19,19,19,19,19,19,19,19,19,
19,19,19,19,19,19,19,19,19,19,19,19,19,19,19,19,
19,19,19,19,19,19,19,19,19,19,19,19,19,19,19,19,
19,19,19,19,19,19,19,19,19,19,19,19,19,19,19,19,
19,19,19,19,19,19,19,19,19,19,19,19,19,19,19,19,
19,19,19,19,19,19,19,19,19,19,19,19,19,19,19,19,
19,19,19,19,19,19,19,19,19,19,19,19,19,19,19,19,
19,19,19,19,19,19,19,19,19,19,19,19,19,19,19,19,
19,19,19,19,19,19,19,19,19,19,19,19,19,19,19,19,
19,19,19,19,19,19,19,19,19,19,19,19,19,19,19,19,
19,19,19,19,19,19,19,19,19,19,19,19,19,19,19,19,
19,19,19,19,19,19,19,19,19,19,19,19,19,19,19,19,
19,19,19,19,19,19,19,19,19,19,19,19,19,19,19,19,
19,19,19,19,19,19,19,19,19,19,19,19,19,19,19,19
</chunk>
   <chunk x="256" y="-48" width="16" height="16">
19,19,19,19,19,19,19,19,19,19,19,19,19,19,19,19,
19,19,19,19,19,19,19,19,19,19,19,19,19,19,19,19,
19,19,19,19,19,19,19,19,19,19,19,19,19,19,19,19,
19,19,19,19,19,19,19,19,19,19,19,19,19,19,19,19,
19,19,19,19,19,19,19,19,19,19,19,19,19,19,19,19,
19,19,19,19,19,19,19,19,19,19,19,19,19,19,19,19,
19,19,19,19,19,19,19,19,19,19,19,19,19,19,19,19,
19,19,19,19,19,19,19,19,19,19,19,19,19,19,19,19,
19,19,19,19,19,19,19,19,19,19,19,19,19,19,19,19,
19,19,19,19,19,19,19,19,19,19,19,19,19,19,19,19,
19,19,19,19,19,19,19,19,19,19,19,19,19,19,19,19,
19,19,19,19,19,19,19,19,19,19,19,19,19,19,19,19,
19,19,19,19,19,19,19,19,19,19,19,19,19,19,19,19,
19,19,19,19,19,19,19,19,19,19,19,19,19,19,19,19,
19,19,19,19,19,19,19,19,19,19,19,19,19,19,19,19,
19,19,19,19,19,19,19,19,19,19,19,19,19,19,19,19
</chunk>
   <chunk x="272" y="-48" width="16" height="16">
19,19,19,19,19,19,19,19,19,19,19,19,19,19,19,19,
19,19,19,19,19,19,19,19,19,19,19,19,19,19,19,19,
19,19,19,19,19,19,19,19,19,19,19,19,19,19,19,19,
19,19,19,19,19,19,19,19,19,19,19,19,19,19,19,19,
19,19,19,19,19,19,19,19,19,19,19,19,19,19,19,19,
19,19,19,19,19,19,19,19,19,19,19,19,19,19,19,19,
19,19,19,19,19,19,19,19,19,19,19,19,19,19,19,19,
19,19,19,19,19,19,19,19,19,19,19,19,19,19,19,19,
19,19,19,19,19,19,19,19,19,19,19,19,19,19,19,19,
19,19,19,19,19,19,19,19,19,19,19,19,19,19,19,19,
19,19,19,19,19,19,19,19,19,19,19,19,19,19,19,19,
19,19,19,19,19,19,19,19,19,19,19,19,19,19,19,19,
19,19,19,19,19,19,19,19,19,19,19,19,19,19,19,19,
19,19,19,19,19,19,19,19,19,19,19,19,19,19,19,19,
19,19,19,19,19,19,19,19,19,19,19,19,19,19,19,19,
19,19,19,19,19,19,19,19,19,19,19,19,19,19,19,19
</chunk>
   <chunk x="288" y="-48" width="16" height="16">
19,19,19,19,19,19,19,19,19,19,19,19,19,19,19,19,
19,19,19,19,19,19,19,19,19,19,19,19,19,19,19,19,
19,19,19,19,19,19,19,19,19,19,19,19,19,19,19,19,
19,19,19,19,19,19,19,19,19,19,19,19,19,19,19,19,
19,19,19,19,19,19,19,19,19,19,19,19,19,19,19,19,
19,19,19,19,19,19,19,19,19,19,19,19,19,19,19,19,
19,19,19,19,19,19,19,19,19,19,19,19,19,19,19,19,
19,19,19,19,19,19,19,19,19,19,19,19,19,19,19,19,
19,19,19,19,19,19,19,19,19,19,19,19,19,19,19,19,
19,19,19,19,19,19,19,19,19,19,19,19,19,19,19,19,
19,19,19,19,19,19,19,19,19,19,19,19,19,19,19,19,
19,19,19,19,19,19,19,19,19,19,19,19,19,19,19,19,
19,19,19,19,19,19,19,19,19,19,19,19,19,19,19,19,
19,19,19,19,19,19,19,19,19,19,19,19,19,19,19,19,
19,19,19,19,19,19,19,19,19,19,19,19,19,19,19,19,
19,19,19,19,19,19,19,19,19,19,19,19,19,19,19,19
</chunk>
   <chunk x="304" y="-48" width="16" height="16">
19,19,19,19,19,19,19,19,19,19,19,19,19,19,19,19,
19,19,19,19,19,19,19,19,19,19,19,19,19,19,19,19,
19,19,19,19,19,19,19,19,19,19,19,19,19,19,19,19,
19,19,19,19,19,19,19,19,19,19,19,19,19,19,19,19,
19,19,19,19,19,19,19,19,19,19,19,19,19,19,19,19,
19,19,19,19,19,19,19,19,19,19,19,19,19,19,19,19,
19,19,19,19,19,19,19,19,19,19,19,19,19,19,19,19,
19,19,19,19,19,19,19,19,19,19,19,19,19,19,19,19,
19,19,19,19,19,19,19,19,19,19,19,19,19,19,19,19,
19,19,19,19,19,19,19,19,19,19,19,19,19,19,19,19,
19,19,19,19,19,19,19,19,19,19,19,19,19,19,19,19,
19,19,19,19,19,19,19,19,19,19,19,19,19,19,19,19,
19,19,19,19,19,19,19,19,19,19,19,19,19,19,19,19,
19,19,19,19,19,19,19,19,19,19,19,19,19,19,19,19,
19,19,19,19,19,19,19,19,19,19,19,19,19,19,19,19,
19,19,19,19,19,19,19,19,19,19,19,19,19,19,19,19
</chunk>
   <chunk x="320" y="-48" width="16" height="16">
19,19,19,19,19,19,19,19,19,19,19,19,19,19,19,19,
19,19,19,19,19,19,19,19,19,19,19,19,19,19,19,19,
19,19,19,19,19,19,19,19,19,19,19,19,19,19,19,19,
19,19,19,19,19,19,19,19,19,19,19,19,19,19,19,19,
19,19,19,19,19,19,19,19,19,19,19,19,19,19,19,19,
19,19,19,19,19,19,19,19,19,19,19,19,19,19,19,19,
19,19,19,19,19,19,19,19,19,19,19,19,19,19,19,19,
19,19,19,19,19,19,19,19,19,19,19,19,19,19,19,19,
19,19,19,19,19,19,19,19,19,19,19,19,19,19,19,19,
19,19,19,19,19,19,19,19,19,19,19,19,19,19,19,19,
19,19,19,19,19,19,19,19,19,19,19,19,19,19,19,19,
19,19,19,19,19,19,19,19,19,19,19,19,19,19,19,19,
19,19,19,19,19,19,19,19,19,19,19,19,19,19,19,19,
19,19,19,19,19,19,19,19,19,19,19,19,19,19,19,19,
19,19,19,19,19,19,19,19,19,19,19,19,19,19,19,19,
19,19,19,19,19,19,19,19,19,19,19,19,19,19,19,19
</chunk>
   <chunk x="336" y="-48" width="16" height="16">
19,19,19,19,19,19,19,19,19,19,19,19,19,19,19,19,
19,19,19,19,19,19,19,19,19,19,19,19,19,19,19,19,
19,19,19,19,19,19,19,19,19,19,19,19,19,19,19,19,
19,19,19,19,19,19,19,19,19,19,19,19,19,19,19,19,
19,19,19,19,19,19,19,19,19,19,19,19,19,19,19,19,
19,19,19,19,19,19,19,19,19,19,19,19,19,19,19,19,
19,19,19,19,19,19,19,19,19,19,19,19,19,19,19,19,
19,19,19,19,19,19,19,19,19,19,19,19,19,19,19,19,
19,19,19,19,19,19,19,19,19,19,19,19,19,19,19,19,
19,19,19,19,19,19,19,19,19,19,19,19,19,19,19,19,
19,19,19,19,19,19,19,19,19,19,19,19,19,19,19,19,
19,19,19,19,19,19,19,19,19,19,19,19,19,19,19,19,
19,19,19,19,19,19,19,19,19,19,19,19,19,19,19,19,
19,19,19,19,19,19,19,19,19,19,19,19,19,19,19,19,
19,19,19,19,19,19,19,19,19,19,19,19,19,19,19,19,
19,19,19,19,19,19,19,19,19,19,19,19,19,19,19,19
</chunk>
   <chunk x="352" y="-48" width="16" height="16">
19,19,19,19,19,19,19,19,19,19,19,19,19,19,19,19,
19,19,19,19,19,19,19,19,19,19,19,19,19,19,19,19,
19,19,19,19,19,19,19,19,19,19,19,19,19,19,19,19,
19,19,19,19,19,19,19,19,19,19,19,19,19,19,19,19,
19,19,19,19,19,19,19,19,19,19,19,19,19,19,19,19,
19,19,19,19,19,19,19,19,19,19,19,19,19,19,19,19,
19,19,19,19,19,19,19,19,19,19,19,19,19,19,19,19,
19,19,19,19,19,19,19,19,19,19,19,19,19,19,19,19,
19,19,19,19,19,19,19,19,19,19,19,19,19,19,19,19,
19,19,19,19,19,19,19,19,19,19,19,19,19,19,19,19,
19,19,19,19,19,19,19,19,19,19,19,19,19,19,19,19,
19,19,19,19,19,19,19,19,19,19,19,19,19,19,19,19,
19,19,19,19,19,19,19,19,19,19,19,19,19,19,19,19,
19,19,19,19,19,19,19,19,19,19,19,19,19,19,19,19,
19,19,19,19,19,19,19,19,19,19,19,19,19,19,19,19,
19,19,19,19,19,19,19,19,19,19,19,19,19,19,19,19
</chunk>
   <chunk x="368" y="-48" width="16" height="16">
19,19,19,19,19,19,19,19,19,19,19,19,19,19,19,19,
19,19,19,19,19,19,19,19,19,19,19,19,19,19,19,19,
19,19,19,19,19,19,19,19,19,19,19,19,19,19,19,19,
19,19,19,19,19,19,19,19,19,19,19,19,19,19,19,19,
19,19,19,19,19,19,19,19,19,19,19,19,19,19,19,19,
19,19,19,19,19,19,19,19,19,19,19,19,19,19,19,19,
19,19,19,19,19,19,19,19,19,19,19,19,19,19,19,19,
19,19,19,19,19,19,19,19,19,19,19,19,19,19,19,19,
19,19,19,19,19,19,19,19,19,19,19,19,19,19,19,19,
19,19,19,19,19,19,19,19,19,19,19,19,19,19,19,19,
19,19,19,19,19,19,19,19,19,19,19,19,19,19,19,19,
19,19,19,19,19,19,19,19,19,19,19,19,19,19,19,19,
19,19,19,19,19,19,19,19,19,19,19,19,19,19,19,19,
19,19,19,19,19,19,19,19,19,19,19,19,19,19,19,19,
19,19,19,19,19,19,19,19,19,19,19,19,19,19,19,19,
19,19,19,19,19,19,19,19,19,19,19,19,19,19,19,19
</chunk>
   <chunk x="384" y="-48" width="16" height="16">
19,19,19,19,19,19,19,19,19,19,19,19,19,19,19,19,
19,19,19,19,19,19,19,19,19,19,19,19,19,19,19,19,
19,19,19,19,19,19,19,19,19,19,19,19,19,19,19,19,
19,19,19,19,19,19,19,19,19,19,19,19,19,19,19,19,
19,19,19,19,19,19,19,19,19,19,19,19,19,19,19,19,
19,19,19,19,19,19,19,19,19,19,19,19,19,19,19,19,
19,19,19,19,19,19,19,19,19,19,19,19,19,19,19,19,
19,19,19,19,19,19,19,19,19,19,19,19,19,19,19,19,
19,19,19,19,19,19,19,19,19,19,19,19,19,19,19,19,
19,19,19,19,19,19,19,19,19,19,19,19,19,19,19,19,
19,19,19,19,19,19,19,19,19,19,19,19,19,19,19,19,
19,19,19,19,19,19,19,19,19,19,19,19,19,19,19,19,
19,19,19,19,19,19,19,19,19,19,19,19,19,19,19,19,
19,19,19,19,19,19,19,19,19,19,19,19,19,19,19,19,
19,19,19,19,19,19,19,19,19,19,19,19,19,19,19,19,
19,19,19,19,19,19,19,19,19,19,19,19,19,19,19,19
</chunk>
   <chunk x="400" y="-48" width="16" height="16">
19,19,19,19,19,19,19,19,19,19,19,19,19,19,19,19,
19,19,19,19,19,19,19,19,19,19,19,19,19,19,19,19,
19,19,19,19,19,19,19,19,19,19,19,19,19,19,19,19,
19,19,19,19,19,19,19,19,19,19,19,19,19,19,19,19,
19,19,19,19,19,19,19,19,19,19,19,19,19,19,19,19,
19,19,19,19,19,19,19,19,19,19,19,19,19,19,19,19,
19,19,19,19,19,19,19,19,19,19,19,19,19,19,19,19,
19,19,19,19,19,19,19,19,19,19,19,19,19,19,19,19,
19,19,19,19,19,19,19,19,19,19,19,19,19,19,19,19,
19,19,19,19,19,19,19,19,19,19,19,19,19,19,19,19,
19,19,19,19,19,19,19,19,19,19,19,19,19,19,19,19,
19,19,19,19,19,19,19,19,19,19,19,19,19,19,19,19,
19,19,19,19,19,19,19,19,19,19,19,19,19,19,19,19,
19,19,19,19,19,19,19,19,19,19,19,19,19,19,19,19,
19,19,19,19,19,19,19,19,19,19,19,19,19,19,19,19,
19,19,19,19,19,19,19,19,19,19,19,19,19,19,19,19
</chunk>
   <chunk x="416" y="-48" width="16" height="16">
19,19,19,19,19,19,19,19,19,19,19,19,19,19,19,19,
19,19,19,19,19,19,19,19,19,19,19,19,19,19,19,19,
19,19,19,19,19,19,19,19,19,19,19,19,19,19,19,19,
19,19,19,19,19,19,19,19,19,19,19,19,19,19,19,19,
19,19,19,19,19,19,19,19,19,19,19,19,19,19,19,19,
19,19,19,19,19,19,19,19,19,19,19,19,19,19,19,19,
19,19,19,19,19,19,19,19,19,19,19,19,19,19,19,19,
19,19,19,19,19,19,19,19,19,19,19,19,19,19,19,19,
19,19,19,19,19,19,19,19,19,19,19,19,19,19,19,19,
19,19,19,19,19,19,19,19,19,19,19,19,19,19,19,19,
19,19,19,19,19,19,19,19,19,19,19,19,19,19,19,19,
19,19,19,19,19,19,19,19,19,19,19,19,19,19,19,19,
19,19,19,19,19,19,19,19,19,19,19,19,19,19,19,19,
19,19,19,19,19,19,19,19,19,19,19,19,19,19,19,19,
19,19,19,19,19,19,19,19,19,19,19,19,19,19,19,19,
19,19,19,19,19,19,19,19,19,19,19,19,19,19,19,19
</chunk>
   <chunk x="432" y="-48" width="16" height="16">
19,19,19,19,19,19,19,19,19,19,19,19,19,19,19,19,
19,19,19,19,19,19,19,19,19,19,19,19,19,19,19,19,
19,19,19,19,19,19,19,19,19,19,19,19,19,19,19,19,
19,19,19,19,19,19,19,19,19,19,19,19,19,19,19,19,
19,19,19,19,19,19,19,19,19,19,19,19,19,19,19,19,
19,19,19,19,19,19,19,19,19,19,19,19,19,19,19,19,
19,19,19,19,19,19,19,19,19,19,19,19,19,19,19,19,
19,19,19,19,19,19,19,19,19,19,19,19,19,19,19,19,
19,19,19,19,19,19,19,19,19,19,19,19,19,19,19,19,
19,19,19,19,19,19,19,19,19,19,19,19,19,19,19,19,
19,19,19,19,19,19,19,19,19,19,19,19,19,19,19,19,
19,19,19,19,19,19,19,19,19,19,19,19,19,19,19,19,
19,19,19,19,19,19,19,19,19,19,19,19,19,19,19,19,
19,19,19,19,19,19,19,19,19,19,19,19,19,19,19,19,
19,19,19,19,19,19,19,19,19,19,19,19,19,19,19,19,
19,19,19,19,19,19,19,19,19,19,19,19,19,19,19,19
</chunk>
   <chunk x="448" y="-48" width="16" height="16">
19,19,19,19,19,19,19,19,19,19,19,19,19,19,19,19,
19,19,19,19,19,19,19,19,19,19,19,19,19,19,19,19,
19,19,19,19,19,19,19,19,19,19,19,19,19,19,19,19,
19,19,19,19,19,19,19,19,19,19,19,19,19,19,19,19,
19,19,19,19,19,19,19,19,19,19,19,19,19,19,19,19,
19,19,19,19,19,19,19,19,19,19,19,19,19,19,19,19,
19,19,19,19,19,19,19,19,19,19,19,19,19,19,19,19,
19,19,19,19,19,19,19,19,19,19,19,19,19,19,19,19,
19,19,19,19,19,19,19,19,19,19,19,19,19,19,19,19,
19,19,19,19,19,19,19,19,19,19,19,19,19,19,19,19,
19,19,19,19,19,19,19,19,19,19,19,19,19,19,19,19,
19,19,19,19,19,19,19,19,19,19,19,19,19,19,19,19,
19,19,19,19,19,19,19,19,19,19,19,19,19,19,19,19,
19,19,19,19,19,19,19,19,19,19,19,19,19,19,19,19,
19,19,19,19,19,19,19,19,19,19,19,19,19,19,19,19,
19,19,19,19,19,19,19,19,19,19,19,19,19,19,19,19
</chunk>
   <chunk x="464" y="-48" width="16" height="16">
19,19,19,19,19,19,19,19,19,19,19,19,19,19,19,19,
19,19,19,19,19,19,19,19,19,19,19,19,19,19,19,19,
19,19,19,19,19,19,19,19,19,19,19,19,19,19,19,19,
19,19,19,19,19,19,19,19,19,19,19,19,19,19,19,19,
19,19,19,19,19,19,19,19,19,19,19,19,19,19,19,19,
19,19,19,19,19,19,19,19,19,19,19,19,19,19,19,19,
19,19,19,19,19,19,19,19,19,19,19,19,19,19,19,19,
19,19,19,19,19,19,19,19,19,19,19,19,19,19,19,19,
19,19,19,19,19,19,19,19,19,19,19,19,19,19,19,19,
19,19,19,19,19,19,19,19,19,19,19,19,19,19,19,19,
19,19,19,19,19,19,19,19,19,19,19,19,19,19,19,19,
19,19,19,19,19,19,19,19,19,19,19,19,19,19,19,19,
19,19,19,19,19,19,19,19,19,19,19,19,19,19,19,19,
19,19,19,19,19,19,19,19,19,19,19,19,19,19,19,19,
19,19,19,19,19,19,19,19,19,19,19,19,19,19,19,19,
19,19,19,19,19,19,19,19,19,19,19,19,19,19,19,19
</chunk>
   <chunk x="480" y="-48" width="16" height="16">
19,19,19,19,19,19,19,19,19,19,19,19,19,19,19,19,
19,19,19,19,19,19,19,19,19,19,19,19,19,19,19,19,
19,19,19,19,19,19,19,19,19,19,19,19,19,19,19,19,
19,19,19,19,19,19,19,19,19,19,19,19,19,19,19,19,
19,19,19,19,19,19,19,19,19,19,19,19,19,19,19,19,
19,19,19,19,19,19,19,19,19,19,19,19,19,19,19,19,
19,19,19,19,19,19,19,19,19,19,19,19,19,19,19,19,
19,19,19,19,19,19,19,19,19,19,19,19,19,19,19,19,
19,19,19,19,19,19,19,19,19,19,19,19,19,19,19,19,
19,19,19,19,19,19,19,19,19,19,19,19,19,19,19,19,
19,19,19,19,19,19,19,19,19,19,19,19,19,19,19,19,
19,19,19,19,19,19,19,19,19,19,19,19,19,19,19,19,
19,19,19,19,19,19,19,19,19,19,19,19,19,19,19,19,
19,19,19,19,19,19,19,19,19,19,19,19,19,19,19,19,
19,19,19,19,19,19,19,19,19,19,19,19,19,19,19,19,
19,19,19,19,19,19,19,19,19,19,19,19,19,19,19,19
</chunk>
   <chunk x="496" y="-48" width="16" height="16">
19,19,19,19,19,19,19,19,19,19,19,19,19,19,19,19,
19,19,19,19,19,19,19,19,19,19,19,19,19,19,19,19,
19,19,19,19,19,19,19,19,19,19,19,19,19,19,19,19,
19,19,19,19,19,19,19,19,19,19,19,19,19,19,19,19,
19,19,19,19,19,19,19,19,19,19,19,19,19,19,19,19,
19,19,19,19,19,19,19,19,19,19,19,19,19,19,19,19,
19,19,19,19,19,19,19,19,19,19,19,19,19,19,19,19,
19,19,19,19,19,19,19,19,19,19,19,19,19,19,19,19,
19,19,19,19,19,19,19,19,19,19,19,19,19,19,19,19,
19,19,19,19,19,19,19,19,19,19,19,19,19,19,19,19,
19,19,19,19,19,19,19,19,19,19,19,19,19,19,19,19,
19,19,19,19,19,19,19,19,19,19,19,19,19,19,19,19,
19,19,19,19,19,19,19,19,19,19,19,19,19,19,19,19,
19,19,19,19,19,19,19,19,19,19,19,19,19,19,19,19,
19,19,19,19,19,19,19,19,19,19,19,19,19,19,19,19,
19,19,19,19,19,19,19,19,19,19,19,19,19,19,19,19
</chunk>
   <chunk x="512" y="-48" width="16" height="16">
19,19,19,19,19,19,19,19,19,19,19,0,0,0,0,0,
19,19,19,19,19,19,19,19,19,19,19,0,0,0,0,0,
19,19,19,19,19,19,19,19,19,19,19,0,0,0,0,0,
19,19,19,19,19,19,19,19,19,19,19,0,0,0,0,0,
19,19,19,19,19,19,19,19,19,19,19,0,0,0,0,0,
19,19,19,19,19,19,19,19,19,19,19,0,0,0,0,0,
19,19,19,19,19,19,19,19,19,19,19,0,0,0,0,0,
19,19,19,19,19,19,19,19,19,19,19,0,0,0,0,0,
19,19,19,19,19,19,19,19,19,19,19,0,0,0,0,0,
19,19,19,19,19,19,19,19,19,19,19,0,0,0,0,0,
19,19,19,19,19,19,19,19,19,19,19,0,0,0,0,0,
19,19,19,19,19,19,19,19,19,19,19,0,0,0,0,0,
19,19,19,19,19,19,19,19,19,19,19,0,0,0,0,0,
19,19,19,19,19,19,19,19,19,19,19,0,0,0,0,0,
19,19,19,19,19,19,19,19,19,19,19,0,0,0,0,0,
19,19,19,19,19,19,19,19,19,19,19,0,0,0,0,0
</chunk>
   <chunk x="-32" y="-32" width="16" height="16">
0,0,0,0,0,0,0,0,0,0,0,0,0,0,0,19,
0,0,0,0,0,0,0,0,0,0,0,0,0,0,0,19,
0,0,0,0,0,0,0,0,0,0,0,0,0,0,0,19,
0,0,0,0,0,0,0,0,0,0,0,0,0,0,0,19,
0,0,0,0,0,0,0,0,0,0,0,0,0,0,0,19,
0,0,0,0,0,0,0,0,0,0,0,0,0,0,0,19,
0,0,0,0,0,0,0,0,0,0,0,0,0,0,0,19,
0,0,0,0,0,0,0,0,0,0,0,0,0,0,0,19,
0,0,0,0,0,0,0,0,0,0,0,0,0,0,0,19,
0,0,0,0,0,0,0,0,0,0,0,0,0,0,0,19,
0,0,0,0,0,0,0,0,0,0,0,0,0,0,0,19,
0,0,0,0,0,0,0,0,0,0,0,0,0,0,0,19,
0,0,0,0,0,0,0,0,0,0,0,0,0,0,0,19,
0,0,0,0,0,0,0,0,0,0,0,0,0,0,0,19,
0,0,0,0,0,0,0,0,0,0,0,0,0,0,0,19,
0,0,0,0,0,0,0,0,0,0,0,0,0,0,0,19
</chunk>
   <chunk x="-16" y="-32" width="16" height="16">
19,19,19,19,19,19,19,19,19,19,19,19,19,19,19,19,
19,19,19,19,19,19,19,19,19,19,19,19,19,19,19,19,
19,19,19,19,19,19,19,19,19,19,19,19,19,19,19,19,
19,19,19,19,19,19,19,19,19,19,19,19,19,19,19,19,
19,19,19,19,19,19,19,19,19,19,19,19,19,19,19,19,
19,19,19,19,19,19,19,19,19,19,19,19,19,19,19,19,
19,19,19,19,19,19,19,19,19,19,19,19,19,19,19,19,
19,19,19,19,19,19,19,19,19,19,19,19,19,19,19,19,
19,19,19,19,19,19,19,19,19,19,19,19,19,19,19,19,
19,19,19,19,19,19,19,19,19,19,19,19,19,19,19,19,
19,19,19,19,19,19,19,19,19,19,19,19,19,19,19,19,
19,19,19,19,19,19,19,19,19,19,19,19,19,19,19,19,
19,19,19,19,19,19,19,19,19,19,19,19,19,19,19,19,
19,19,19,19,19,19,19,19,19,19,19,19,19,19,19,19,
19,19,19,19,19,19,19,19,19,19,19,19,19,19,19,19,
19,19,19,19,19,19,19,19,19,19,19,19,19,19,19,19
</chunk>
   <chunk x="0" y="-32" width="16" height="16">
19,19,19,19,19,19,19,19,19,19,19,19,19,19,19,19,
19,19,19,19,19,19,19,19,19,19,19,19,19,19,19,19,
19,19,19,19,19,19,19,19,19,19,19,19,19,19,19,19,
19,19,19,19,19,19,19,19,19,19,19,19,19,19,19,19,
19,19,19,19,19,19,19,19,19,19,19,19,19,19,19,19,
19,19,19,19,19,19,19,19,19,19,19,19,19,19,19,19,
19,19,19,19,19,19,19,19,19,19,19,19,19,19,19,19,
19,19,19,19,19,19,19,19,19,19,19,19,19,19,19,19,
19,19,19,19,19,19,19,19,19,19,19,19,19,19,19,19,
19,19,19,19,19,19,19,19,19,19,19,19,19,19,19,19,
19,19,19,19,19,19,19,19,19,19,19,19,19,19,19,19,
19,19,19,19,19,19,19,19,19,19,19,19,19,19,19,19,
19,19,19,19,19,19,19,19,19,19,19,19,19,19,19,19,
19,19,19,19,19,19,19,19,19,19,19,19,19,19,19,19,
19,19,19,19,19,19,19,19,19,19,19,19,19,19,19,19,
19,19,19,19,19,19,19,19,19,19,19,19,19,19,19,19
</chunk>
   <chunk x="16" y="-32" width="16" height="16">
19,19,19,19,19,19,19,19,19,19,19,19,19,19,19,19,
19,19,19,19,19,19,19,19,19,19,19,19,19,19,19,19,
19,19,19,19,19,19,19,19,19,19,19,19,19,19,19,19,
19,19,19,19,19,19,19,19,19,19,19,19,19,19,19,19,
19,19,19,19,19,19,19,19,19,19,19,19,19,19,19,19,
19,19,19,19,19,19,19,19,19,19,19,19,19,19,19,19,
19,19,19,19,19,19,19,19,19,19,19,19,19,19,19,19,
19,19,19,19,19,19,19,19,19,19,19,19,19,19,19,19,
19,19,19,19,19,19,19,19,19,19,19,19,19,19,19,19,
19,19,19,19,19,19,19,19,19,19,19,19,19,19,19,19,
19,19,19,19,19,19,19,19,19,19,19,19,19,19,19,19,
19,19,19,19,19,19,19,19,19,19,19,19,19,19,19,19,
19,19,19,19,19,19,19,19,19,19,19,19,19,19,19,19,
19,19,19,19,19,19,19,19,19,19,19,19,19,19,19,19,
19,19,19,19,19,19,19,19,19,19,19,19,19,19,19,19,
19,19,19,19,19,19,19,19,19,19,19,19,19,19,19,19
</chunk>
   <chunk x="32" y="-32" width="16" height="16">
19,19,19,19,19,19,19,19,19,19,19,19,19,19,19,19,
19,19,19,19,19,19,19,19,19,19,19,19,19,19,19,19,
19,19,19,19,19,19,19,19,19,19,19,19,19,19,19,19,
19,19,19,19,19,19,19,19,19,19,19,19,19,19,19,19,
19,19,19,19,19,19,19,19,19,19,19,19,19,19,19,19,
19,19,19,19,19,19,19,19,19,19,19,19,19,19,19,19,
19,19,19,19,19,19,19,19,19,19,19,19,19,19,19,19,
19,19,19,19,19,19,19,19,19,19,19,19,19,19,19,19,
19,19,19,19,19,19,19,19,19,19,19,19,19,19,19,19,
19,19,19,19,19,19,19,19,19,19,19,19,19,19,19,19,
19,19,19,19,19,19,19,19,19,19,19,19,19,19,19,19,
19,19,19,19,19,19,19,19,19,19,19,19,19,19,19,19,
19,19,19,19,19,19,19,19,19,19,19,19,19,19,19,19,
19,19,19,19,19,19,19,19,19,19,19,19,19,19,19,19,
19,19,19,19,19,19,19,19,19,19,19,19,19,19,19,19,
19,19,19,19,19,19,19,19,19,19,19,19,19,19,19,19
</chunk>
   <chunk x="48" y="-32" width="16" height="16">
19,19,19,19,19,19,19,19,19,19,19,19,19,19,19,19,
19,19,19,19,19,19,19,19,19,19,19,19,19,19,19,19,
19,19,19,19,19,19,19,19,19,19,19,19,19,19,19,19,
19,19,19,19,19,19,19,19,19,19,19,19,19,19,19,19,
19,19,19,19,19,19,19,19,19,19,19,19,19,19,19,19,
19,19,19,19,19,19,19,19,19,19,19,19,19,19,19,19,
19,19,19,19,19,19,19,19,19,19,19,19,19,19,19,19,
19,19,19,19,19,19,19,19,19,19,19,19,19,19,19,19,
19,19,19,19,19,19,19,19,19,19,19,19,19,19,19,19,
19,19,19,19,19,19,19,19,19,19,19,19,19,19,19,19,
19,19,19,19,19,19,19,19,19,19,19,19,19,19,19,19,
19,19,19,19,19,19,19,19,19,19,19,19,19,19,19,19,
19,19,19,19,19,19,19,19,19,19,19,19,19,19,19,19,
19,19,19,19,19,19,19,19,19,19,19,19,19,19,19,19,
19,19,19,19,19,19,19,19,19,19,19,19,19,19,19,19,
19,19,19,19,19,19,19,19,19,19,19,19,19,19,19,19
</chunk>
   <chunk x="64" y="-32" width="16" height="16">
19,19,19,19,19,19,19,19,19,19,19,19,19,19,19,19,
19,19,19,19,19,19,19,19,19,19,19,19,19,19,19,19,
19,19,19,19,19,19,19,19,19,19,19,19,19,19,19,19,
19,19,19,19,19,19,19,19,19,19,19,19,19,19,19,19,
19,19,19,19,19,19,19,19,19,19,19,19,19,19,19,19,
19,19,19,19,19,19,19,19,19,19,19,19,19,19,19,19,
19,19,19,19,19,19,19,19,19,19,19,19,19,19,19,19,
19,19,19,19,19,19,19,19,19,19,19,19,19,19,19,19,
19,19,19,19,19,19,19,19,19,19,19,19,19,19,19,19,
19,19,19,19,19,19,19,19,19,19,19,19,19,19,19,19,
19,19,19,19,19,19,19,19,19,19,19,19,19,19,19,19,
19,19,19,19,19,19,19,19,19,19,19,19,19,19,19,19,
19,19,19,19,19,19,19,19,19,19,19,19,19,19,19,19,
19,19,19,19,19,19,19,19,19,19,19,19,19,19,19,19,
19,19,19,19,19,19,19,19,19,19,19,19,19,19,19,19,
19,19,19,19,19,19,19,19,19,19,19,19,19,19,19,19
</chunk>
   <chunk x="80" y="-32" width="16" height="16">
19,19,19,19,19,19,19,19,19,19,19,19,19,19,19,19,
19,19,19,19,19,19,19,19,19,19,19,19,19,19,19,19,
19,19,19,19,19,19,19,19,19,19,19,19,19,19,19,19,
19,19,19,19,19,19,19,19,19,19,19,19,19,19,19,19,
19,19,19,19,19,19,19,19,19,19,19,19,19,19,19,19,
19,19,19,19,19,19,19,19,19,19,19,19,19,19,19,19,
19,19,19,19,19,19,19,19,19,19,19,19,19,19,19,19,
19,19,19,19,19,19,19,19,19,19,19,19,19,19,19,19,
19,19,19,19,19,19,19,19,19,19,19,19,19,19,19,19,
19,19,19,19,19,19,19,19,19,19,19,19,19,19,19,19,
19,19,19,19,19,19,19,19,19,19,19,19,19,19,19,19,
19,19,19,19,19,19,19,19,19,19,19,19,19,19,19,19,
19,19,19,19,19,19,19,19,19,19,19,19,19,19,19,19,
19,19,19,19,19,19,19,19,19,19,19,19,19,19,19,19,
19,19,19,19,19,19,19,19,19,19,19,19,19,19,19,19,
19,19,19,19,19,19,19,19,19,19,19,19,19,19,19,19
</chunk>
   <chunk x="96" y="-32" width="16" height="16">
19,19,19,19,19,19,19,19,19,19,19,19,19,19,19,19,
19,19,19,19,19,19,19,19,19,19,19,19,19,19,19,19,
19,19,19,19,19,19,19,19,19,19,19,19,19,19,19,19,
19,19,19,19,19,19,19,19,19,19,19,19,19,19,19,19,
19,19,19,19,19,19,19,19,19,19,19,19,19,19,19,19,
19,19,19,19,19,19,19,19,19,19,19,19,19,19,19,19,
19,19,19,19,19,19,19,19,19,19,19,19,19,19,19,19,
19,19,19,19,19,19,19,19,19,19,19,19,19,19,19,19,
19,19,19,19,19,19,19,19,19,19,19,19,19,19,19,19,
19,19,19,19,19,19,19,19,19,19,19,19,19,19,19,19,
19,19,19,19,19,19,19,19,19,19,19,19,19,19,19,19,
19,19,19,19,19,19,19,19,19,19,19,19,19,19,19,19,
19,19,19,19,19,19,19,19,19,19,19,19,19,19,19,19,
19,19,19,19,19,19,19,19,19,19,19,19,19,19,19,19,
19,19,19,19,19,19,19,19,19,19,19,19,19,19,19,19,
19,19,19,19,19,19,19,19,19,19,19,19,19,19,19,19
</chunk>
   <chunk x="112" y="-32" width="16" height="16">
19,19,19,19,19,19,19,19,19,19,19,19,19,19,19,19,
19,19,19,19,19,19,19,19,19,19,19,19,19,19,19,19,
19,19,19,19,19,19,19,19,19,19,19,19,19,19,19,19,
19,19,19,19,19,19,19,19,19,19,19,19,19,19,19,19,
19,19,19,19,19,19,19,19,19,19,19,19,19,19,19,19,
19,19,19,19,19,19,19,19,19,19,19,19,19,19,19,19,
19,19,19,19,19,19,19,19,19,19,19,19,19,19,19,19,
19,19,19,19,19,19,19,19,19,19,19,19,19,19,19,19,
19,19,19,19,19,19,19,19,19,19,19,19,19,19,19,19,
19,19,19,19,19,19,19,19,19,19,19,19,19,19,19,19,
19,19,19,19,19,19,19,19,19,19,19,19,19,19,19,19,
19,19,19,19,19,19,19,19,19,19,19,19,19,19,19,19,
19,19,19,19,19,19,19,19,19,19,19,19,19,19,19,19,
19,19,19,19,19,19,19,19,19,19,19,19,19,19,19,19,
19,19,19,19,19,19,19,19,19,19,19,19,19,19,19,19,
19,19,19,19,19,19,19,19,19,19,19,19,19,19,19,19
</chunk>
   <chunk x="128" y="-32" width="16" height="16">
19,19,19,19,19,19,19,19,19,19,19,19,19,19,19,19,
19,19,19,19,19,19,19,19,19,19,19,19,19,19,19,19,
19,19,19,19,19,19,19,19,19,19,19,19,19,19,19,19,
19,19,19,19,19,19,19,19,19,19,19,19,19,19,19,19,
19,19,19,19,19,19,19,19,19,19,19,19,19,19,19,19,
19,19,19,19,19,19,19,19,19,19,19,19,19,19,19,19,
19,19,19,19,19,19,19,19,19,19,19,19,19,19,19,19,
19,19,19,19,19,19,19,19,19,19,19,19,19,19,19,19,
19,19,19,19,19,19,19,19,19,19,19,19,19,19,19,19,
19,19,19,19,19,19,19,19,19,19,19,19,19,19,19,19,
19,19,19,19,19,19,19,19,19,19,19,19,19,19,19,19,
19,19,19,19,19,19,19,19,19,19,19,19,19,19,19,19,
19,19,19,19,19,19,19,19,19,19,19,19,19,19,19,19,
19,19,19,19,19,19,19,19,19,19,19,19,19,19,19,19,
19,19,19,19,19,19,19,19,19,19,19,19,19,19,19,19,
19,19,19,19,19,19,19,19,19,19,19,19,19,19,19,19
</chunk>
   <chunk x="144" y="-32" width="16" height="16">
19,19,19,19,19,19,19,19,19,19,19,19,19,19,19,19,
19,19,19,19,19,19,19,19,19,19,19,19,19,19,19,19,
19,19,19,19,19,19,19,19,19,19,19,19,19,19,19,19,
19,19,19,19,19,19,19,19,19,19,19,19,19,19,19,19,
19,19,19,19,19,19,19,19,19,19,19,19,19,19,19,19,
19,19,19,19,19,19,19,19,19,19,19,19,19,19,19,19,
19,19,19,19,19,19,19,19,19,19,19,19,19,19,19,19,
19,19,19,19,19,19,19,19,19,19,19,19,19,19,19,19,
19,19,19,19,19,19,19,19,19,19,19,19,19,19,19,19,
19,19,19,19,19,19,19,19,19,19,19,19,19,19,19,19,
19,19,19,19,19,19,19,19,19,19,19,19,19,19,19,19,
19,19,19,19,19,19,19,19,19,19,19,19,19,19,19,19,
19,19,19,19,19,19,19,19,19,19,19,19,19,19,19,19,
19,19,19,19,19,19,19,19,19,19,19,19,19,19,19,19,
19,19,19,19,19,19,19,19,19,19,19,19,19,19,19,19,
19,19,19,19,19,19,19,19,19,19,19,19,19,19,19,19
</chunk>
   <chunk x="160" y="-32" width="16" height="16">
19,19,19,19,19,19,19,19,19,19,19,19,19,19,19,19,
19,19,19,19,19,19,19,19,19,19,19,19,19,19,19,19,
19,19,19,19,19,19,19,19,19,19,19,19,19,19,19,19,
19,19,19,19,19,19,19,19,19,19,19,19,19,19,19,19,
19,19,19,19,19,19,19,19,19,19,19,19,19,19,19,19,
19,19,19,19,19,19,19,19,19,19,19,19,19,19,19,19,
19,19,19,19,19,19,19,19,19,19,19,19,19,19,19,19,
19,19,19,19,19,19,19,19,19,19,19,19,19,19,19,19,
19,19,19,19,19,19,19,19,19,19,19,19,19,19,19,19,
19,19,19,19,19,19,19,19,19,19,19,19,19,19,19,19,
19,19,19,19,19,19,19,19,19,19,19,19,19,19,19,19,
19,19,19,19,19,19,19,19,19,19,19,19,19,19,19,19,
19,19,19,19,19,19,19,19,19,19,19,19,19,19,19,19,
19,19,19,19,19,19,19,19,19,19,19,19,19,19,19,19,
19,19,19,19,19,19,19,19,19,19,19,19,19,19,19,19,
19,19,19,19,19,19,19,19,19,19,19,19,19,19,19,19
</chunk>
   <chunk x="176" y="-32" width="16" height="16">
19,19,19,19,19,19,19,19,19,19,19,19,19,19,19,19,
19,19,19,19,19,19,19,19,19,19,19,19,19,19,19,19,
19,19,19,19,19,19,19,19,19,19,19,19,19,19,19,19,
19,19,19,19,19,19,19,19,19,19,19,19,19,19,19,19,
19,19,19,19,19,19,19,19,19,19,19,19,19,19,19,19,
19,19,19,19,19,19,19,19,19,19,19,19,19,19,19,19,
19,19,19,19,19,19,19,19,19,19,19,19,19,19,19,19,
19,19,19,19,19,19,19,19,19,19,19,19,19,19,19,19,
19,19,19,19,19,19,19,19,19,19,19,19,19,19,19,19,
19,19,19,19,19,19,19,19,19,19,19,19,19,19,19,19,
19,19,19,19,19,19,19,19,19,19,19,19,19,19,19,19,
19,19,19,19,19,19,19,19,19,19,19,19,19,19,19,19,
19,19,19,19,19,19,19,19,19,19,19,19,19,19,19,19,
19,19,19,19,19,19,19,19,19,19,19,19,19,19,19,19,
19,19,19,19,19,19,19,19,19,19,19,19,19,19,19,19,
19,19,19,19,19,19,19,19,19,19,19,19,19,19,19,19
</chunk>
   <chunk x="192" y="-32" width="16" height="16">
19,19,19,19,19,19,19,19,19,19,19,19,19,19,19,19,
19,19,19,19,19,19,19,19,19,19,19,19,19,19,19,19,
19,19,19,19,19,19,19,19,19,19,19,19,19,19,19,19,
19,19,19,19,19,19,19,19,19,19,19,19,19,19,19,19,
19,19,19,19,19,19,19,19,19,19,19,19,19,19,19,19,
19,19,19,19,19,19,19,19,19,19,19,19,19,19,19,19,
19,19,19,19,19,19,19,19,19,19,19,19,19,19,19,19,
19,19,19,19,19,19,19,19,19,19,19,19,19,19,19,19,
19,19,19,19,19,19,19,19,19,19,19,19,19,19,19,19,
19,19,19,19,19,19,19,19,19,19,19,19,19,19,19,19,
19,19,19,19,19,19,19,19,19,19,19,19,19,19,19,19,
19,19,19,19,19,19,19,19,19,19,19,19,19,19,19,19,
19,19,19,19,19,19,19,19,19,19,19,19,19,19,19,19,
19,19,19,19,19,19,19,19,19,19,19,19,19,19,19,19,
19,19,19,19,19,19,19,19,19,19,19,19,19,19,19,19,
19,19,19,19,19,19,19,19,19,19,19,19,19,19,19,19
</chunk>
   <chunk x="208" y="-32" width="16" height="16">
19,19,19,19,19,19,19,19,19,19,19,19,19,19,19,19,
19,19,19,19,19,19,19,19,19,19,19,19,19,19,19,19,
19,19,19,19,19,19,19,19,19,19,19,19,19,19,19,19,
19,19,19,19,19,19,19,19,19,19,19,19,19,19,19,19,
19,19,19,19,19,19,19,19,19,19,19,19,19,19,19,19,
19,19,19,19,19,19,19,19,19,19,19,19,19,19,19,19,
19,19,19,19,19,19,19,19,19,19,19,19,19,19,19,19,
19,19,19,19,19,19,19,19,19,19,19,19,19,19,19,19,
19,19,19,19,19,19,19,19,19,19,19,19,19,19,19,19,
19,19,19,19,19,19,19,19,19,19,19,19,19,19,19,19,
19,19,19,19,19,19,19,19,19,19,19,19,19,19,19,19,
19,19,19,19,19,19,19,19,19,19,19,19,19,19,19,19,
19,19,19,19,19,19,19,19,19,19,19,19,19,19,19,19,
19,19,19,19,19,19,19,19,19,19,19,19,19,19,19,19,
19,19,19,19,19,19,19,19,19,19,19,19,19,19,19,19,
19,19,19,19,19,19,19,19,19,19,19,19,19,19,19,19
</chunk>
   <chunk x="224" y="-32" width="16" height="16">
19,19,19,19,19,19,19,19,19,19,19,19,19,19,19,19,
19,19,19,19,19,19,19,19,19,19,19,19,19,19,19,19,
19,19,19,19,19,19,19,19,19,19,19,19,19,19,19,19,
19,19,19,19,19,19,19,19,19,19,19,19,19,19,19,19,
19,19,19,19,19,19,19,19,19,19,19,19,19,19,19,19,
19,19,19,19,19,19,19,19,19,19,19,19,19,19,19,19,
19,19,19,19,19,19,19,19,19,19,19,19,19,19,19,19,
19,19,19,19,19,19,19,19,19,19,19,19,19,19,19,19,
19,19,19,19,19,19,19,19,19,19,19,19,19,19,19,19,
19,19,19,19,19,19,19,19,19,19,19,19,19,19,19,19,
19,19,19,19,19,19,19,19,19,19,19,19,19,19,19,19,
19,19,19,19,19,19,19,19,19,19,19,19,19,19,19,19,
19,19,19,19,19,19,19,19,19,19,19,19,19,19,19,19,
19,19,19,19,19,19,19,19,19,19,19,19,19,19,19,19,
19,19,19,19,19,19,19,19,19,19,19,19,19,19,19,19,
19,19,19,19,19,19,19,19,19,19,19,19,19,19,19,19
</chunk>
   <chunk x="240" y="-32" width="16" height="16">
19,19,19,19,19,19,19,19,19,19,19,19,19,19,19,19,
19,19,19,19,19,19,19,19,19,19,19,19,19,19,19,19,
19,19,19,19,19,19,19,19,19,19,19,19,19,19,19,19,
19,19,19,19,19,19,19,19,19,19,19,19,19,19,19,19,
19,19,19,19,19,19,19,19,19,19,19,19,19,19,19,19,
19,19,19,19,19,19,19,19,19,19,19,19,19,19,19,19,
19,19,19,19,19,19,19,19,19,19,19,19,19,19,19,19,
19,19,19,19,19,19,19,19,19,19,19,19,19,19,19,19,
19,19,19,19,19,19,19,19,19,19,19,19,19,19,19,19,
19,19,19,19,19,19,19,19,19,19,19,19,19,19,19,19,
19,19,19,19,19,19,19,19,19,19,19,19,19,19,19,19,
19,19,19,19,19,19,19,19,19,19,19,19,19,19,19,19,
19,19,19,19,19,19,19,19,19,19,19,19,19,19,19,19,
19,19,19,19,19,19,19,19,19,19,19,19,19,19,19,19,
19,19,19,19,19,19,19,19,19,19,19,19,19,19,19,19,
19,19,19,19,19,19,19,19,19,19,19,19,19,19,19,19
</chunk>
   <chunk x="256" y="-32" width="16" height="16">
19,19,19,19,19,19,19,19,19,19,19,19,19,19,19,19,
19,19,19,19,19,19,19,19,19,19,19,19,19,19,19,19,
19,19,19,19,19,19,19,19,19,19,19,19,19,19,19,19,
19,19,19,19,19,19,19,19,19,19,19,19,19,19,19,19,
19,19,19,19,19,19,19,19,19,19,19,19,19,19,19,19,
19,19,19,19,19,19,19,19,19,19,19,19,19,19,19,19,
19,19,19,19,19,19,19,19,19,19,19,19,19,19,19,19,
19,19,19,19,19,19,19,19,19,19,19,19,19,19,19,19,
19,19,19,19,19,19,19,19,19,19,19,19,19,19,19,19,
19,19,19,19,19,19,19,19,19,19,19,19,19,19,19,19,
19,19,19,19,19,19,19,19,19,19,19,19,19,19,19,19,
19,19,19,19,19,19,19,19,19,19,19,19,19,19,19,19,
19,19,19,19,19,19,19,19,19,19,19,19,19,19,19,19,
19,19,19,19,19,19,19,19,19,19,19,19,19,19,19,19,
19,19,19,19,19,19,19,19,19,19,19,19,19,19,19,19,
19,19,19,19,19,19,19,19,19,19,19,19,19,19,19,19
</chunk>
   <chunk x="272" y="-32" width="16" height="16">
19,19,19,19,19,19,19,19,19,19,19,19,19,19,19,19,
19,19,19,19,19,19,19,19,19,19,19,19,19,19,19,19,
19,19,19,19,19,19,19,19,19,19,19,19,19,19,19,19,
19,19,19,19,19,19,19,19,19,19,19,19,19,19,19,19,
19,19,19,19,19,19,19,19,19,19,19,19,19,19,19,19,
19,19,19,19,19,19,19,19,19,19,19,19,19,19,19,19,
19,19,19,19,19,19,19,19,19,19,19,19,19,19,19,19,
19,19,19,19,19,19,19,19,19,19,19,19,19,19,19,19,
19,19,19,19,19,19,19,19,19,19,19,19,19,19,19,19,
19,19,19,19,19,19,19,19,19,19,19,19,19,19,19,19,
19,19,19,19,19,19,19,19,19,19,19,19,19,19,19,19,
19,19,19,19,19,19,19,19,19,19,19,19,19,19,19,19,
19,19,19,19,19,19,19,19,19,19,19,19,19,19,19,19,
19,19,19,19,19,19,19,19,19,19,19,19,19,19,19,19,
19,19,19,19,19,19,19,19,19,19,19,19,19,19,19,19,
19,19,19,19,19,19,19,19,19,19,19,19,19,19,19,19
</chunk>
   <chunk x="288" y="-32" width="16" height="16">
19,19,19,19,19,19,19,19,19,19,19,19,19,19,19,19,
19,19,19,19,19,19,19,19,19,19,19,19,19,19,19,19,
19,19,19,19,19,19,19,19,19,19,19,19,19,19,19,19,
19,19,19,19,19,19,19,19,19,19,19,19,19,19,19,19,
19,19,19,19,19,19,19,19,19,19,19,19,19,19,19,19,
19,19,19,19,19,19,19,19,19,19,19,19,19,19,19,19,
19,19,19,19,19,19,19,19,19,19,19,19,19,19,19,19,
19,19,19,19,19,19,19,19,19,19,19,19,19,19,19,19,
19,19,19,19,19,19,19,19,19,19,19,19,19,19,19,19,
19,19,19,19,19,19,19,19,19,19,19,19,19,19,19,19,
19,19,19,19,19,19,19,19,19,19,19,19,19,19,19,19,
19,19,19,19,19,19,19,19,19,19,19,19,19,19,19,19,
19,19,19,19,19,19,19,19,19,19,19,19,19,19,19,19,
19,19,19,19,19,19,19,19,19,19,19,19,19,19,19,19,
19,19,19,19,19,19,19,19,19,19,19,19,19,19,19,19,
19,19,19,19,19,19,19,19,19,19,19,19,19,19,19,19
</chunk>
   <chunk x="304" y="-32" width="16" height="16">
19,19,19,19,19,19,19,19,19,19,19,19,19,19,19,19,
19,19,19,19,19,19,19,19,19,19,19,19,19,19,19,19,
19,19,19,19,19,19,19,19,19,19,19,19,19,19,19,19,
19,19,19,19,19,19,19,19,19,19,19,19,19,19,19,19,
19,19,19,19,19,19,19,19,19,19,19,19,19,19,19,19,
19,19,19,19,19,19,19,19,19,19,19,19,19,19,19,19,
19,19,19,19,19,19,19,19,19,19,19,19,19,19,19,19,
19,19,19,19,19,19,19,19,19,19,19,19,19,19,19,19,
19,19,19,19,19,19,19,19,19,19,19,19,19,19,19,19,
19,19,19,19,19,19,19,19,19,19,19,19,19,19,19,19,
19,19,19,19,19,19,19,19,19,19,19,19,19,19,19,19,
19,19,19,19,19,19,19,19,19,19,19,19,19,19,19,19,
19,19,19,19,19,19,19,19,19,19,19,19,19,19,19,19,
19,19,19,19,19,19,19,19,19,19,19,19,19,19,19,19,
19,19,19,19,19,19,19,19,19,19,19,19,19,19,19,0,
19,19,19,19,19,19,19,19,19,19,19,19,19,19,19,0
</chunk>
   <chunk x="320" y="-32" width="16" height="16">
19,19,19,19,19,19,19,19,19,19,19,19,19,19,19,19,
19,19,19,19,19,19,19,19,19,19,19,19,19,19,19,19,
19,19,19,19,19,19,19,19,19,19,19,19,19,19,19,19,
19,19,19,19,19,19,19,19,19,19,19,19,19,19,19,19,
19,19,19,19,19,19,19,19,19,19,19,19,19,19,19,19,
19,19,19,19,19,19,19,19,19,19,19,19,19,19,19,19,
19,19,19,19,19,19,19,19,19,19,19,19,19,19,19,19,
19,19,19,19,19,19,19,19,19,19,19,19,19,19,19,19,
19,19,19,19,19,19,19,19,19,19,19,19,19,19,19,19,
19,19,19,19,19,19,19,19,19,19,19,19,19,19,19,19,
19,19,19,19,19,19,19,19,19,19,19,19,19,19,19,19,
19,19,19,19,19,19,19,19,19,19,19,19,19,19,19,19,
19,19,19,19,19,19,19,19,19,19,19,19,19,19,19,19,
19,19,19,19,19,19,19,19,19,19,19,19,19,19,19,19,
0,0,0,0,0,0,0,0,0,0,0,0,0,0,0,0,
0,0,0,0,0,0,0,0,0,0,0,0,0,0,0,0
</chunk>
   <chunk x="336" y="-32" width="16" height="16">
19,19,19,19,19,19,19,19,19,19,19,19,19,19,19,19,
19,19,19,19,19,19,19,19,19,19,19,19,19,19,19,19,
19,19,19,19,19,19,19,19,19,19,19,19,19,19,19,19,
19,19,19,19,19,19,19,19,19,19,19,19,19,19,19,19,
19,19,19,19,19,19,19,19,19,19,19,19,19,19,19,19,
19,19,19,19,19,19,19,19,19,19,19,19,19,19,19,19,
19,19,19,19,19,19,19,19,19,19,19,19,19,19,19,19,
19,19,19,19,19,19,19,19,19,19,19,19,19,19,19,19,
19,19,19,19,19,19,19,19,19,19,19,19,19,19,19,19,
19,19,19,19,19,19,19,19,19,19,19,19,19,19,19,19,
19,19,19,19,19,19,19,19,19,19,19,19,19,19,19,19,
19,19,19,19,19,19,19,19,19,19,19,19,19,19,19,19,
19,19,19,19,19,19,19,19,19,19,19,19,19,19,19,19,
19,19,19,19,19,19,19,19,19,19,19,19,19,19,19,19,
0,0,0,0,0,0,0,0,0,0,0,0,0,0,0,0,
0,0,0,0,0,0,0,0,0,0,0,0,0,0,0,0
</chunk>
   <chunk x="352" y="-32" width="16" height="16">
19,19,19,19,19,19,19,19,19,19,19,19,19,19,19,19,
19,19,19,19,19,19,19,19,19,19,19,19,19,19,19,19,
19,19,19,19,19,19,19,19,19,19,19,19,19,19,19,19,
19,19,19,19,19,19,19,19,19,19,19,19,19,19,19,19,
19,19,19,19,19,19,19,19,19,19,19,19,19,19,19,19,
19,19,19,19,19,19,19,19,19,19,19,19,19,19,19,19,
19,19,19,19,19,19,19,19,19,19,19,19,19,19,19,19,
19,19,19,19,19,19,19,19,19,19,19,19,19,19,19,19,
19,19,19,19,19,19,19,19,19,19,19,19,19,19,19,19,
19,19,19,19,19,19,19,19,19,19,19,19,19,19,19,19,
19,19,19,19,19,19,19,19,19,19,19,19,19,19,19,19,
19,19,19,19,19,19,19,19,19,19,19,19,19,19,19,19,
19,19,19,19,19,19,19,19,19,19,19,19,19,19,19,19,
19,19,19,19,19,19,19,19,19,19,19,19,19,19,19,19,
0,0,0,0,0,0,0,0,0,0,0,0,0,0,0,0,
0,0,0,0,0,0,0,0,0,0,0,0,0,0,0,0
</chunk>
   <chunk x="368" y="-32" width="16" height="16">
19,19,19,19,19,19,19,19,19,19,19,19,19,19,19,19,
19,19,19,19,19,19,19,19,19,19,19,19,19,19,19,19,
19,19,19,19,19,19,19,19,19,19,19,19,19,19,19,19,
19,19,19,19,19,19,19,19,19,19,19,19,19,19,19,19,
19,19,19,19,19,19,19,19,19,19,19,19,19,19,19,19,
19,19,19,19,19,19,19,19,19,19,19,19,19,19,19,19,
19,19,19,19,19,19,19,19,19,19,19,19,19,19,19,19,
19,19,19,19,19,19,19,19,19,19,19,19,19,19,19,19,
19,19,19,19,19,19,19,19,19,19,19,19,19,19,19,19,
19,19,19,19,19,19,19,19,19,19,19,19,19,19,19,19,
19,19,19,19,19,19,19,19,19,19,19,19,19,19,19,19,
19,19,19,19,19,19,19,19,19,19,19,19,19,19,19,19,
19,19,19,19,19,19,19,19,19,19,19,19,19,19,19,19,
19,19,19,19,19,19,19,19,19,19,19,19,19,19,19,19,
0,0,0,0,0,0,0,0,0,0,0,0,0,0,0,0,
0,0,0,0,0,0,0,0,0,0,0,0,0,0,0,0
</chunk>
   <chunk x="384" y="-32" width="16" height="16">
19,19,19,19,19,19,19,19,19,19,19,19,19,19,19,19,
19,19,19,19,19,19,19,19,19,19,19,19,19,19,19,19,
19,19,19,19,19,19,19,19,19,19,19,19,19,19,19,19,
19,19,19,19,19,19,19,19,19,19,19,19,19,19,19,19,
19,19,19,19,19,19,19,19,19,19,19,19,19,19,19,19,
19,19,19,19,19,19,19,19,19,19,19,19,19,19,19,19,
19,19,19,19,19,19,19,19,19,19,19,19,19,19,19,19,
19,19,19,19,19,19,19,19,19,19,19,19,19,19,19,19,
19,19,19,19,19,19,19,19,19,19,19,19,19,19,19,19,
19,19,19,19,19,19,19,19,19,19,19,19,19,19,19,19,
19,19,19,19,19,19,19,19,19,19,19,19,19,19,19,19,
19,19,19,19,19,19,19,19,19,19,19,19,19,19,19,19,
19,19,19,19,19,19,19,19,19,19,19,19,19,19,19,19,
19,19,19,19,19,19,19,19,19,19,19,19,19,19,19,19,
0,0,0,0,0,0,0,0,0,0,0,0,0,0,0,0,
0,0,0,0,0,0,0,0,0,0,0,0,0,0,0,0
</chunk>
   <chunk x="400" y="-32" width="16" height="16">
19,19,19,19,19,19,19,19,19,19,19,19,19,19,19,19,
19,19,19,19,19,19,19,19,19,19,19,19,19,19,19,19,
19,19,19,19,19,19,19,19,19,19,19,19,19,19,19,19,
19,19,19,19,19,19,19,19,19,19,19,19,19,19,19,19,
19,19,19,19,19,19,19,19,19,19,19,19,19,19,19,19,
19,19,19,19,19,19,19,19,19,19,19,19,19,19,19,19,
19,19,19,19,19,19,19,19,19,19,19,19,19,19,19,19,
19,19,19,19,19,19,19,19,19,19,19,19,19,19,19,19,
19,19,19,19,19,19,19,19,19,19,19,19,19,19,19,19,
19,19,19,19,19,19,19,19,19,19,19,19,19,19,19,19,
19,19,19,19,19,19,19,19,19,19,19,19,19,19,19,19,
19,19,19,19,19,19,19,19,19,19,19,19,19,19,19,19,
19,19,19,19,19,19,19,19,19,19,19,19,19,19,19,19,
19,19,19,19,19,19,19,19,19,19,19,19,19,19,19,19,
0,0,0,0,0,0,0,0,0,0,0,0,0,0,0,0,
0,0,0,0,0,0,0,0,0,0,0,0,0,0,0,0
</chunk>
   <chunk x="416" y="-32" width="16" height="16">
19,19,19,19,19,19,19,19,19,19,19,19,19,19,19,19,
19,19,19,19,19,19,19,19,19,19,19,19,19,19,19,19,
19,19,19,19,19,19,19,19,19,19,19,19,19,19,19,19,
19,19,19,19,19,19,19,19,19,19,19,19,19,19,19,19,
19,19,19,19,19,19,19,19,19,19,19,19,19,19,19,19,
19,19,19,19,19,19,19,19,19,19,19,19,19,19,19,19,
19,19,19,19,19,19,19,19,19,19,19,19,19,19,19,19,
19,19,19,19,19,19,19,19,19,19,19,19,19,19,19,19,
19,19,19,19,19,19,19,19,19,19,19,19,19,19,19,19,
19,19,19,19,19,19,19,19,19,19,19,19,19,19,19,19,
19,19,19,19,19,19,19,19,19,19,19,19,19,19,19,19,
19,19,19,19,19,19,19,19,19,19,19,19,19,19,19,19,
19,19,19,19,19,19,19,19,19,19,19,19,19,19,19,19,
19,19,19,19,19,19,19,19,19,19,19,19,19,19,19,19,
0,0,0,0,0,0,0,0,0,0,0,0,0,0,0,0,
0,0,0,0,0,0,0,0,0,0,0,0,0,0,0,0
</chunk>
   <chunk x="432" y="-32" width="16" height="16">
19,19,19,19,19,19,19,19,19,19,19,19,19,19,19,19,
19,19,19,19,19,19,19,19,19,19,19,19,19,19,19,19,
19,19,19,19,19,19,19,19,19,19,19,19,19,19,19,19,
19,19,19,19,19,19,19,19,19,19,19,19,19,19,19,19,
19,19,19,19,19,19,19,19,19,19,19,19,19,19,19,19,
19,19,19,19,19,19,19,19,19,19,19,19,19,19,19,19,
19,19,19,19,19,19,19,19,19,19,19,19,19,19,19,19,
19,19,19,19,19,19,19,19,19,19,19,19,19,19,19,19,
19,19,19,19,19,19,19,19,19,19,19,19,19,19,19,19,
19,19,19,19,19,19,19,19,19,19,19,19,19,19,19,19,
19,19,19,19,19,19,19,19,19,19,19,19,19,19,19,19,
19,19,19,19,19,19,19,19,19,19,19,19,19,19,19,19,
19,19,19,19,19,19,19,19,19,19,19,19,19,19,19,19,
19,19,19,19,19,19,19,19,19,19,19,19,19,19,19,19,
0,0,0,0,0,0,0,0,0,0,0,0,0,0,0,0,
0,0,0,0,0,0,0,0,0,0,0,0,0,0,0,0
</chunk>
   <chunk x="448" y="-32" width="16" height="16">
19,19,19,19,19,19,19,19,19,19,19,19,19,19,19,19,
19,19,19,19,19,19,19,19,19,19,19,19,19,19,19,19,
19,19,19,19,19,19,19,19,19,19,19,19,19,19,19,19,
19,19,19,19,19,19,19,19,19,19,19,19,19,19,19,19,
19,19,19,19,19,19,19,19,19,19,19,19,19,19,19,19,
19,19,19,19,19,19,19,19,19,19,19,19,19,19,19,19,
19,19,19,19,19,19,19,19,19,19,19,19,19,19,19,19,
19,19,19,19,19,19,19,19,19,19,19,19,19,19,19,19,
19,19,19,19,19,19,19,19,19,19,19,19,19,19,19,19,
19,19,19,19,19,19,19,19,19,19,19,19,19,19,19,19,
19,19,19,19,19,19,19,19,19,19,19,19,19,19,19,19,
19,19,19,19,19,19,19,19,19,19,19,19,19,19,19,19,
19,19,19,19,19,19,19,19,19,19,19,19,19,19,19,19,
19,19,19,19,19,19,19,19,19,19,19,19,19,19,19,19,
0,0,0,0,0,0,0,0,0,0,0,0,0,0,0,0,
0,0,0,0,0,0,0,0,0,0,0,0,0,0,0,0
</chunk>
   <chunk x="464" y="-32" width="16" height="16">
19,19,19,19,19,19,19,19,19,19,19,19,19,19,19,19,
19,19,19,19,19,19,19,19,19,19,19,19,19,19,19,19,
19,19,19,19,19,19,19,19,19,19,19,19,19,19,19,19,
19,19,19,19,19,19,19,19,19,19,19,19,19,19,19,19,
19,19,19,19,19,19,19,19,19,19,19,19,19,19,19,19,
19,19,19,19,19,19,19,19,19,19,19,19,19,19,19,19,
19,19,19,19,19,19,19,19,19,19,19,19,19,19,19,19,
19,19,19,19,19,19,19,19,19,19,19,19,19,19,19,19,
19,19,19,19,19,19,19,19,19,19,19,19,19,19,19,19,
19,19,19,19,19,19,19,19,19,19,19,19,19,19,19,19,
19,19,19,19,19,19,19,19,19,19,19,19,19,19,19,19,
19,19,19,19,19,19,19,19,19,19,19,19,19,19,19,19,
19,19,19,19,19,19,19,19,19,19,19,19,19,19,19,19,
19,19,19,19,19,19,19,19,19,19,19,19,19,19,19,19,
0,0,0,0,0,0,0,0,0,0,0,0,0,0,0,0,
0,0,0,0,0,0,0,0,0,0,0,0,0,0,0,0
</chunk>
   <chunk x="480" y="-32" width="16" height="16">
19,19,19,19,19,19,19,19,19,19,19,19,19,19,19,19,
19,19,19,19,19,19,19,19,19,19,19,19,19,19,19,19,
19,19,19,19,19,19,19,19,19,19,19,19,19,19,19,19,
19,19,19,19,19,19,19,19,19,19,19,19,19,19,19,19,
19,19,19,19,19,19,19,19,19,19,19,19,19,19,19,19,
19,19,19,19,19,19,19,19,19,19,19,19,19,19,19,19,
19,19,19,19,19,19,19,19,19,19,19,19,19,19,19,19,
19,19,19,19,19,19,19,19,19,19,19,19,19,19,19,19,
19,19,19,19,19,19,19,19,19,19,19,19,19,19,19,19,
19,19,19,19,19,19,19,19,19,19,19,19,19,19,19,19,
19,19,19,19,19,19,19,19,19,19,19,19,19,19,19,19,
19,19,19,19,19,19,19,19,19,19,19,19,19,19,19,19,
19,19,19,19,19,19,19,19,19,19,19,19,19,19,19,19,
19,19,19,19,19,19,19,19,19,19,19,19,19,19,19,19,
0,0,0,0,0,0,0,0,0,0,0,0,0,0,0,0,
0,0,0,0,0,0,0,0,0,0,0,0,0,0,0,0
</chunk>
   <chunk x="496" y="-32" width="16" height="16">
19,19,19,19,19,19,19,19,19,19,19,19,19,19,19,19,
19,19,19,19,19,19,19,19,19,19,19,19,19,19,19,19,
19,19,19,19,19,19,19,19,19,19,19,19,19,19,19,19,
19,19,19,19,19,19,19,19,19,19,19,19,19,19,19,19,
19,19,19,19,19,19,19,19,19,19,19,19,19,19,19,19,
19,19,19,19,19,19,19,19,19,19,19,19,19,19,19,19,
19,19,19,19,19,19,19,19,19,19,19,19,19,19,19,19,
19,19,19,19,19,19,19,19,19,19,19,19,19,19,19,19,
19,19,19,19,19,19,19,19,19,19,19,19,19,19,19,19,
19,19,19,19,19,19,19,19,19,19,19,19,19,19,19,19,
19,19,19,19,19,19,19,19,19,19,19,19,19,19,19,19,
19,19,19,19,19,19,19,19,19,19,19,19,19,19,19,19,
19,19,19,19,19,19,19,19,19,19,19,19,19,19,19,19,
19,19,19,19,19,19,19,19,19,19,19,19,19,19,19,19,
0,0,0,0,0,0,0,0,0,0,0,0,0,0,0,0,
0,0,0,0,0,0,0,0,0,0,0,0,0,0,0,0
</chunk>
   <chunk x="512" y="-32" width="16" height="16">
19,19,19,19,19,19,19,19,19,19,19,0,0,0,0,0,
19,19,19,19,19,19,19,19,19,19,19,0,0,0,0,0,
19,19,19,19,19,19,19,19,19,19,19,0,0,0,0,0,
19,19,19,19,19,19,19,19,19,19,19,0,0,0,0,0,
19,19,19,19,19,19,19,19,19,19,19,0,0,0,0,0,
19,19,19,19,19,19,19,19,19,19,19,0,0,0,0,0,
19,19,19,19,19,19,19,19,19,19,19,0,0,0,0,0,
19,19,19,19,19,19,19,19,19,19,19,0,0,0,0,0,
19,19,19,19,19,19,19,19,19,19,19,0,0,0,0,0,
19,19,19,19,19,19,19,19,19,19,19,0,0,0,0,0,
19,19,19,19,19,19,19,19,19,19,19,0,0,0,0,0,
19,19,19,19,19,19,19,19,19,19,19,0,0,0,0,0,
19,19,19,19,19,19,19,19,19,19,19,0,0,0,0,0,
19,19,19,19,19,19,19,19,19,19,19,0,0,0,0,0,
0,0,0,0,0,0,0,0,0,0,0,0,0,0,0,0,
0,0,0,0,0,0,0,0,0,0,0,0,0,0,0,0
</chunk>
   <chunk x="-32" y="-16" width="16" height="16">
0,0,0,0,0,0,0,0,0,0,0,0,0,0,0,19,
0,0,0,0,0,0,0,0,0,0,0,0,0,0,0,19,
0,0,0,0,0,0,0,0,0,0,0,0,0,0,0,19,
0,0,0,0,0,0,0,0,0,0,0,0,0,0,0,19,
0,0,0,0,0,0,0,0,0,0,0,0,0,0,0,19,
0,0,0,0,0,0,0,0,0,0,0,0,0,0,0,19,
0,0,0,0,0,0,0,0,0,0,0,0,0,0,0,19,
0,0,0,0,0,0,0,0,0,0,0,0,0,0,0,19,
0,0,0,0,0,0,0,0,0,0,0,0,0,0,0,19,
0,0,0,0,0,0,0,0,0,0,0,0,0,0,0,19,
0,0,0,0,0,0,0,0,0,0,0,0,0,0,0,19,
0,0,0,0,0,0,0,0,0,0,0,0,0,0,0,19,
0,0,0,0,0,0,0,0,0,0,0,0,0,0,0,19,
0,0,0,0,0,0,0,0,0,0,0,0,0,0,0,19,
0,0,0,0,0,0,0,0,0,0,0,0,0,0,0,19,
0,0,0,0,0,0,0,0,0,0,0,0,0,0,0,19
</chunk>
   <chunk x="-16" y="-16" width="16" height="16">
19,19,19,19,19,19,19,19,19,19,19,19,19,19,19,19,
19,19,19,19,19,19,19,19,19,19,19,19,19,19,19,19,
19,19,19,19,19,19,19,19,19,19,19,19,19,19,19,19,
19,19,19,19,19,19,19,19,19,19,19,19,19,19,19,19,
19,19,19,19,19,19,19,19,19,19,19,19,19,19,19,19,
19,19,19,19,19,19,19,19,19,19,19,19,19,19,19,19,
19,19,19,19,19,19,19,19,19,19,19,19,19,19,19,19,
19,19,19,19,19,19,19,19,19,19,19,19,19,19,19,19,
19,19,19,19,19,19,19,19,19,19,19,19,19,19,19,19,
19,19,19,19,19,19,19,19,19,19,19,19,19,19,19,19,
19,19,19,19,19,19,19,19,19,19,19,19,19,19,19,19,
19,19,19,19,19,19,19,19,19,19,19,19,19,19,19,19,
19,19,19,19,19,19,19,19,19,19,19,19,19,19,19,19,
19,19,19,19,19,19,19,19,19,19,19,19,19,19,19,19,
19,19,19,19,19,19,19,19,19,19,19,19,19,19,19,19,
19,19,19,19,19,19,19,19,19,19,19,19,19,19,19,19
</chunk>
   <chunk x="0" y="-16" width="16" height="16">
19,19,19,19,19,19,19,19,19,19,19,19,19,19,19,19,
19,19,19,19,19,19,19,19,19,19,19,19,19,19,19,19,
19,19,19,19,19,19,19,19,19,19,19,19,19,19,19,19,
19,19,19,19,19,19,19,19,19,19,19,19,19,19,19,19,
19,19,19,19,19,19,19,19,19,19,19,19,19,19,19,19,
19,19,19,19,19,19,19,19,19,19,19,19,19,19,19,19,
19,19,19,19,19,19,19,19,19,19,19,19,19,19,19,19,
19,19,19,19,19,19,19,19,19,19,19,19,19,19,19,19,
19,19,19,19,19,19,19,19,19,19,19,19,19,19,19,19,
19,19,19,19,19,19,19,19,19,19,19,19,19,19,19,19,
19,19,19,19,19,19,19,19,19,19,19,19,19,19,19,19,
19,19,19,19,19,19,19,19,19,19,19,19,19,19,19,19,
19,19,19,19,19,19,19,19,19,19,19,19,19,19,19,19,
19,19,19,19,19,19,19,19,19,19,19,19,19,19,19,19,
19,19,19,19,19,19,19,19,19,19,19,19,19,19,19,19,
19,19,19,19,19,19,19,19,19,19,19,19,19,19,19,19
</chunk>
   <chunk x="16" y="-16" width="16" height="16">
19,19,19,19,19,19,19,19,19,19,19,19,19,19,19,19,
19,19,19,19,19,19,19,19,19,19,19,19,19,19,19,19,
19,19,19,19,19,19,19,19,19,19,19,19,19,19,19,19,
19,19,19,19,19,19,19,19,19,19,19,19,19,19,19,19,
19,19,19,19,19,19,19,19,19,19,19,19,19,19,19,19,
19,19,19,19,19,19,19,19,19,19,19,19,19,19,19,19,
19,19,19,19,19,19,19,19,19,19,19,19,19,19,19,19,
19,19,19,19,19,19,19,19,19,19,19,19,19,19,19,19,
19,19,19,19,19,19,19,19,19,19,19,19,19,19,19,19,
19,19,19,19,19,19,19,19,19,19,19,19,19,19,19,19,
19,19,19,19,19,19,19,19,19,19,19,19,19,19,19,19,
19,19,19,19,19,19,19,19,19,19,19,19,19,19,19,19,
19,19,19,19,19,19,19,19,19,19,19,19,19,19,19,19,
19,19,19,19,19,19,19,19,19,19,19,19,19,19,19,19,
19,19,19,19,19,19,19,19,19,19,19,19,19,19,19,19,
19,19,19,19,19,19,19,19,19,19,19,19,19,19,19,19
</chunk>
   <chunk x="32" y="-16" width="16" height="16">
19,19,19,19,19,19,19,19,19,19,19,19,19,19,19,19,
19,19,19,19,19,19,19,19,19,19,19,19,19,19,19,19,
19,19,19,19,19,19,19,19,19,19,19,19,19,19,19,19,
19,19,19,19,19,19,19,19,19,19,19,19,19,19,19,19,
19,19,19,19,19,19,19,19,19,19,19,19,19,19,19,19,
19,19,19,19,19,19,19,19,19,19,19,19,19,19,19,19,
19,19,19,19,19,19,19,19,19,19,19,19,19,19,19,19,
19,19,19,19,19,19,19,19,19,19,19,19,19,19,19,19,
19,19,19,19,19,19,19,19,19,19,19,19,19,19,19,19,
19,19,19,19,19,19,19,19,19,19,19,19,19,19,19,19,
19,19,19,19,19,19,19,19,19,19,19,19,19,19,19,19,
19,19,19,19,19,19,19,19,19,19,19,19,19,19,19,19,
19,19,19,19,19,19,19,19,19,19,19,19,19,19,19,19,
19,19,19,19,19,19,19,19,19,19,19,19,19,19,19,19,
19,19,19,19,19,19,19,19,19,19,19,19,19,19,19,19,
19,19,19,19,19,19,19,19,19,19,19,19,19,19,19,19
</chunk>
   <chunk x="48" y="-16" width="16" height="16">
19,19,19,19,19,19,19,19,19,19,19,19,19,19,19,19,
19,19,19,19,19,19,19,19,19,19,19,19,19,19,19,19,
19,19,19,19,19,19,19,19,19,19,19,19,19,19,19,19,
19,19,19,19,19,19,19,19,19,19,19,19,19,19,19,19,
19,19,19,19,19,19,19,19,19,19,19,19,19,19,19,19,
19,19,19,19,19,19,19,19,19,19,19,19,19,19,19,19,
19,19,19,19,19,19,19,19,19,19,19,19,19,19,19,19,
19,19,19,19,19,19,19,19,19,19,19,19,19,19,19,19,
19,19,19,19,19,19,19,19,19,19,19,19,19,19,19,19,
19,19,19,19,19,19,19,19,19,19,19,19,19,19,19,19,
19,19,19,19,19,19,19,19,19,19,19,19,19,19,19,19,
19,19,19,19,19,19,19,19,19,19,19,19,19,19,19,19,
19,19,19,19,19,19,19,19,19,19,19,19,19,19,19,19,
19,19,19,19,19,19,19,19,19,19,19,19,19,19,19,19,
19,19,19,19,19,19,19,19,19,19,19,19,19,19,19,19,
19,19,19,19,19,19,19,19,19,19,19,19,19,19,19,19
</chunk>
   <chunk x="64" y="-16" width="16" height="16">
19,19,19,19,19,19,19,19,19,19,19,19,19,19,19,19,
19,19,19,19,19,19,19,19,19,19,19,19,19,19,19,19,
19,19,19,19,19,19,19,19,19,19,19,19,19,19,19,19,
19,19,19,19,19,19,19,19,19,19,19,19,19,19,19,19,
19,19,19,19,19,19,19,19,19,19,19,19,19,19,19,19,
19,19,19,19,19,19,19,19,19,19,19,19,19,19,19,19,
19,19,19,19,19,19,19,19,19,19,19,19,19,19,19,19,
19,19,19,19,19,19,19,19,19,19,19,19,19,19,19,19,
19,19,19,19,19,19,19,19,19,19,19,19,19,19,19,19,
19,19,19,19,19,19,19,19,19,19,19,19,19,19,19,19,
19,19,19,19,19,19,19,19,19,19,19,19,19,19,19,19,
19,19,19,19,19,19,19,19,19,19,19,19,19,19,19,19,
19,19,19,19,19,19,19,19,19,19,19,19,19,19,19,19,
19,19,19,19,19,19,19,19,19,19,19,19,19,19,19,19,
19,19,19,19,19,19,19,19,19,19,19,19,19,19,19,19,
19,19,19,19,19,19,19,19,19,19,19,19,19,19,19,19
</chunk>
   <chunk x="80" y="-16" width="16" height="16">
19,19,19,19,19,19,19,19,19,19,19,19,19,19,19,19,
19,19,19,19,19,19,19,19,19,19,19,19,19,19,19,19,
19,19,19,19,19,19,19,19,19,19,19,19,19,19,19,19,
19,19,19,19,19,19,19,19,19,19,19,19,19,19,19,19,
19,19,19,19,19,19,19,19,19,19,19,19,19,19,19,19,
19,19,19,19,19,19,19,19,19,19,19,19,19,19,19,19,
19,19,19,19,19,19,19,19,19,19,19,19,19,19,19,19,
19,19,19,19,19,19,19,19,19,19,19,19,19,19,19,19,
19,19,19,19,19,19,19,19,19,19,19,19,19,19,19,19,
19,19,19,19,19,19,19,19,19,19,19,19,19,19,19,19,
19,19,19,19,19,19,19,19,19,19,19,19,19,19,19,19,
19,19,19,19,19,19,19,19,19,19,19,19,19,19,19,19,
19,19,19,19,19,19,19,19,19,19,19,19,19,19,19,19,
19,19,19,19,19,19,19,19,19,19,19,19,19,19,19,19,
19,19,19,19,19,19,19,19,19,19,19,19,19,19,19,19,
19,19,19,19,19,19,19,19,19,19,19,19,19,19,19,19
</chunk>
   <chunk x="96" y="-16" width="16" height="16">
19,19,19,19,19,19,19,19,19,19,19,19,19,19,19,19,
19,19,19,19,19,19,19,19,19,19,19,19,19,19,19,19,
19,19,19,19,19,19,19,19,19,19,19,19,19,19,19,19,
19,19,19,19,19,19,19,19,19,19,19,19,19,19,19,19,
19,19,19,19,19,19,19,19,19,19,19,19,19,19,19,19,
19,19,19,19,19,19,19,19,19,19,19,19,19,19,19,19,
19,19,19,19,19,19,19,19,19,19,19,19,19,19,19,19,
19,19,19,19,19,19,19,19,19,19,19,19,19,19,19,19,
19,19,19,19,19,19,19,19,19,19,19,19,19,19,19,19,
19,19,19,19,19,19,19,19,19,19,19,19,19,19,19,19,
19,19,19,19,19,19,19,19,19,19,19,19,19,19,19,19,
19,19,19,19,19,19,19,19,19,19,19,19,19,19,19,19,
19,19,19,19,19,19,19,19,19,19,19,19,19,19,19,19,
19,19,19,19,19,19,19,19,19,19,19,19,19,19,19,19,
19,19,19,19,19,19,19,19,19,19,19,19,19,19,19,19,
19,19,19,19,19,19,19,19,19,19,19,19,19,19,19,19
</chunk>
   <chunk x="112" y="-16" width="16" height="16">
19,19,19,19,19,19,19,19,19,19,19,19,19,19,19,19,
19,19,19,19,19,19,19,19,19,19,19,19,19,19,19,19,
19,19,19,19,19,19,19,19,19,19,19,19,19,19,19,19,
19,19,19,19,19,19,19,19,19,19,19,19,19,19,19,19,
19,19,19,19,19,19,19,19,19,19,19,19,19,19,19,19,
19,19,19,19,19,19,19,19,19,19,19,19,19,19,19,19,
19,19,19,19,19,19,19,19,19,19,19,19,19,19,19,19,
19,19,19,19,19,19,19,19,19,19,19,19,19,19,19,19,
19,19,19,19,19,19,19,19,19,19,19,19,19,19,19,19,
19,19,19,19,19,19,19,19,19,19,19,19,19,19,19,19,
19,19,19,19,19,19,19,19,19,19,19,19,19,19,19,19,
19,19,19,19,19,19,19,19,19,19,19,19,19,19,19,19,
19,19,19,19,19,19,19,19,19,19,19,19,19,19,19,19,
19,19,19,19,19,19,19,19,19,19,19,19,19,19,19,19,
19,19,19,19,19,19,19,19,19,19,19,19,19,19,19,19,
19,19,19,19,19,19,19,19,19,19,19,19,19,19,19,19
</chunk>
   <chunk x="128" y="-16" width="16" height="16">
19,19,19,19,19,19,19,19,19,19,19,19,19,19,19,19,
19,19,19,19,19,19,19,19,19,19,19,19,19,19,19,19,
19,19,19,19,19,19,19,19,19,19,19,19,19,19,19,19,
19,19,19,19,19,19,19,19,19,19,19,19,19,19,19,19,
19,19,19,19,19,19,19,19,19,19,19,19,19,19,19,19,
19,19,19,19,19,19,19,19,19,19,19,19,19,19,19,19,
19,19,19,19,19,19,19,19,19,19,19,19,19,19,19,19,
19,19,19,19,19,19,19,19,19,19,19,19,19,19,19,19,
19,19,19,19,19,19,19,19,19,19,19,19,19,19,19,19,
19,19,19,19,19,19,19,19,19,19,19,19,19,19,19,19,
19,19,19,19,19,19,19,19,19,19,19,19,19,19,19,19,
19,19,19,19,19,19,19,19,19,19,19,19,19,19,19,19,
19,19,19,19,19,19,19,19,19,19,19,19,19,19,19,19,
19,19,19,19,19,19,19,19,19,19,19,19,19,19,19,19,
19,19,19,19,19,19,19,19,19,19,19,19,19,19,19,19,
19,19,19,19,19,19,19,19,19,19,19,19,19,19,19,19
</chunk>
   <chunk x="144" y="-16" width="16" height="16">
19,19,19,19,19,19,19,19,19,19,19,19,19,19,19,19,
19,19,19,19,19,19,19,19,19,19,19,19,19,19,19,19,
19,19,19,19,19,19,19,19,19,19,19,19,19,19,19,19,
19,19,19,19,19,19,19,19,19,19,19,19,19,19,19,19,
19,19,19,19,19,19,19,19,19,19,19,19,19,19,19,19,
19,19,19,19,19,19,19,19,19,19,19,19,19,19,19,19,
19,19,19,19,19,19,19,19,19,19,19,19,19,19,19,19,
19,19,19,19,19,19,19,19,19,19,19,19,19,19,19,19,
19,19,19,19,19,19,19,19,19,19,19,19,19,19,19,19,
19,19,19,19,19,19,19,19,19,19,19,19,19,19,19,19,
19,19,19,19,19,19,19,19,19,19,19,19,19,19,19,19,
19,19,19,19,19,19,19,19,19,19,19,19,19,19,19,19,
19,19,19,19,19,19,19,19,19,19,19,19,19,19,19,19,
19,19,19,19,19,19,19,19,19,19,19,19,19,19,19,19,
19,19,19,19,19,19,19,19,19,19,19,19,19,19,19,19,
19,19,19,19,19,19,19,19,19,19,19,19,19,19,19,19
</chunk>
   <chunk x="160" y="-16" width="16" height="16">
19,19,19,19,19,19,19,19,19,19,19,19,19,19,19,19,
19,19,19,19,19,19,19,19,19,19,19,19,19,19,19,19,
19,19,19,19,19,19,19,19,19,19,19,19,19,19,19,19,
19,19,19,19,19,19,19,19,19,19,19,19,19,19,19,19,
19,19,19,19,19,19,19,19,19,19,19,19,19,19,19,19,
19,19,19,19,19,19,19,19,19,19,19,19,19,19,19,19,
19,19,19,19,19,19,19,19,19,19,19,19,19,19,19,19,
19,19,19,19,19,19,19,19,19,19,19,19,19,19,19,19,
19,19,19,19,19,19,19,19,19,19,19,19,19,19,19,19,
19,19,19,19,19,19,19,19,19,19,19,19,19,19,19,19,
19,19,19,19,19,19,19,19,19,19,19,19,19,19,19,19,
19,19,19,19,19,19,19,19,19,19,19,19,19,19,19,19,
19,19,19,19,19,19,19,19,19,19,19,19,19,19,19,19,
19,19,19,19,19,19,19,19,19,19,19,19,19,19,19,19,
19,19,19,19,19,19,19,19,19,19,19,19,19,19,19,19,
19,19,19,19,19,19,19,19,19,19,19,19,19,19,19,19
</chunk>
   <chunk x="176" y="-16" width="16" height="16">
19,19,19,19,19,19,19,19,19,19,19,19,19,19,19,19,
19,19,19,19,19,19,19,19,19,19,19,19,19,19,19,19,
19,19,19,19,19,19,19,19,19,19,19,19,19,19,19,19,
19,19,19,19,19,19,19,19,19,19,19,19,19,19,19,19,
19,19,19,19,19,19,19,19,19,19,19,19,19,19,19,19,
19,19,19,19,19,19,19,19,19,19,19,19,19,19,19,19,
19,19,19,19,19,19,19,19,19,19,19,19,19,19,19,19,
19,19,19,19,19,19,19,19,19,19,19,19,19,19,19,19,
19,19,19,19,19,19,19,19,19,19,19,19,19,19,19,19,
19,19,19,19,19,19,19,19,19,19,19,19,19,19,19,19,
19,19,19,19,19,19,19,19,19,19,19,19,19,19,19,19,
19,19,19,19,19,19,19,19,19,19,19,19,19,19,19,19,
19,19,19,19,19,19,19,19,19,19,19,19,19,19,19,19,
19,19,19,19,19,19,19,19,19,19,19,19,19,19,19,19,
19,19,19,19,19,19,19,19,19,19,19,19,19,19,19,19,
19,19,19,19,19,19,19,19,19,19,19,19,19,19,19,19
</chunk>
   <chunk x="192" y="-16" width="16" height="16">
19,19,19,19,19,19,19,19,19,19,19,19,19,19,19,19,
19,19,19,19,19,19,19,19,19,19,19,19,19,19,19,19,
19,19,19,19,19,19,19,19,19,19,19,19,19,19,19,19,
19,19,19,19,19,19,19,19,19,19,19,19,19,19,19,19,
19,19,19,19,19,19,19,19,19,19,19,19,19,19,19,19,
19,19,19,19,19,19,19,19,19,19,19,19,19,19,19,19,
19,19,19,19,19,19,19,19,19,19,19,19,19,19,19,19,
19,19,19,19,19,19,19,19,19,19,19,19,19,19,19,19,
19,19,19,19,19,19,19,19,19,19,19,19,19,19,19,19,
19,19,19,19,19,19,19,19,19,19,19,19,19,19,19,19,
19,19,19,19,19,19,19,19,19,19,19,19,19,19,19,19,
19,19,19,19,19,19,19,19,19,19,19,19,19,19,19,19,
19,19,19,19,19,19,19,19,19,19,19,19,19,19,19,19,
19,19,19,19,19,19,19,19,19,19,19,19,19,19,19,19,
19,19,19,19,19,19,19,19,19,19,19,19,19,19,19,19,
19,19,19,19,19,19,19,19,19,19,19,19,19,19,19,19
</chunk>
   <chunk x="208" y="-16" width="16" height="16">
19,19,19,19,19,19,19,19,19,19,19,19,19,19,19,19,
19,19,19,19,19,19,19,19,19,19,19,19,19,19,19,19,
19,19,19,19,19,19,19,19,19,19,19,19,19,19,19,19,
19,19,19,19,19,19,19,19,19,19,19,19,19,19,19,19,
19,19,19,19,19,19,19,19,19,19,19,19,19,19,19,19,
19,19,19,19,19,19,19,19,19,19,19,19,19,19,19,19,
19,19,19,19,19,19,19,19,19,19,19,19,19,19,19,19,
19,19,19,19,19,19,19,19,19,19,19,19,19,19,19,19,
19,19,19,19,19,19,19,19,19,19,19,19,19,19,19,19,
19,19,19,19,19,19,19,19,19,19,19,19,19,19,19,19,
19,19,19,19,19,19,19,19,19,19,19,19,19,19,19,19,
19,19,19,19,19,19,19,19,19,19,19,19,19,19,19,19,
19,19,19,19,19,19,19,19,19,19,19,19,19,19,19,19,
19,19,19,19,19,19,19,19,19,19,19,19,19,19,19,19,
19,19,19,19,19,19,19,19,19,19,19,19,19,19,19,19,
19,19,19,19,19,19,19,19,19,19,19,19,19,19,19,19
</chunk>
   <chunk x="224" y="-16" width="16" height="16">
19,19,19,19,19,19,19,19,19,19,19,19,19,19,19,19,
19,19,19,19,19,19,19,19,19,19,19,19,19,19,19,19,
19,19,19,19,19,19,19,19,19,19,19,19,19,19,19,19,
19,19,19,19,19,19,19,19,19,19,19,19,19,19,19,19,
19,19,19,19,19,19,19,19,19,19,19,19,19,19,19,19,
19,19,19,19,19,19,19,19,19,19,19,19,19,19,19,19,
19,19,19,19,19,19,19,19,19,19,19,19,19,19,19,19,
19,19,19,19,19,19,19,19,19,19,19,19,19,19,19,19,
19,19,19,19,19,19,19,19,19,19,19,19,19,19,19,19,
19,19,19,19,19,19,19,19,19,19,19,19,19,19,19,19,
19,19,19,19,19,19,19,19,19,19,19,19,19,19,19,19,
19,19,19,19,19,19,19,19,19,19,19,19,19,19,19,19,
19,19,19,19,19,19,19,19,19,19,19,19,19,19,19,19,
19,19,19,19,19,19,19,19,19,19,19,19,19,19,19,19,
19,19,19,19,19,19,19,19,19,19,19,19,19,19,19,19,
19,19,19,19,19,19,19,19,19,19,19,19,19,19,19,19
</chunk>
   <chunk x="240" y="-16" width="16" height="16">
19,19,19,19,19,19,19,19,19,19,19,19,19,19,19,19,
19,19,19,19,19,19,19,19,19,19,19,19,19,19,19,19,
19,19,19,19,19,19,19,19,19,19,19,19,19,19,19,19,
19,19,19,19,19,19,19,19,19,19,19,19,19,19,19,19,
19,19,19,19,19,19,19,19,19,19,19,19,19,19,19,19,
19,19,19,19,19,19,19,19,19,19,19,19,19,19,19,19,
19,19,19,19,19,19,19,19,19,19,19,19,19,19,19,19,
19,19,19,19,19,19,19,19,19,19,19,19,19,19,19,19,
19,19,19,19,19,19,19,19,19,19,19,19,19,19,19,19,
19,19,19,19,19,19,19,19,19,19,19,19,19,19,19,19,
19,19,19,19,19,19,19,19,19,19,19,19,19,19,19,19,
19,19,19,19,19,19,19,19,19,19,19,19,19,19,19,19,
19,19,19,19,19,19,19,19,19,19,19,19,19,19,19,19,
19,19,19,19,19,19,19,19,19,19,19,19,19,19,19,19,
19,19,19,19,19,19,19,19,19,19,19,19,19,19,19,19,
19,19,19,19,19,19,19,19,19,19,19,19,19,19,19,19
</chunk>
   <chunk x="256" y="-16" width="16" height="16">
19,19,19,19,19,19,19,19,19,19,19,19,19,19,19,19,
19,19,19,19,19,19,19,19,19,19,19,19,19,19,19,19,
19,19,19,19,19,19,19,19,19,19,19,19,19,19,19,19,
19,19,19,19,19,19,19,19,19,19,19,19,19,19,19,19,
19,19,19,19,19,19,19,19,19,19,19,19,19,19,19,19,
19,19,19,19,19,19,19,19,19,19,19,19,19,19,19,19,
19,19,19,19,19,19,19,19,19,19,19,19,19,19,19,19,
19,19,19,19,19,19,19,19,19,19,19,19,19,19,19,19,
19,19,19,19,19,19,19,19,19,19,19,19,19,19,19,19,
19,19,19,19,19,19,19,19,19,19,19,19,19,19,19,19,
19,19,19,19,19,19,19,19,19,0,0,0,0,0,0,0,
19,19,19,19,19,19,19,19,19,0,0,0,0,0,0,0,
19,19,19,19,19,19,19,0,0,0,0,0,0,0,0,0,
19,19,19,19,19,19,19,0,0,0,0,0,0,0,0,0,
19,19,19,19,19,19,19,0,0,0,0,0,0,0,0,0,
19,19,19,19,0,0,0,0,0,0,0,0,0,0,0,0
</chunk>
   <chunk x="272" y="-16" width="16" height="16">
19,19,19,19,19,19,19,19,19,19,19,19,19,19,19,19,
19,19,19,19,19,19,19,19,19,19,19,19,19,19,19,19,
19,19,19,19,19,19,19,19,19,19,19,19,19,19,19,19,
19,19,19,19,19,19,19,19,19,19,19,19,19,19,19,19,
19,19,19,19,19,19,19,19,19,19,19,19,19,19,19,19,
19,19,19,19,19,19,19,19,19,19,19,19,19,19,19,19,
19,19,19,19,19,19,19,19,19,19,19,19,19,19,19,19,
19,19,19,19,19,19,19,19,19,19,19,19,19,19,19,19,
19,19,19,19,19,19,19,19,19,19,19,19,19,19,19,19,
19,19,19,19,19,19,19,19,19,19,19,19,19,19,19,19,
0,0,0,0,0,0,0,0,0,0,0,0,0,0,0,0,
0,0,0,0,0,0,0,0,0,0,0,0,0,0,0,0,
0,0,0,0,0,0,0,0,0,0,0,0,0,0,0,0,
0,0,0,0,0,0,0,0,0,0,0,0,0,0,0,0,
0,0,0,0,0,0,0,0,0,0,0,0,0,0,0,0,
0,0,0,0,0,0,0,0,0,0,0,0,0,0,0,0
</chunk>
   <chunk x="288" y="-16" width="16" height="16">
19,19,19,19,19,19,19,19,19,19,19,19,19,19,19,19,
19,19,19,19,19,19,19,19,19,19,19,19,19,19,19,19,
19,19,19,19,19,19,19,19,19,19,19,19,19,19,19,19,
19,19,19,19,19,19,19,19,19,19,19,19,19,19,19,19,
19,19,19,19,19,19,19,19,19,19,19,19,19,19,19,19,
19,19,19,19,19,19,19,19,19,19,19,19,19,19,19,19,
19,19,19,19,19,19,19,19,19,19,19,19,19,19,19,19,
19,19,19,19,19,19,19,19,19,19,19,19,19,19,19,19,
19,19,19,19,19,19,19,19,19,19,19,19,19,19,19,19,
19,19,19,19,19,19,19,19,19,19,19,19,19,19,0,0,
0,0,0,0,0,0,0,0,0,0,0,0,0,0,0,0,
0,0,0,0,0,0,0,0,0,0,0,0,0,0,0,0,
0,0,0,0,0,0,0,0,0,0,0,0,0,0,0,0,
0,0,0,0,0,0,0,0,0,0,0,0,0,0,0,0,
0,0,0,0,0,0,0,0,0,0,0,0,0,0,0,0,
0,0,0,0,0,0,0,0,0,0,0,0,0,0,0,0
</chunk>
   <chunk x="304" y="-16" width="16" height="16">
19,19,19,19,19,19,19,19,19,19,19,19,0,0,0,0,
19,19,19,19,19,19,19,0,0,0,0,0,0,0,0,0,
19,19,19,19,19,0,0,0,0,0,0,0,0,0,0,0,
19,19,19,19,19,0,0,0,0,0,0,0,0,0,0,0,
19,19,19,19,19,0,0,0,0,0,0,0,0,0,0,0,
19,19,0,0,0,0,0,0,0,0,0,0,0,0,0,0,
19,19,0,0,0,0,0,0,0,0,0,0,0,0,0,0,
0,0,0,0,0,0,0,0,0,0,0,0,0,0,0,0,
0,0,0,0,0,0,0,0,0,0,0,0,0,0,0,0,
0,0,0,0,0,0,0,0,0,0,0,0,0,0,0,0,
0,0,0,0,0,0,0,0,0,0,0,0,0,0,0,0,
0,0,0,0,0,0,0,0,0,0,0,0,0,0,0,0,
0,0,0,0,0,0,0,0,0,0,0,0,0,0,0,0,
0,0,0,0,0,0,0,0,0,0,0,0,0,0,0,0,
0,0,0,0,0,0,0,0,0,0,0,0,0,0,0,0,
0,0,0,0,0,0,0,0,0,0,0,0,0,0,0,0
</chunk>
   <chunk x="-32" y="0" width="16" height="16">
0,0,0,0,0,0,0,0,0,0,0,0,0,0,0,19,
0,0,0,0,0,0,0,0,0,0,0,0,0,0,0,19,
0,0,0,0,0,0,0,0,0,0,0,0,0,0,0,0,
0,0,0,0,0,0,0,0,0,0,0,0,0,0,0,0,
0,0,0,0,0,0,0,0,0,0,0,0,0,0,0,0,
0,0,0,0,0,0,0,0,0,0,0,0,0,0,0,0,
0,0,0,0,0,0,0,0,0,0,0,0,0,0,0,0,
0,0,0,0,0,0,0,0,0,0,0,0,0,0,0,0,
0,0,0,0,0,0,0,0,0,0,0,0,0,0,0,0,
0,0,0,0,0,0,0,0,0,0,0,0,0,0,0,0,
0,0,0,0,0,0,0,0,0,0,0,0,0,0,0,0,
0,0,0,0,0,0,0,0,0,0,0,0,0,0,0,0,
0,0,0,0,0,0,0,0,0,0,0,0,0,0,0,0,
0,0,0,0,0,0,0,0,0,0,0,0,0,0,0,0,
0,0,0,0,0,0,0,0,0,0,0,0,0,0,0,0,
0,0,0,0,0,0,0,0,0,0,0,0,0,0,0,0
</chunk>
   <chunk x="-16" y="0" width="16" height="16">
19,19,19,19,19,19,19,19,19,19,19,19,19,19,19,19,
19,19,19,19,19,19,19,19,19,19,19,19,19,19,19,19,
0,0,0,0,0,0,0,0,0,0,0,0,0,0,0,0,
0,0,0,0,0,0,0,0,0,0,0,0,0,0,0,0,
0,0,0,0,0,0,0,0,0,0,0,0,0,0,0,0,
0,0,0,0,0,0,0,0,0,0,0,0,0,0,0,0,
0,0,0,0,0,0,0,0,0,0,0,0,0,0,0,0,
0,0,0,0,0,0,0,0,0,0,0,0,0,0,0,0,
0,0,0,0,0,0,0,0,0,0,0,0,0,0,0,0,
0,0,0,0,0,0,0,0,0,0,0,0,0,0,0,0,
0,0,0,0,0,0,0,0,0,0,0,0,0,0,0,0,
0,0,0,0,0,0,0,0,0,0,0,0,0,0,0,0,
0,0,0,0,0,0,0,0,0,0,0,0,0,0,0,0,
0,0,0,0,0,0,0,0,0,0,0,0,0,0,0,0,
0,0,0,0,0,0,0,0,0,0,0,0,0,0,0,0,
0,0,0,0,0,0,0,0,0,0,0,0,0,0,0,0
</chunk>
   <chunk x="0" y="0" width="16" height="16">
19,19,19,19,19,19,19,19,19,19,19,19,19,19,19,19,
19,19,19,19,19,19,19,19,19,19,19,19,19,19,19,19,
0,19,19,19,19,19,19,19,19,19,19,19,19,19,19,19,
0,0,0,19,19,19,19,19,19,19,19,19,19,19,19,19,
0,0,0,0,0,0,19,19,19,19,19,19,19,19,19,19,
0,0,0,0,0,0,19,19,19,19,19,19,19,19,19,19,
0,0,0,0,0,0,19,19,19,19,19,19,19,19,19,19,
0,0,0,0,0,0,19,19,19,19,19,19,19,19,19,19,
0,0,0,0,0,0,19,19,19,19,19,19,19,19,19,19,
0,0,0,0,0,0,19,19,19,19,19,19,19,19,19,19,
0,0,0,0,0,0,19,19,19,19,19,19,19,19,19,19,
0,0,0,0,0,0,0,0,0,0,0,0,0,0,0,0,
0,0,0,0,0,0,0,0,0,0,0,0,0,0,0,0,
0,0,0,0,0,0,0,0,0,0,0,0,0,0,0,0,
0,0,0,0,0,0,0,0,0,0,0,0,0,0,0,0,
0,0,0,0,0,0,0,0,0,0,0,0,0,0,0,0
</chunk>
   <chunk x="16" y="0" width="16" height="16">
19,19,19,19,19,19,19,19,19,19,19,19,19,19,19,19,
19,19,19,19,19,19,19,19,19,19,19,19,19,19,19,19,
19,19,19,19,19,19,19,19,19,19,19,19,19,19,19,19,
19,19,19,19,19,19,19,19,19,19,19,19,19,19,19,19,
19,19,19,19,19,19,19,19,19,19,19,19,19,19,19,19,
19,19,19,19,19,19,19,19,19,19,19,19,19,19,19,19,
19,19,19,19,19,19,19,19,19,19,19,19,19,19,19,19,
19,19,19,19,19,19,19,19,19,19,19,19,19,19,19,19,
19,19,19,19,19,19,19,19,19,19,19,19,19,19,19,19,
19,19,19,19,19,19,19,19,19,19,19,19,19,19,19,19,
19,19,19,19,19,19,19,19,19,19,19,19,19,19,19,19,
0,0,0,0,0,0,19,19,19,19,19,19,19,19,19,19,
0,0,0,0,0,0,19,19,19,19,19,19,19,19,19,19,
0,0,0,0,0,0,19,19,19,19,19,19,19,19,19,19,
0,0,0,0,0,0,19,19,19,19,19,19,19,19,19,19,
0,0,0,0,0,0,19,19,19,19,19,19,19,19,19,19
</chunk>
   <chunk x="32" y="0" width="16" height="16">
19,19,19,19,19,19,19,19,19,19,19,19,19,19,19,19,
19,19,19,19,19,19,19,19,19,19,19,19,19,19,19,19,
19,19,19,19,19,19,19,19,19,19,19,19,19,19,19,19,
19,19,19,19,19,19,19,19,19,19,19,19,19,19,19,19,
19,19,19,19,19,19,19,19,19,19,19,19,19,19,19,19,
19,19,19,19,19,19,19,19,19,19,19,19,19,19,19,19,
19,19,19,19,19,19,19,19,19,19,19,19,19,19,19,19,
19,19,19,19,19,19,19,19,19,19,19,19,19,19,19,19,
19,19,19,19,19,19,19,19,19,19,19,19,19,19,19,19,
19,19,19,19,19,19,19,19,19,19,19,19,19,19,19,19,
19,19,19,19,19,19,19,19,19,19,19,19,19,19,19,19,
19,19,19,19,19,19,19,19,19,19,19,19,19,19,19,19,
19,19,19,19,19,19,19,19,19,19,19,19,19,19,19,19,
19,19,19,19,19,19,19,19,19,19,19,19,19,19,19,19,
19,19,19,19,19,19,19,19,19,19,19,19,19,19,19,19,
19,19,19,19,19,19,19,19,19,19,19,19,19,19,19,19
</chunk>
   <chunk x="48" y="0" width="16" height="16">
19,19,19,19,19,19,19,19,19,19,19,19,19,19,19,19,
19,19,19,19,19,19,19,19,19,19,19,19,19,19,19,19,
19,19,19,19,19,19,19,19,19,19,19,19,19,19,19,19,
19,19,19,19,19,19,19,19,19,19,19,19,19,19,19,19,
19,19,19,19,19,19,19,19,19,19,19,19,19,19,19,19,
19,19,19,19,19,19,19,19,19,19,19,19,19,19,19,19,
19,19,19,19,19,19,19,19,19,19,19,19,19,19,19,19,
19,19,19,19,19,19,19,19,19,19,19,19,19,19,19,19,
19,19,19,19,19,19,19,19,19,19,19,19,19,19,19,19,
19,19,19,19,19,19,19,19,19,19,19,19,19,19,19,19,
19,19,19,19,19,19,19,19,19,19,19,19,19,19,19,19,
19,19,19,19,19,19,19,19,19,19,19,19,19,19,19,19,
19,19,19,19,19,19,19,19,19,19,19,19,19,19,19,19,
19,19,19,19,19,19,19,19,19,19,19,19,19,19,19,19,
19,19,19,19,19,19,19,19,19,19,19,19,19,19,19,19,
19,19,19,19,19,19,19,19,19,19,19,19,19,19,19,19
</chunk>
   <chunk x="64" y="0" width="16" height="16">
19,19,19,19,19,19,19,19,19,19,19,19,19,19,19,19,
19,19,19,19,19,19,19,19,19,19,19,19,19,19,19,19,
19,19,19,19,19,19,19,19,19,19,19,19,19,19,19,19,
19,19,19,19,19,19,19,19,19,19,19,19,19,19,19,19,
19,19,19,19,19,19,19,19,19,19,19,19,19,19,19,19,
19,19,19,19,19,19,19,19,19,19,19,19,19,19,19,19,
19,19,19,19,19,19,19,19,19,19,19,19,19,19,19,19,
19,19,19,19,19,19,19,19,19,19,19,19,19,19,19,19,
19,19,19,19,19,19,19,19,19,19,19,19,19,19,19,19,
19,19,19,19,19,19,19,19,19,19,19,19,19,19,19,19,
19,19,19,19,19,19,19,19,19,19,19,19,19,19,19,19,
19,19,19,19,19,19,19,19,19,19,19,19,19,19,19,19,
19,19,19,19,19,19,19,19,19,19,19,19,19,19,19,19,
19,19,19,19,19,19,19,19,19,19,19,19,19,19,19,19,
19,19,19,19,19,19,19,19,19,19,19,19,19,19,19,19,
19,19,19,19,19,19,19,19,19,19,19,19,19,19,19,19
</chunk>
   <chunk x="80" y="0" width="16" height="16">
19,19,19,19,19,19,19,19,19,19,19,19,19,19,19,19,
19,19,19,19,19,19,19,19,19,19,19,19,19,19,19,19,
19,19,19,19,19,19,19,19,19,19,19,19,19,19,19,19,
19,19,19,19,19,19,19,19,19,19,19,19,19,19,19,19,
19,19,19,19,19,19,19,19,19,19,19,19,19,19,19,19,
19,19,19,19,19,19,19,19,19,19,19,19,19,19,19,19,
19,19,19,19,19,19,19,19,19,19,19,19,19,19,19,19,
19,19,19,19,19,19,19,19,19,19,19,19,19,19,19,19,
19,19,19,19,19,19,19,19,19,19,19,19,19,19,19,19,
19,19,19,19,19,19,19,19,19,19,19,19,19,19,19,19,
19,19,19,19,19,19,19,19,19,19,19,19,19,19,19,19,
19,19,19,19,19,19,19,19,19,19,19,19,19,19,19,19,
19,19,19,19,19,19,19,19,19,19,19,19,19,19,19,19,
19,19,19,19,19,19,19,19,19,19,19,19,19,19,19,19,
19,19,19,19,19,19,19,19,19,19,19,19,19,19,19,19,
19,19,19,19,19,19,19,19,19,19,19,19,19,19,19,19
</chunk>
   <chunk x="96" y="0" width="16" height="16">
19,19,19,19,19,19,19,19,19,19,19,19,19,19,19,19,
19,19,19,19,19,19,19,19,19,19,19,19,19,19,19,19,
19,19,19,19,19,19,19,19,19,19,19,19,19,19,19,19,
19,19,19,19,19,19,19,19,19,19,19,19,19,19,19,19,
19,19,19,19,19,19,19,19,19,19,19,19,19,19,19,19,
19,19,19,19,19,19,19,19,19,19,19,19,19,19,19,19,
19,19,19,19,19,19,19,19,19,19,19,19,19,19,19,19,
19,19,19,19,19,19,19,19,19,19,19,19,19,19,19,19,
19,19,19,19,19,19,19,19,19,19,19,19,19,19,19,19,
19,19,19,19,19,19,19,19,19,19,19,19,19,19,19,19,
19,19,19,19,19,19,19,19,19,19,19,19,19,19,19,19,
19,19,19,19,19,19,19,19,19,19,19,19,19,19,19,19,
19,19,19,19,19,19,19,19,19,19,19,19,19,19,19,19,
19,19,19,19,19,19,19,19,19,19,19,19,19,19,19,19,
19,19,19,19,19,19,19,19,19,19,19,19,19,19,19,19,
19,19,19,19,19,1,19,19,19,19,19,19,19,19,19,19
</chunk>
   <chunk x="112" y="0" width="16" height="16">
19,19,19,19,19,19,19,19,19,19,19,19,19,19,19,19,
19,19,19,19,19,19,19,19,19,19,19,19,19,19,19,19,
19,19,19,19,19,19,19,19,19,19,19,19,19,19,19,19,
19,19,19,19,19,19,19,19,19,19,19,19,19,19,19,19,
19,19,19,19,19,19,19,19,19,19,19,19,19,19,19,19,
19,19,19,19,19,19,19,19,19,19,19,19,19,19,19,19,
19,19,19,19,19,19,19,19,19,19,19,19,19,19,19,19,
19,19,19,19,19,19,19,19,19,19,19,19,19,19,19,19,
19,19,19,19,19,19,19,19,19,19,19,19,19,19,19,19,
19,19,19,19,19,19,19,19,19,19,19,19,19,19,19,19,
19,19,19,19,19,19,19,19,19,19,19,19,19,19,19,19,
19,19,19,19,19,19,19,19,19,19,19,19,19,19,19,19,
19,19,19,19,19,19,19,19,19,19,19,19,19,19,19,19,
19,19,19,19,19,19,19,19,19,19,19,19,19,19,19,19,
19,19,19,19,19,19,19,19,19,19,19,19,19,19,19,19,
19,19,19,19,19,19,19,19,19,19,19,19,19,19,19,19
</chunk>
   <chunk x="128" y="0" width="16" height="16">
19,19,19,19,19,19,19,19,19,19,19,19,19,19,19,19,
19,19,19,19,19,19,19,19,19,19,19,19,19,19,19,19,
19,19,19,19,19,19,19,19,19,19,19,19,19,19,19,19,
19,19,19,19,19,19,19,19,19,19,19,19,19,19,19,19,
19,19,19,19,19,19,19,19,19,19,19,19,19,19,19,19,
19,19,19,19,19,19,19,19,19,19,19,19,19,19,19,19,
19,19,19,19,19,19,19,19,19,19,19,19,19,19,19,19,
19,19,19,19,19,19,19,19,19,19,19,19,19,19,19,19,
19,19,19,19,19,19,19,19,19,19,19,19,19,19,19,19,
19,19,19,19,19,19,19,19,19,19,19,19,19,19,19,19,
19,19,19,19,19,19,19,19,19,19,19,19,19,19,19,19,
19,19,19,19,19,19,19,19,19,19,19,19,19,19,19,19,
19,19,19,19,19,19,19,19,19,19,19,19,19,19,19,19,
19,19,19,19,19,19,19,19,19,19,19,19,19,19,19,19,
19,19,19,19,19,19,19,19,19,19,19,19,19,19,19,19,
19,19,19,19,19,19,19,19,19,19,19,19,19,19,19,19
</chunk>
   <chunk x="144" y="0" width="16" height="16">
19,19,19,19,19,19,19,19,19,19,19,19,19,19,19,19,
19,19,19,19,19,19,19,19,19,19,19,19,19,19,19,19,
19,19,19,19,19,19,19,19,19,19,19,19,19,19,19,19,
19,19,19,19,19,19,19,19,19,19,19,19,19,19,19,19,
19,19,19,19,19,19,19,19,19,19,19,19,19,19,19,19,
19,19,19,19,19,19,19,19,19,19,19,19,19,19,19,19,
19,19,19,19,19,19,19,19,19,19,19,19,19,19,19,19,
19,19,19,19,19,19,19,19,19,19,19,19,19,19,19,19,
19,19,19,19,19,19,19,19,19,19,19,19,19,19,19,19,
19,19,19,19,19,19,19,19,19,19,19,19,19,19,19,19,
19,19,19,19,19,19,19,19,19,19,19,19,19,19,19,19,
19,19,19,19,19,19,19,19,19,19,19,19,19,19,19,19,
19,19,19,19,19,19,19,19,19,19,19,19,19,19,19,19,
19,19,19,19,19,19,19,19,19,19,19,19,19,19,19,19,
19,19,19,19,19,19,19,19,19,19,19,19,19,19,19,19,
19,19,19,19,19,19,19,19,19,19,19,19,19,19,19,19
</chunk>
   <chunk x="160" y="0" width="16" height="16">
19,19,19,19,19,19,19,19,19,19,19,19,19,19,19,19,
19,19,19,19,19,19,19,19,19,19,19,19,19,19,19,19,
19,19,19,19,19,19,19,19,19,19,19,19,19,19,19,19,
19,19,19,19,19,19,19,19,19,19,19,19,19,19,19,19,
19,19,19,19,19,19,19,19,19,19,19,19,19,19,19,19,
19,19,19,19,19,19,19,19,19,19,19,19,19,19,19,19,
19,19,19,19,19,19,19,19,19,19,19,19,19,19,19,19,
19,19,19,19,19,19,19,19,19,19,19,19,19,19,19,19,
19,19,19,19,19,19,19,19,19,19,19,19,19,19,19,19,
19,19,19,19,19,19,19,19,19,19,19,19,19,19,19,19,
19,19,19,19,19,19,19,19,19,19,19,19,19,19,19,19,
19,19,19,19,19,19,19,19,19,19,19,19,19,19,19,19,
19,19,19,19,19,19,19,19,19,19,19,19,19,19,19,19,
19,19,19,19,19,19,19,19,19,19,19,19,19,19,19,19,
19,19,19,19,19,19,19,19,19,19,19,19,19,19,19,19,
19,19,19,19,19,19,19,19,19,19,19,19,19,19,19,19
</chunk>
   <chunk x="176" y="0" width="16" height="16">
19,19,19,19,19,19,19,19,19,19,19,19,19,19,19,19,
19,19,19,19,19,19,19,19,19,19,19,19,19,19,19,19,
19,19,19,19,19,19,19,19,19,19,19,19,19,19,19,19,
19,19,19,19,19,19,19,19,19,19,19,19,19,19,19,19,
19,19,19,19,19,19,19,19,19,19,19,19,19,19,19,19,
19,19,19,19,19,19,19,19,19,19,19,19,19,19,19,19,
19,19,19,19,19,19,19,19,19,19,19,19,19,19,19,19,
19,19,19,19,19,19,19,19,19,19,19,19,19,19,19,19,
19,19,19,19,19,19,19,19,19,19,19,19,19,19,19,19,
19,19,19,19,19,19,19,19,19,19,19,19,19,19,19,19,
19,19,19,19,19,19,19,19,19,19,19,19,19,19,19,19,
19,19,19,19,19,19,19,19,19,19,19,19,19,19,19,19,
19,19,19,19,19,19,19,19,19,19,19,19,19,19,19,19,
19,19,19,19,19,19,19,19,19,19,19,19,19,19,19,19,
19,19,19,19,19,19,19,19,19,19,19,19,19,19,19,19,
19,19,19,19,19,19,19,19,19,19,19,19,19,19,19,19
</chunk>
   <chunk x="192" y="0" width="16" height="16">
19,19,19,19,19,19,19,19,19,19,19,19,19,19,19,19,
19,19,19,19,19,19,19,19,19,19,19,19,19,19,19,19,
19,19,19,19,19,19,19,19,19,19,19,19,19,19,19,19,
19,19,19,19,19,19,19,19,19,19,19,19,19,19,19,19,
19,19,19,19,19,19,19,19,19,19,19,19,19,19,19,19,
19,19,19,19,19,19,19,19,19,19,19,19,19,19,19,19,
19,19,19,19,19,19,19,19,19,19,19,19,19,19,19,19,
19,19,19,19,19,19,19,19,19,19,19,19,19,19,19,19,
19,19,19,19,19,19,19,19,19,19,19,19,19,19,19,19,
19,19,19,19,19,19,19,19,19,19,19,19,19,19,19,19,
19,19,19,19,19,19,19,19,19,19,19,19,19,19,19,19,
19,19,19,19,19,19,19,19,19,19,19,19,19,19,19,19,
19,19,19,19,19,19,19,19,19,19,19,19,19,19,19,19,
19,19,19,19,19,19,19,19,19,19,19,19,19,19,19,19,
19,19,19,19,19,19,19,19,19,19,19,19,19,19,19,19,
19,19,19,19,19,19,19,19,19,19,19,19,19,19,19,19
</chunk>
   <chunk x="208" y="0" width="16" height="16">
19,19,19,19,19,19,19,19,19,19,19,19,19,19,19,19,
19,19,19,19,19,19,19,19,19,19,19,19,19,19,19,19,
19,19,19,19,19,19,19,19,19,19,19,19,19,19,19,19,
19,19,19,19,19,19,19,19,19,19,19,19,19,19,19,19,
19,19,19,19,19,19,19,19,19,19,19,19,19,19,19,19,
19,19,19,19,19,19,19,19,19,19,19,19,19,19,19,19,
19,19,19,19,19,19,19,19,19,19,19,19,19,19,19,19,
19,19,19,19,19,19,19,19,19,19,19,19,19,19,19,19,
19,19,19,19,19,19,19,19,19,19,19,19,19,19,19,19,
19,19,19,19,19,19,19,19,19,19,19,19,19,19,19,19,
19,19,19,19,19,19,19,19,19,19,19,19,19,19,19,19,
19,19,19,19,19,19,19,19,19,19,19,19,19,19,19,19,
19,19,19,19,19,19,19,19,19,19,19,19,19,19,19,19,
19,19,19,19,19,19,19,19,19,19,19,19,19,19,19,19,
19,19,19,19,19,19,19,19,19,19,19,19,19,19,19,19,
19,19,19,19,19,19,19,19,19,19,19,19,19,19,19,19
</chunk>
   <chunk x="224" y="0" width="16" height="16">
19,19,19,19,19,19,19,19,19,19,19,19,19,19,19,19,
19,19,19,19,19,19,19,19,19,19,19,19,19,19,19,19,
19,19,19,19,19,19,19,19,19,19,19,19,19,19,19,19,
19,19,19,19,19,19,19,19,19,19,19,19,19,19,19,19,
19,19,19,19,19,19,19,19,19,19,19,19,19,19,19,19,
19,19,19,19,19,19,19,19,19,19,19,19,19,19,19,19,
19,19,19,19,19,19,19,19,19,19,19,19,19,19,19,19,
19,19,19,19,19,19,19,19,19,19,19,19,19,19,19,19,
19,19,19,19,19,19,19,19,19,19,19,19,19,19,19,19,
19,19,19,19,19,19,19,19,19,19,0,0,0,0,0,0,
19,19,19,19,19,19,19,19,19,0,0,0,0,0,0,0,
19,19,19,19,19,19,19,19,19,0,0,0,0,0,0,0,
19,19,19,19,19,19,19,0,0,0,0,0,0,0,0,0,
19,19,19,19,19,19,0,0,0,0,0,0,0,0,0,0,
19,19,19,19,19,19,0,0,0,0,0,0,0,0,0,0,
19,19,19,19,0,0,0,0,0,0,0,0,0,0,0,0
</chunk>
   <chunk x="240" y="0" width="16" height="16">
19,19,19,19,19,19,19,19,19,19,19,19,19,19,19,19,
19,19,19,19,19,19,19,19,19,19,19,19,19,19,19,19,
19,19,19,19,19,19,19,19,19,19,19,19,19,19,19,19,
19,19,19,19,19,19,19,19,19,19,19,19,19,19,19,19,
19,19,19,19,19,19,19,19,19,19,19,19,19,19,19,0,
19,19,19,19,19,19,19,19,19,19,19,19,19,19,19,0,
19,19,19,19,19,19,19,19,19,19,19,19,19,0,0,0,
19,19,19,19,19,19,19,19,19,19,19,19,0,0,0,0,
19,19,19,19,19,19,19,19,19,19,19,19,0,0,0,0,
0,0,0,0,0,0,0,0,0,0,0,0,0,0,0,0,
0,0,0,0,0,0,0,0,0,0,0,0,0,0,0,0,
0,0,0,0,0,0,0,0,0,0,0,0,0,0,0,0,
0,0,0,0,0,0,0,0,0,0,0,0,0,0,0,0,
0,0,0,0,0,0,0,0,0,0,0,0,0,0,0,0,
0,0,0,0,0,0,0,0,0,0,0,0,0,0,0,0,
0,0,0,0,0,0,0,0,0,0,0,0,0,0,0,0
</chunk>
   <chunk x="256" y="0" width="16" height="16">
19,19,19,19,0,0,0,0,0,0,0,0,0,0,0,0,
19,19,19,19,0,0,0,0,0,0,0,0,0,0,0,0,
19,0,0,0,0,0,0,0,0,0,0,0,0,0,0,0,
19,0,0,0,0,0,0,0,0,0,0,0,0,0,0,0,
0,0,0,0,0,0,0,0,0,0,0,0,0,0,0,0,
0,0,0,0,0,0,0,0,0,0,0,0,0,0,0,0,
0,0,0,0,0,0,0,0,0,0,0,0,0,0,0,0,
0,0,0,0,0,0,0,0,0,0,0,0,0,0,0,0,
0,0,0,0,0,0,0,0,0,0,0,0,0,0,0,0,
0,0,0,0,0,0,0,0,0,0,0,0,0,0,0,0,
0,0,0,0,0,0,0,0,0,0,0,0,0,0,0,0,
0,0,0,0,0,0,0,0,0,0,0,0,0,0,0,0,
0,0,0,0,0,0,0,0,0,0,0,0,0,0,0,0,
0,0,0,0,0,0,0,0,0,0,0,0,0,0,0,0,
0,0,0,0,0,0,0,0,0,0,0,0,0,0,0,0,
0,0,0,0,0,0,0,0,0,0,0,0,0,0,0,0
</chunk>
   <chunk x="16" y="16" width="16" height="16">
0,0,0,0,0,0,19,19,19,19,19,19,19,19,19,19,
0,0,0,0,0,0,19,19,19,19,19,19,19,19,19,19,
0,0,0,0,0,0,19,19,19,19,19,19,19,19,19,19,
0,0,0,0,0,0,0,0,0,0,0,0,0,0,0,19,
0,0,0,0,0,0,0,0,0,0,0,0,0,0,0,19,
0,0,0,0,0,0,0,0,0,0,0,0,0,0,0,19,
0,0,0,0,0,0,0,0,0,0,0,0,0,0,0,19,
0,0,0,0,0,0,0,0,0,0,0,0,0,0,0,19,
0,0,0,0,0,0,0,0,0,0,0,0,0,0,0,0,
0,0,0,0,0,0,0,0,0,0,0,0,0,0,0,0,
0,0,0,0,0,0,0,0,0,0,0,0,0,0,0,0,
0,0,0,0,0,0,0,0,0,0,0,0,0,0,0,0,
0,0,0,0,0,0,0,0,0,0,0,0,0,0,0,0,
0,0,0,0,0,0,0,0,0,0,0,0,0,0,0,0,
0,0,0,0,0,0,0,0,0,0,0,0,0,0,0,0,
0,0,0,0,0,0,0,0,0,0,0,0,0,0,0,0
</chunk>
   <chunk x="32" y="16" width="16" height="16">
19,19,19,19,19,19,19,19,19,19,19,19,19,19,19,19,
19,19,19,19,19,19,19,19,19,19,19,19,19,19,19,19,
19,19,19,19,19,19,19,19,19,19,19,19,19,19,19,19,
19,19,19,19,19,19,19,19,19,19,19,19,19,19,19,19,
19,19,19,19,19,19,19,19,19,19,19,19,19,19,19,19,
19,19,19,19,19,19,19,19,19,19,19,19,19,19,19,19,
19,19,19,19,19,19,19,19,19,19,19,19,19,19,19,19,
19,19,19,19,19,19,19,19,19,19,19,19,19,19,19,19,
0,0,19,19,19,19,19,19,19,19,19,19,19,19,19,19,
0,0,0,0,0,19,19,19,19,19,19,19,19,19,19,19,
0,0,0,0,0,19,19,19,19,19,19,19,19,19,19,19,
0,0,0,0,0,0,19,19,19,19,19,19,19,19,19,19,
0,0,0,0,0,0,19,19,19,19,19,19,19,19,19,19,
0,0,0,0,0,0,19,19,19,19,19,19,19,19,19,19,
0,0,0,0,0,0,19,19,19,19,19,19,19,19,19,19,
0,0,0,0,0,0,19,19,19,19,19,19,19,19,19,19
</chunk>
   <chunk x="48" y="16" width="16" height="16">
19,19,19,19,19,19,19,19,19,19,19,19,19,19,19,19,
19,19,19,19,19,19,19,19,19,19,19,19,19,19,19,19,
19,19,19,19,19,19,19,19,19,19,19,19,19,19,19,19,
19,19,19,19,19,19,19,19,19,19,19,19,19,19,19,19,
19,19,19,19,19,19,19,19,19,19,19,19,19,19,19,19,
19,19,19,19,19,19,19,19,19,19,19,19,19,19,19,19,
19,19,19,19,19,19,19,19,19,19,19,19,19,19,19,19,
19,19,19,19,19,19,19,19,19,19,19,19,19,19,19,19,
19,19,19,19,19,19,19,19,19,19,19,19,19,19,19,19,
19,19,19,19,19,19,19,19,19,19,19,19,19,19,19,19,
19,19,19,19,19,19,19,19,19,19,19,19,19,19,19,19,
19,19,19,19,19,19,19,19,19,19,19,19,19,19,19,19,
19,19,19,19,19,19,19,19,19,19,19,19,19,19,19,19,
19,19,19,19,19,19,19,19,19,19,19,19,19,19,19,19,
19,19,19,19,19,19,19,19,19,19,19,19,19,19,19,19,
19,19,19,19,19,19,19,19,19,19,19,19,19,19,19,19
</chunk>
   <chunk x="64" y="16" width="16" height="16">
19,19,19,19,19,19,19,19,19,19,19,19,19,19,19,19,
19,19,19,19,19,19,19,19,19,19,19,19,19,19,19,19,
19,19,19,19,19,19,19,19,19,19,19,19,19,19,19,19,
19,19,19,19,19,19,19,19,19,19,19,19,19,19,19,19,
19,19,19,19,19,19,19,19,19,19,19,19,19,19,19,19,
19,19,19,19,19,19,19,19,19,19,19,19,19,19,19,19,
19,19,19,19,19,19,19,19,19,19,19,19,19,19,19,19,
19,19,19,19,19,19,19,19,19,19,19,19,19,19,19,19,
19,19,19,19,19,19,19,19,19,19,19,19,19,19,19,19,
19,19,19,19,19,19,19,19,19,19,19,19,19,19,19,19,
19,19,19,19,19,19,19,19,19,19,19,19,19,19,19,19,
19,19,19,19,19,19,19,19,19,19,19,19,19,19,19,19,
19,19,19,19,19,19,19,19,0,0,0,0,0,0,0,0,
19,19,19,19,19,19,19,19,0,0,0,0,0,0,0,0,
19,19,19,19,19,19,19,19,0,0,0,0,0,0,0,0,
19,19,19,19,19,19,19,19,0,0,0,0,0,0,0,0
</chunk>
   <chunk x="80" y="16" width="16" height="16">
19,19,19,19,19,19,19,19,19,19,19,19,19,19,19,19,
19,19,19,19,19,19,19,19,19,19,19,19,19,19,19,19,
19,19,19,19,19,19,19,19,19,19,19,19,19,19,19,19,
19,19,19,19,19,19,19,19,19,19,19,19,19,19,19,19,
19,19,19,19,19,19,19,19,19,19,19,19,19,19,19,19,
19,19,19,19,19,19,19,19,19,19,19,19,19,19,19,19,
19,19,19,19,19,19,19,19,19,19,19,19,19,19,19,19,
19,19,19,19,19,19,19,19,19,19,19,19,19,19,19,19,
19,19,19,19,19,19,19,19,19,19,19,19,19,19,19,19,
19,19,19,19,19,19,19,19,19,19,19,19,19,19,19,19,
19,19,19,19,19,19,19,19,19,19,19,19,19,19,19,19,
19,19,19,19,19,19,19,19,19,19,19,19,19,19,19,19,
0,0,0,19,19,19,19,19,19,19,19,19,19,19,19,19,
0,0,0,0,0,0,0,0,19,19,19,19,19,19,19,19,
0,0,0,0,0,0,0,0,0,0,0,0,0,0,0,0,
0,0,0,0,0,0,0,0,0,0,0,0,0,0,0,0
</chunk>
   <chunk x="96" y="16" width="16" height="16">
19,19,19,19,1,19,19,19,19,19,19,19,19,19,19,19,
19,19,19,19,19,19,19,19,19,19,19,19,19,19,19,19,
19,19,19,19,19,19,19,19,19,19,19,19,19,19,19,19,
19,19,19,19,19,19,19,19,19,19,19,19,19,0,0,0,
19,19,19,19,19,19,19,19,19,19,19,19,19,0,0,0,
19,19,19,19,19,19,19,19,19,19,19,19,19,0,0,0,
19,19,19,19,19,19,19,19,19,19,19,19,19,0,0,0,
19,19,19,19,19,19,19,19,19,19,19,19,19,0,0,0,
19,19,19,19,19,19,19,19,19,19,19,19,19,0,0,0,
19,19,19,19,19,19,19,19,19,19,19,19,19,0,0,0,
19,19,19,19,19,19,19,19,19,19,19,19,19,0,0,0,
19,19,19,19,19,19,19,19,19,19,19,19,19,0,0,0,
19,19,19,19,19,19,19,19,19,19,19,19,19,0,0,0,
19,19,19,19,19,19,19,19,19,19,19,19,19,0,0,0,
0,0,0,0,0,0,0,0,0,0,0,0,0,0,0,0,
0,0,0,0,0,0,0,0,0,0,0,0,0,0,0,0
</chunk>
   <chunk x="112" y="16" width="16" height="16">
19,19,0,0,0,0,0,0,0,0,0,0,0,0,0,0,
19,19,0,0,0,0,0,0,0,0,0,0,0,0,0,0,
19,19,0,0,0,0,0,0,0,0,0,0,0,0,0,0,
0,0,0,0,0,0,0,0,0,0,0,0,0,0,0,0,
0,0,0,0,0,0,0,0,0,0,0,0,0,0,0,0,
0,0,0,0,0,0,0,0,0,0,0,0,0,0,0,0,
0,0,0,0,0,0,0,0,0,0,0,0,0,0,0,0,
0,0,0,0,0,0,0,0,0,0,0,0,0,0,0,0,
0,0,0,0,0,0,0,0,0,0,0,0,0,0,0,0,
0,0,0,0,0,0,0,0,0,0,0,0,0,0,0,0,
0,0,0,0,0,0,0,0,0,0,0,0,0,0,0,0,
0,0,0,0,0,0,0,0,0,0,0,0,0,0,0,0,
0,0,0,0,0,0,0,0,0,0,0,0,0,0,0,0,
0,0,0,0,0,0,0,0,0,0,0,0,0,0,0,0,
0,0,0,0,0,0,0,0,0,0,0,0,0,0,0,0,
0,0,0,0,0,0,0,0,0,0,0,0,0,0,0,0
</chunk>
   <chunk x="32" y="32" width="16" height="16">
0,0,0,0,0,0,19,19,19,19,19,19,19,19,19,19,
0,0,0,0,0,0,19,19,19,19,19,19,19,19,19,19,
0,0,0,0,0,0,19,19,19,19,19,19,19,19,19,19,
0,0,0,0,0,0,0,0,19,19,19,19,19,19,19,19,
0,0,0,0,0,0,0,0,19,19,19,19,19,19,19,19,
0,0,0,0,0,0,0,0,0,0,19,19,19,19,19,19,
0,0,0,0,0,0,0,0,0,0,19,19,19,19,19,19,
0,0,0,0,0,0,0,0,0,0,19,19,19,19,19,19,
0,0,0,0,0,0,0,0,0,0,19,19,19,19,19,19,
0,0,0,0,0,0,0,0,0,0,19,19,19,19,19,19,
0,0,0,0,0,0,0,0,0,0,0,0,19,19,19,19,
0,0,0,0,0,0,0,0,0,0,0,0,0,0,0,0,
0,0,0,0,0,0,0,0,0,0,0,0,0,0,0,0,
0,0,0,0,0,0,0,0,0,0,0,0,0,0,0,0,
0,0,0,0,0,0,0,0,0,0,0,0,0,0,0,0,
0,0,0,0,0,0,0,0,0,0,0,0,0,0,0,0
</chunk>
   <chunk x="48" y="32" width="16" height="16">
19,19,19,19,19,19,19,19,19,19,19,19,19,19,19,19,
19,19,19,19,19,19,19,19,19,19,19,19,19,19,19,19,
19,19,19,19,19,19,19,19,19,19,19,19,19,19,19,19,
19,19,19,19,19,19,19,19,19,19,19,19,19,19,19,19,
19,19,19,19,19,19,19,19,19,19,19,19,19,19,19,19,
19,19,19,19,19,19,19,19,19,19,19,19,19,19,19,19,
19,19,19,19,19,19,19,19,19,19,19,19,19,19,19,19,
19,19,19,19,19,19,19,19,19,19,19,19,19,19,19,19,
19,19,19,19,19,19,19,19,19,19,19,19,19,19,19,19,
19,19,19,19,19,19,19,19,19,19,19,19,19,19,19,19,
19,19,19,19,19,19,19,19,19,19,19,19,19,19,19,19,
0,0,0,0,0,0,0,0,0,0,0,0,0,0,0,0,
0,0,0,0,0,0,0,0,0,0,0,0,0,0,0,0,
0,0,0,0,0,0,0,0,0,0,0,0,0,0,0,0,
0,0,0,0,0,0,0,0,0,0,0,0,0,0,0,0,
0,0,0,0,0,0,0,0,0,0,0,0,0,0,0,0
</chunk>
   <chunk x="64" y="32" width="16" height="16">
19,19,19,19,19,19,19,0,0,0,0,0,0,0,0,0,
19,19,19,19,0,0,0,0,0,0,0,0,0,0,0,0,
19,19,19,19,0,0,0,0,0,0,0,0,0,0,0,0,
19,19,19,19,0,0,0,0,0,0,0,0,0,0,0,0,
19,19,19,19,0,0,0,0,0,0,0,0,0,0,0,0,
19,19,19,19,0,0,0,0,0,0,0,0,0,0,0,0,
19,19,19,19,0,0,0,0,0,0,0,0,0,0,0,0,
19,19,19,19,0,0,0,0,0,0,0,0,0,0,0,0,
19,19,19,19,0,0,0,0,0,0,0,0,0,0,0,0,
19,19,19,0,0,0,0,0,0,0,0,0,0,0,0,0,
19,0,0,0,0,0,0,0,0,0,0,0,0,0,0,0,
0,0,0,0,0,0,0,0,0,0,0,0,0,0,0,0,
0,0,0,0,0,0,0,0,0,0,0,0,0,0,0,0,
0,0,0,0,0,0,0,0,0,0,0,0,0,0,0,0,
0,0,0,0,0,0,0,0,0,0,0,0,0,0,0,0,
0,0,0,0,0,0,0,0,0,0,0,0,0,0,0,0
</chunk>
  </data>
 </layer>
 <layer id="1" name="Kachelebene 1" width="36" height="32">
  <data encoding="csv">
   <chunk x="-32" y="-96" width="16" height="16">
0,0,0,0,0,0,0,0,0,0,0,0,0,0,0,0,
0,0,0,0,0,0,0,0,0,0,0,0,0,0,0,0,
0,0,0,0,0,0,0,0,0,0,0,0,0,0,0,0,
0,0,0,0,0,0,0,0,0,0,0,0,0,0,0,0,
0,0,0,0,0,0,0,0,0,0,0,0,0,0,0,0,
0,0,0,0,0,0,5,5,5,5,5,5,5,5,5,5,
0,0,0,0,0,0,5,5,5,5,5,5,5,5,5,5,
0,0,0,0,0,0,5,5,5,5,5,5,5,5,5,5,
0,0,0,0,0,0,5,5,5,5,5,5,5,5,5,5,
0,0,0,0,0,0,5,5,5,5,5,5,5,5,5,5,
0,0,0,0,0,0,5,5,5,5,5,5,5,5,5,5,
0,0,0,0,0,0,5,5,5,5,5,5,5,5,5,5,
0,0,0,0,0,0,5,5,5,5,5,5,5,5,5,5,
0,0,0,0,0,0,5,5,5,5,5,5,5,5,5,5,
0,0,0,0,0,0,5,5,5,5,5,5,5,5,5,5,
0,0,0,0,0,0,5,5,5,5,5,5,5,5,5,5
</chunk>
   <chunk x="-16" y="-96" width="16" height="16">
0,0,0,0,0,0,0,0,0,0,0,0,0,0,0,0,
0,0,0,0,0,0,0,0,0,0,0,0,0,0,0,0,
0,0,0,0,0,0,0,0,0,0,0,0,0,0,0,0,
0,0,0,0,0,0,0,0,0,0,0,0,0,0,0,0,
0,0,0,0,0,0,0,0,0,0,0,0,0,0,0,0,
5,5,0,0,0,0,0,0,0,0,0,0,0,0,0,0,
5,5,0,0,0,0,0,0,0,0,0,0,0,0,0,0,
5,5,0,0,0,0,0,0,0,0,0,0,0,0,0,0,
5,5,0,0,0,0,0,0,0,0,0,0,0,0,0,0,
5,5,0,0,0,0,0,0,0,0,0,0,0,0,0,0,
5,5,0,0,0,0,0,0,0,0,0,0,0,0,0,0,
5,5,0,0,0,0,0,0,0,0,0,0,0,0,0,0,
5,5,0,0,0,0,0,0,0,0,0,0,0,0,0,0,
5,5,0,0,0,0,0,0,0,0,0,0,0,0,0,0,
5,5,0,0,0,0,0,0,0,0,0,0,0,0,0,0,
5,5,0,0,0,0,0,0,0,0,0,0,0,0,0,0
</chunk>
   <chunk x="496" y="-96" width="16" height="16">
0,0,0,0,0,0,0,0,0,0,0,0,0,0,0,0,
0,0,0,0,0,0,0,0,0,0,0,0,0,0,0,0,
0,0,0,0,0,0,0,0,0,0,0,0,0,0,0,0,
0,0,0,0,0,0,0,0,0,0,0,0,0,0,0,0,
0,0,0,0,0,0,0,0,0,0,0,0,0,0,0,0,
0,0,0,0,0,0,0,0,0,0,0,0,0,0,0,0,
0,0,0,0,0,0,0,0,0,0,0,0,0,0,0,4,
0,0,0,0,0,0,0,0,0,0,0,0,0,0,0,4,
0,0,0,0,0,0,0,0,0,0,0,0,0,0,0,4,
0,0,0,0,0,0,0,0,0,0,0,0,0,0,0,4,
0,0,0,0,0,0,0,0,0,0,0,0,0,0,0,4,
0,0,0,0,0,0,0,0,0,0,0,0,0,0,0,4,
0,0,0,0,0,0,0,0,0,0,0,0,0,0,0,4,
0,0,0,0,0,0,0,0,0,0,0,0,0,0,0,4,
0,0,0,0,0,0,0,0,0,0,0,0,0,0,0,4,
0,0,0,0,0,0,0,0,0,0,0,0,0,0,0,4
</chunk>
   <chunk x="512" y="-96" width="16" height="16">
0,0,0,0,0,0,0,0,0,0,0,0,0,0,0,0,
0,0,0,0,0,0,0,0,0,0,0,0,0,0,0,0,
0,0,0,0,0,0,0,0,0,0,0,0,0,0,0,0,
0,0,0,0,0,0,0,0,0,0,0,0,0,0,0,0,
0,0,0,0,0,0,0,0,0,0,0,0,0,0,0,0,
0,0,0,0,0,0,0,0,0,0,0,0,0,0,0,0,
5,5,5,5,5,5,5,5,5,5,5,5,5,5,5,5,
5,5,5,5,5,5,5,5,5,5,5,5,5,5,5,5,
5,5,5,5,5,5,5,5,5,5,5,5,5,5,5,5,
5,5,5,5,5,5,5,5,5,5,5,5,5,5,5,5,
5,5,5,5,5,5,5,5,5,5,5,5,5,5,5,5,
5,5,5,5,5,5,5,5,5,5,5,5,5,5,5,5,
5,5,5,5,5,5,5,5,5,5,5,5,5,5,5,5,
5,5,5,5,5,5,5,5,5,5,5,5,5,5,5,5,
5,5,5,5,5,5,5,5,5,5,5,5,5,5,5,5,
5,5,5,5,5,5,5,5,5,5,5,5,5,5,5,5
</chunk>
   <chunk x="528" y="-96" width="16" height="16">
0,0,0,0,0,0,0,0,0,0,0,0,0,0,0,0,
0,0,0,0,0,0,0,0,0,0,0,0,0,0,0,0,
0,0,0,0,0,0,0,0,0,0,0,0,0,0,0,0,
0,0,0,0,0,0,0,0,0,0,0,0,0,0,0,0,
0,0,0,0,0,0,0,0,0,0,0,0,0,0,0,0,
0,0,0,0,0,0,0,0,0,0,0,0,0,0,0,0,
5,5,5,5,5,5,5,5,5,5,0,0,0,0,0,0,
5,5,5,5,5,5,5,5,5,5,0,0,0,0,0,0,
5,5,5,5,5,5,5,5,5,5,0,0,0,0,0,0,
5,5,5,5,5,5,5,5,5,5,0,0,0,0,0,0,
5,5,5,5,5,5,5,5,5,5,0,0,0,0,0,0,
5,5,5,5,5,5,5,5,5,5,0,0,0,0,0,0,
5,5,5,5,5,5,5,5,5,5,0,0,0,0,0,0,
5,5,5,5,5,5,5,5,5,5,0,0,0,0,0,0,
5,5,5,5,5,5,5,5,5,5,0,0,0,0,0,0,
5,5,5,5,5,5,5,5,5,5,0,0,0,0,0,0
</chunk>
   <chunk x="-32" y="-80" width="16" height="16">
0,0,0,0,0,0,5,5,5,5,5,5,5,5,5,5,
0,0,0,0,0,0,5,5,5,5,5,5,5,5,5,5,
0,0,0,0,0,0,5,5,5,5,5,5,5,5,5,5,
0,0,0,0,0,0,5,5,5,5,5,5,5,5,5,5,
0,0,0,0,0,0,5,5,5,5,5,5,5,5,5,5,
0,0,0,0,0,0,5,5,5,5,5,5,5,5,5,5,
0,0,0,0,0,0,5,5,5,5,5,5,5,5,5,5,
0,0,0,0,0,0,5,5,5,5,5,5,5,5,5,5,
0,0,0,0,0,0,5,5,5,5,5,5,5,5,5,5,
0,0,0,0,0,0,5,5,5,5,5,5,5,5,5,5,
0,0,0,0,0,0,5,5,5,5,5,5,5,5,5,5,
0,0,0,0,0,0,5,5,5,5,5,5,5,5,5,5,
0,0,0,0,0,0,5,5,5,5,5,5,5,5,5,5,
0,0,0,0,0,0,5,5,5,5,5,5,5,5,5,5,
0,0,0,0,0,0,5,5,5,5,5,5,5,5,5,5,
0,0,0,0,0,0,5,5,5,5,5,5,5,5,5,5
</chunk>
   <chunk x="-16" y="-80" width="16" height="16">
5,5,0,0,0,0,0,0,0,0,0,0,0,0,0,0,
5,5,0,0,0,0,0,0,0,0,0,0,0,0,0,0,
5,5,0,0,0,0,0,0,0,0,0,0,0,0,0,0,
5,5,0,0,0,0,0,0,0,0,0,0,0,0,0,0,
5,5,0,0,0,0,0,0,0,0,0,0,0,0,0,0,
5,5,0,0,0,0,0,0,0,0,0,0,0,0,0,0,
5,5,6,19,19,19,19,19,19,19,19,19,19,19,19,19,
5,5,6,19,19,19,19,19,19,19,19,19,19,19,19,19,
5,5,6,19,19,19,19,19,19,19,19,19,19,19,19,19,
5,5,6,19,19,19,19,19,19,19,19,19,19,19,19,19,
5,5,6,19,19,19,19,19,19,19,19,19,19,19,19,19,
5,5,6,19,19,19,19,19,19,19,19,19,19,19,19,19,
5,5,6,19,19,19,19,19,19,19,19,19,19,19,19,19,
5,5,6,19,19,19,19,19,19,19,19,19,19,19,19,19,
5,5,6,19,19,19,19,19,19,19,19,19,19,19,19,19,
5,5,6,19,19,19,19,19,19,19,19,19,19,19,19,19
</chunk>
   <chunk x="0" y="-80" width="16" height="16">
0,0,0,0,0,0,0,0,0,0,0,0,0,0,0,0,
0,0,0,0,0,0,0,0,0,0,0,0,0,0,0,0,
0,0,0,0,0,0,0,0,0,0,0,0,0,0,0,0,
0,0,0,0,0,0,0,0,0,0,0,0,0,0,0,0,
0,0,0,0,0,0,0,0,0,0,0,0,0,0,0,0,
0,0,0,0,0,0,0,0,0,0,0,0,0,0,0,0,
19,19,19,19,19,19,19,19,19,0,0,0,0,0,0,0,
19,19,19,19,19,19,19,19,19,0,0,0,0,0,0,0,
19,19,19,19,19,19,19,19,19,0,0,0,0,0,0,0,
19,19,19,19,19,19,19,19,19,0,0,0,0,0,0,0,
19,19,19,19,19,19,19,19,19,0,0,0,0,0,0,0,
19,19,19,19,19,19,19,19,19,0,0,0,0,0,0,0,
19,19,19,19,19,19,19,19,19,0,0,0,0,0,0,0,
19,19,19,19,19,19,19,19,19,0,0,0,0,0,0,0,
19,19,19,19,19,19,19,19,19,0,0,0,0,0,0,0,
19,19,19,19,19,19,19,19,19,0,0,0,0,0,0,0
</chunk>
   <chunk x="432" y="-80" width="16" height="16">
0,0,0,0,0,0,0,0,0,0,0,0,0,0,0,0,
0,0,0,0,0,0,0,0,0,0,0,0,0,0,0,0,
0,0,0,0,0,0,0,0,0,0,0,0,0,0,0,0,
0,0,0,0,0,0,0,0,0,0,0,0,0,0,0,0,
0,0,0,0,0,0,0,0,0,0,0,0,0,0,0,0,
0,0,0,0,0,0,0,0,0,0,0,0,0,0,0,0,
0,0,0,0,0,0,0,0,0,0,0,0,0,0,0,0,
0,0,0,0,0,0,0,0,0,0,0,0,0,0,0,0,
0,0,0,0,0,0,0,0,0,0,0,0,0,0,0,0,
0,0,0,0,0,0,0,0,0,0,0,0,0,0,0,0,
0,0,0,0,0,0,0,0,0,0,0,0,0,0,0,0,
0,0,0,0,0,0,0,0,0,0,0,0,0,0,0,0,
0,0,0,0,0,0,0,0,0,0,0,0,0,0,0,0,
0,0,0,0,0,0,0,0,0,0,0,0,0,0,0,0,
0,0,0,0,0,0,0,0,0,0,0,0,0,27,0,0,
0,0,0,0,0,0,0,0,0,0,0,0,0,0,0,0
</chunk>
   <chunk x="496" y="-80" width="16" height="16">
0,0,0,0,0,0,0,0,0,0,0,0,0,0,0,4,
0,0,0,0,0,0,0,0,0,0,0,0,0,0,0,4,
0,0,0,0,0,0,0,0,0,0,0,0,0,0,0,4,
0,0,0,0,0,0,0,0,0,0,0,0,0,0,0,4,
0,0,0,0,0,0,0,0,0,0,0,0,0,0,0,4,
0,0,0,0,0,0,0,0,0,0,0,0,0,0,0,4,
0,0,0,0,0,0,0,0,0,0,0,0,0,0,0,4,
0,0,0,0,0,0,0,0,0,0,0,0,0,0,0,4,
0,0,0,0,0,0,0,0,0,0,0,0,0,0,0,4,
0,0,0,0,0,0,0,0,0,0,0,0,0,0,0,4,
0,0,0,0,0,0,0,0,0,0,0,0,0,0,0,4,
0,0,0,0,0,0,0,0,0,0,0,0,0,0,0,4,
0,0,0,0,0,0,0,0,0,0,0,0,0,0,0,4,
0,0,0,0,0,0,0,0,0,0,0,0,0,0,0,4,
0,0,0,0,0,0,0,0,0,0,0,0,0,0,0,4,
0,0,0,0,0,0,0,0,0,0,0,0,0,0,0,4
</chunk>
   <chunk x="512" y="-80" width="16" height="16">
5,5,5,5,5,5,5,5,5,5,5,5,5,5,5,5,
5,5,5,5,5,5,5,5,5,5,5,5,5,5,5,5,
5,5,5,5,5,5,5,5,5,5,5,5,5,5,5,5,
5,5,5,5,5,5,5,5,5,5,5,5,5,5,5,5,
5,5,5,5,5,5,5,5,5,5,5,5,5,5,5,5,
5,5,5,5,5,5,5,5,5,5,5,5,5,5,5,5,
5,5,5,5,5,5,5,5,5,5,5,5,5,5,5,5,
5,5,5,5,5,5,5,5,5,5,5,5,5,5,5,5,
5,5,5,5,5,5,5,5,5,5,5,5,5,5,5,5,
5,5,5,5,5,5,5,5,5,5,5,5,5,5,5,5,
5,5,5,5,5,5,5,5,5,5,5,5,5,5,5,5,
5,5,5,5,5,5,5,5,5,5,5,5,5,5,5,5,
5,5,5,5,5,5,5,5,5,5,5,5,5,5,5,5,
5,5,5,5,5,5,5,5,5,5,5,5,5,5,5,5,
5,5,5,5,5,5,5,5,5,5,5,5,5,5,5,5,
5,5,5,5,5,5,5,5,5,5,5,5,5,5,5,5
</chunk>
   <chunk x="528" y="-80" width="16" height="16">
5,5,5,5,5,5,5,5,5,5,0,0,0,0,0,0,
5,5,5,5,5,5,5,5,5,5,0,0,0,0,0,0,
5,5,5,5,5,5,5,5,5,5,0,0,0,0,0,0,
5,5,5,5,5,5,5,5,5,5,0,0,0,0,0,0,
5,5,5,5,5,5,5,5,5,5,0,0,0,0,0,0,
5,5,5,5,5,5,5,5,5,5,0,0,0,0,0,0,
5,5,5,5,5,5,5,5,5,5,0,0,0,0,0,0,
5,5,5,5,5,5,5,5,5,5,0,0,0,0,0,0,
5,5,5,5,5,5,5,5,5,5,0,0,0,0,0,0,
5,5,5,5,5,5,5,5,5,5,0,0,0,0,0,0,
5,5,5,5,5,5,5,5,5,5,0,0,0,0,0,0,
5,5,5,5,5,5,5,5,5,5,0,0,0,0,0,0,
5,5,5,5,5,5,5,5,5,5,0,0,0,0,0,0,
5,5,5,5,5,5,5,5,5,5,0,0,0,0,0,0,
5,5,5,5,5,5,5,5,5,5,0,0,0,0,0,0,
5,5,5,5,5,5,5,5,5,5,0,0,0,0,0,0
</chunk>
   <chunk x="-32" y="-64" width="16" height="16">
0,0,0,0,0,0,5,5,5,5,5,5,5,5,5,5,
0,0,0,0,0,0,5,5,5,5,5,5,5,5,5,5,
0,0,0,0,0,0,5,5,5,5,5,5,5,5,5,5,
0,0,0,0,0,0,5,5,5,5,5,5,5,5,5,5,
0,0,0,0,0,0,5,5,5,5,5,5,5,5,5,5,
0,0,0,0,0,0,5,5,5,5,5,5,5,5,5,5,
0,0,0,0,0,0,5,5,5,5,5,5,5,5,5,5,
0,0,0,0,0,0,5,5,5,5,5,5,5,5,5,5,
0,0,0,0,0,0,5,5,5,5,5,5,5,5,5,5,
0,0,0,0,0,0,5,5,5,5,5,5,5,5,5,5,
0,0,0,0,0,0,5,5,5,5,5,5,5,5,5,5,
0,0,0,0,0,0,5,5,5,5,5,5,5,5,5,5,
0,0,0,0,0,0,5,5,5,5,5,5,5,5,5,5,
0,0,0,0,0,0,5,5,5,5,5,5,5,5,5,5,
0,0,0,0,0,0,5,5,5,5,5,5,5,5,5,5,
0,0,0,0,0,0,5,5,5,5,5,5,5,5,5,5
</chunk>
   <chunk x="-16" y="-64" width="16" height="16">
5,5,6,19,19,19,19,19,19,19,19,19,19,19,19,19,
5,5,6,19,19,19,19,19,19,19,19,19,19,19,19,19,
5,5,6,19,19,19,19,19,19,19,19,19,19,19,19,19,
5,5,6,19,19,19,19,19,19,19,19,19,19,19,19,19,
5,5,6,19,19,19,19,19,19,19,19,19,19,19,19,19,
5,5,6,19,19,19,19,19,19,19,19,19,19,19,19,19,
5,5,6,19,19,19,19,19,19,19,19,19,19,19,19,19,
5,5,6,19,19,19,19,19,19,19,19,19,19,19,19,19,
5,5,6,19,19,19,19,19,19,19,19,19,19,19,19,19,
5,5,6,19,19,19,19,19,19,19,19,19,19,19,19,19,
5,5,6,19,19,19,19,19,19,19,19,19,19,19,19,19,
5,5,6,19,19,19,19,19,19,19,19,19,19,19,19,19,
5,5,6,19,19,19,19,19,19,19,19,19,19,19,19,19,
5,5,6,19,19,19,19,19,19,19,19,19,19,19,19,19,
5,5,6,19,19,19,19,19,19,19,19,19,19,19,19,19,
5,5,6,19,19,19,19,19,19,19,19,19,19,19,19,19
</chunk>
   <chunk x="0" y="-64" width="16" height="16">
19,19,19,19,19,19,19,19,19,0,0,0,0,0,0,0,
19,19,19,19,19,19,19,19,19,0,0,0,0,0,0,0,
19,19,19,19,19,19,19,19,19,0,0,0,0,0,0,0,
19,19,19,19,19,19,19,19,19,0,0,0,0,0,0,0,
19,19,19,19,19,19,19,19,19,0,0,0,0,0,0,0,
19,19,19,19,19,19,19,19,19,0,0,0,0,0,0,0,
19,19,19,19,19,19,19,19,19,0,0,0,0,0,0,0,
19,19,19,19,19,19,19,19,19,0,0,0,0,0,0,0,
19,19,19,19,19,19,19,19,19,0,0,0,0,0,0,0,
19,19,19,19,19,19,19,19,19,0,0,0,0,0,0,0,
19,19,19,19,19,19,19,19,19,0,0,0,0,0,0,0,
19,19,19,19,19,19,19,19,19,0,0,0,0,0,0,0,
19,19,19,19,19,19,19,19,19,0,0,0,0,0,0,0,
19,19,19,19,19,19,19,19,19,0,0,0,0,0,0,0,
19,19,19,19,19,19,19,19,19,0,0,0,0,0,0,0,
19,19,19,19,19,19,19,19,19,0,0,0,0,0,0,0
</chunk>
   <chunk x="320" y="-64" width="16" height="16">
0,0,0,0,0,0,0,0,0,0,0,0,0,0,0,0,
0,0,0,0,0,0,0,0,0,0,0,0,0,0,0,0,
0,0,0,0,0,0,0,0,0,0,0,0,0,0,0,0,
0,0,0,0,0,0,0,0,0,0,0,0,0,0,0,0,
0,0,0,0,0,0,0,0,0,0,0,0,0,0,0,0,
0,0,0,0,0,0,0,0,0,0,0,0,0,0,0,0,
0,0,0,0,0,0,0,0,0,0,0,0,0,0,0,0,
0,0,0,0,0,0,0,0,0,0,0,0,0,0,0,0,
0,0,0,0,0,0,0,0,0,0,0,0,0,0,0,0,
0,0,0,0,0,0,0,0,0,0,0,0,0,0,0,0,
0,0,0,0,0,0,0,0,0,0,0,0,0,0,0,0,
0,0,0,0,0,0,0,0,0,0,0,0,0,0,0,0,
0,0,0,0,0,0,0,0,0,0,0,0,0,0,0,0,
0,0,0,0,0,0,0,0,0,0,0,0,0,0,0,0,
0,0,0,0,0,0,0,0,0,0,0,0,0,0,0,0,
0,0,0,0,0,0,0,0,0,0,0,0,23,0,0,0
</chunk>
   <chunk x="336" y="-64" width="16" height="16">
0,0,0,0,0,0,0,0,0,25,0,0,0,0,0,0,
0,0,0,0,0,0,0,0,0,0,0,0,0,0,0,0,
0,0,0,0,0,0,0,0,0,0,0,0,0,0,0,0,
0,0,0,0,0,0,0,0,0,0,0,0,0,0,0,0,
0,0,0,0,0,0,0,0,0,0,0,22,0,0,0,0,
0,0,0,0,0,0,0,0,0,0,0,0,0,0,0,0,
0,0,0,0,0,0,0,0,0,0,0,0,0,0,0,0,
0,0,0,0,0,20,0,0,0,0,0,0,0,0,0,0,
0,0,0,0,0,0,0,0,0,0,0,27,0,0,0,0,
0,0,0,0,0,0,0,0,0,0,0,0,0,0,0,0,
0,0,0,0,0,27,0,0,0,0,0,0,0,0,0,0,
0,0,0,0,0,0,0,0,0,0,0,0,0,0,0,0,
0,0,0,0,0,0,0,0,0,0,0,0,0,0,0,0,
0,0,0,0,0,0,0,0,0,0,0,0,0,0,0,25,
0,0,0,0,0,0,0,0,0,0,0,0,0,0,0,0,
20,0,0,0,0,0,26,0,0,0,0,0,0,0,0,0
</chunk>
   <chunk x="352" y="-64" width="16" height="16">
0,0,0,0,0,0,0,0,0,0,0,0,0,0,0,0,
0,0,0,0,0,0,0,0,0,0,0,0,0,0,0,0,
0,0,0,0,0,0,0,0,0,0,0,0,0,0,0,0,
0,0,0,0,0,0,0,0,0,0,0,0,0,0,0,0,
0,0,0,0,0,0,0,0,0,0,0,0,0,0,0,0,
0,0,0,0,27,0,0,0,0,0,0,0,0,0,0,0,
0,0,0,0,0,0,0,0,0,0,0,0,20,0,0,0,
0,0,0,0,0,0,0,0,0,0,0,0,0,0,0,0,
0,0,0,0,20,0,0,0,0,0,0,0,0,0,0,0,
0,0,0,0,0,0,0,0,0,0,0,0,0,0,0,0,
0,0,0,0,0,0,0,0,0,0,0,0,0,0,0,0,
0,0,0,0,22,0,0,0,0,0,0,0,0,0,0,0,
0,0,0,0,0,0,0,0,0,0,0,0,0,0,0,0,
0,0,0,0,0,0,0,0,0,0,0,0,0,0,0,25,
0,0,0,0,0,0,20,0,0,0,0,0,0,0,0,0,
0,0,0,0,0,0,0,0,0,0,0,0,0,0,0,0
</chunk>
   <chunk x="368" y="-64" width="16" height="16">
0,0,0,0,0,20,0,0,0,0,0,0,25,0,0,0,
0,0,0,0,0,0,0,0,0,0,0,27,0,0,0,0,
0,0,26,0,0,0,0,0,0,0,0,0,0,0,0,0,
0,0,0,0,0,0,0,0,26,0,0,0,0,0,0,0,
0,0,0,0,0,0,0,0,0,0,0,0,0,0,22,0,
0,0,0,0,0,0,0,0,0,0,0,0,0,0,0,0,
0,0,0,0,0,0,0,0,0,0,0,0,0,0,0,0,
0,0,0,22,0,0,0,0,20,0,0,0,0,0,25,0,
0,0,0,0,0,0,0,0,0,0,0,0,0,0,27,0,
0,0,0,0,0,0,0,0,0,0,26,0,0,0,0,0,
0,0,0,0,0,0,0,0,27,0,0,0,0,0,0,0,
27,0,0,0,0,0,0,0,0,0,0,0,0,0,0,0,
0,0,0,0,0,0,0,0,0,0,0,0,0,0,0,0,
0,0,0,0,0,0,0,0,0,0,0,0,0,0,0,0,
0,0,0,0,0,0,0,0,0,20,0,0,0,0,0,0,
0,0,0,0,0,0,0,0,0,26,0,0,0,0,0,0
</chunk>
   <chunk x="384" y="-64" width="16" height="16">
0,0,22,0,0,0,0,0,0,0,0,0,0,0,0,0,
0,0,0,0,0,0,0,0,0,0,0,0,0,0,0,0,
0,0,0,0,0,0,0,0,0,0,0,0,0,0,0,0,
0,0,0,0,0,0,0,0,0,0,0,0,0,0,0,0,
0,0,0,0,0,0,0,0,0,0,0,0,0,0,0,0,
0,0,0,0,0,0,0,27,0,0,0,0,0,0,0,0,
0,0,0,0,0,0,0,0,0,0,0,0,0,0,0,20,
0,0,0,0,0,0,0,0,0,0,0,0,0,0,0,0,
0,0,0,0,0,0,0,0,0,0,0,0,0,0,0,0,
0,0,0,0,0,0,0,0,0,0,0,0,0,0,0,0,
0,0,0,0,0,0,0,0,0,0,0,0,0,0,0,0,
0,0,0,0,0,0,0,22,0,0,0,0,0,0,0,0,
0,0,0,0,0,0,0,0,0,0,0,0,0,0,0,0,
0,0,25,0,27,0,0,0,0,0,0,0,0,0,0,0,
0,0,0,0,0,0,0,0,0,20,0,0,0,0,0,0,
0,0,0,0,0,0,0,0,0,0,0,0,0,0,0,0
</chunk>
   <chunk x="400" y="-64" width="16" height="16">
0,0,0,0,0,27,0,0,0,0,0,0,0,0,0,0,
0,0,0,0,0,0,0,0,0,0,0,0,0,0,27,0,
0,0,0,0,0,26,0,0,0,0,0,0,0,0,0,0,
0,0,0,0,0,0,0,0,0,0,0,0,0,0,0,0,
0,0,0,0,0,0,0,0,0,0,0,0,0,0,0,0,
0,0,0,0,0,0,0,0,0,0,0,0,0,0,0,0,
0,0,0,0,0,0,0,0,0,0,0,0,0,0,0,0,
0,0,0,0,0,0,22,0,0,0,0,0,0,0,0,0,
0,0,0,0,0,0,0,0,0,0,0,0,0,0,0,0,
0,0,0,0,0,0,0,0,0,0,0,0,0,26,0,0,
0,0,0,0,0,0,0,0,0,0,0,0,0,0,0,0,
0,0,0,27,0,0,0,0,0,0,0,0,0,0,0,0,
0,0,0,0,0,0,0,0,0,0,0,0,0,0,0,0,
0,0,25,0,0,0,0,0,0,0,0,0,0,0,0,0,
0,0,0,0,0,0,0,0,0,0,0,0,20,0,0,0,
0,0,0,0,0,0,0,0,0,0,0,0,0,0,0,0
</chunk>
   <chunk x="416" y="-64" width="16" height="16">
0,0,0,0,0,22,0,0,0,0,0,0,0,0,0,0,
0,0,0,0,0,0,0,0,0,0,0,0,0,0,0,0,
0,0,0,0,0,0,0,0,0,0,0,0,0,0,0,0,
0,0,0,0,0,0,0,0,0,0,0,0,0,0,0,0,
0,0,0,0,0,0,0,0,0,0,0,0,20,0,0,0,
0,0,0,0,0,0,0,0,0,25,0,0,0,0,0,0,
0,0,0,0,0,0,0,0,0,0,0,0,0,0,0,0,
0,25,0,0,0,0,0,0,0,0,0,0,0,0,0,0,
0,0,0,0,0,0,0,0,0,0,0,0,0,0,0,0,
0,0,0,0,0,0,0,0,0,0,0,22,0,0,0,0,
0,0,0,0,0,0,0,0,0,0,0,0,0,0,0,0,
0,0,0,0,0,0,0,0,0,0,0,0,0,0,0,0,
0,0,0,0,0,20,0,0,0,0,0,0,0,0,0,0,
0,0,0,0,0,0,0,27,0,0,0,27,0,0,0,0,
0,0,0,0,0,0,0,0,0,0,0,0,0,0,0,0,
0,0,0,0,0,27,0,0,0,0,0,0,0,0,0,0
</chunk>
   <chunk x="432" y="-64" width="16" height="16">
0,0,0,0,0,0,0,0,0,0,0,0,0,0,0,0,
0,0,0,0,0,0,0,0,0,0,0,0,0,0,0,0,
0,0,0,0,0,0,0,0,0,0,0,0,0,0,0,0,
0,0,0,0,0,0,0,0,0,0,0,0,0,0,0,0,
0,0,0,0,0,0,27,0,0,0,0,0,0,0,0,0,
0,0,0,0,0,0,0,0,0,0,0,0,0,0,0,0,
0,0,0,0,0,0,0,0,0,0,0,0,0,0,0,0,
0,0,0,0,0,0,0,0,0,0,0,0,0,0,0,0,
0,0,0,0,0,0,0,0,0,0,0,0,0,0,0,0,
0,0,0,0,0,0,0,0,0,0,0,0,0,0,0,0,
0,0,0,0,27,0,0,0,0,0,0,0,0,0,0,0,
0,0,0,0,0,0,0,0,0,0,0,0,20,0,0,0,
0,0,0,0,0,0,0,0,0,0,0,0,0,0,0,0,
0,0,0,0,0,0,0,0,0,0,0,0,0,0,0,0,
0,0,0,0,0,0,0,0,0,0,0,0,0,0,0,0,
0,0,0,0,0,0,0,0,0,0,0,0,0,0,0,0
</chunk>
   <chunk x="448" y="-64" width="16" height="16">
0,0,0,0,0,0,0,0,0,0,0,0,0,0,0,0,
0,0,0,0,0,0,0,0,0,0,0,0,0,0,0,0,
0,0,0,0,0,0,0,0,0,0,0,0,0,0,0,0,
0,0,0,0,0,0,0,0,26,0,0,0,0,0,0,0,
0,0,0,0,0,20,0,0,0,0,0,0,0,0,0,0,
0,0,0,0,0,0,0,0,0,0,0,0,0,0,0,0,
0,0,0,0,0,0,0,0,0,0,0,27,0,0,0,0,
0,0,26,0,0,0,0,0,0,0,0,0,0,0,0,0,
0,0,0,0,0,0,0,0,0,0,0,0,0,0,0,0,
0,0,0,0,0,0,0,0,0,0,0,0,0,0,0,0,
0,0,0,0,0,0,0,0,0,0,0,0,0,0,0,0,
0,0,0,0,0,0,0,0,0,0,0,0,0,0,0,0,
0,0,0,22,0,0,0,0,0,0,0,0,0,0,25,0,
0,0,0,0,0,0,0,0,0,0,0,0,20,0,0,0,
0,0,0,0,0,0,0,0,0,0,26,0,0,0,0,0,
0,0,0,0,0,0,0,0,0,0,0,0,0,0,0,0
</chunk>
   <chunk x="464" y="-64" width="16" height="16">
0,0,0,0,0,0,0,0,0,0,0,0,0,0,0,0,
0,0,0,0,0,0,0,0,0,0,0,0,0,0,0,0,
0,0,0,0,0,0,0,0,0,0,0,0,0,0,0,0,
0,0,0,0,0,0,0,0,0,0,0,0,0,0,0,0,
0,0,0,0,0,0,0,0,0,0,0,0,0,27,0,0,
0,0,22,0,0,0,0,0,0,0,0,0,0,0,0,0,
25,0,0,0,0,0,0,0,0,0,0,0,0,0,0,0,
0,0,0,0,0,0,0,0,0,0,0,0,0,0,0,0,
0,0,0,0,0,0,0,0,0,0,0,27,0,0,0,0,
0,0,0,0,0,0,0,0,0,0,0,0,0,0,0,0,
0,0,22,0,0,0,0,0,0,0,0,0,0,0,0,0,
0,0,0,0,0,0,0,0,0,0,0,27,0,0,0,0,
0,0,0,0,0,0,0,0,0,0,0,0,0,0,0,26,
0,0,0,0,0,0,0,0,0,0,0,0,0,0,0,0,
0,0,27,0,0,0,0,0,0,0,0,0,0,0,0,0,
0,0,0,0,0,0,0,0,0,0,0,0,0,0,0,0
</chunk>
   <chunk x="480" y="-64" width="16" height="16">
0,0,0,0,0,0,0,0,0,0,0,0,0,0,0,0,
0,0,0,0,0,0,0,0,0,0,0,0,0,0,0,0,
0,0,0,0,0,0,0,0,0,0,0,0,0,0,0,0,
0,0,0,0,0,0,0,0,0,0,0,0,0,0,0,0,
0,0,0,0,0,0,0,0,0,0,0,0,0,0,0,0,
0,0,0,0,0,0,0,0,0,0,0,0,0,0,0,0,
0,0,0,0,0,0,0,0,0,0,0,0,0,0,0,0,
0,0,0,0,0,0,0,0,0,0,0,0,0,0,0,0,
0,0,0,0,0,0,0,0,0,26,0,0,0,0,0,0,
0,0,0,0,0,0,0,0,0,0,0,0,0,0,0,0,
0,0,0,0,0,0,0,0,0,0,0,0,0,0,0,0,
0,0,0,0,0,0,0,0,0,0,0,0,0,0,0,0,
0,0,0,20,0,0,0,0,0,0,0,0,0,0,0,0,
0,0,0,0,0,0,0,0,0,0,22,0,0,0,0,0,
0,0,0,0,0,0,0,0,0,0,0,0,0,0,0,0,
0,0,0,0,0,0,0,0,0,0,0,0,0,0,0,0
</chunk>
   <chunk x="496" y="-64" width="16" height="16">
0,0,0,0,0,0,0,0,0,0,0,0,0,0,0,4,
0,0,0,0,0,0,0,0,0,0,0,0,0,0,0,4,
0,0,0,0,0,0,0,0,0,0,0,0,0,0,0,4,
0,0,0,0,0,0,0,0,0,0,0,0,0,0,0,4,
0,0,0,0,0,0,0,0,0,0,0,0,0,0,0,4,
0,0,0,0,0,0,0,0,0,0,0,0,0,0,0,4,
0,0,0,0,0,0,0,0,0,22,0,0,0,0,0,4,
0,0,27,0,0,0,0,0,0,0,0,0,0,0,0,4,
0,0,0,0,0,0,0,0,0,0,0,0,0,0,0,4,
0,0,0,0,0,0,0,0,0,0,0,0,0,0,0,4,
0,0,0,0,26,26,0,0,0,0,0,0,0,0,0,4,
0,0,0,0,0,0,0,0,0,0,0,0,0,0,0,4,
0,0,0,0,0,0,0,0,0,0,0,0,0,0,0,4,
0,0,0,0,0,25,0,20,0,0,0,0,0,0,0,4,
0,0,0,0,0,0,0,0,0,0,0,0,0,0,0,4,
0,26,0,0,0,0,0,0,0,0,0,0,0,0,0,4
</chunk>
   <chunk x="512" y="-64" width="16" height="16">
5,5,5,5,5,5,5,5,5,5,5,5,5,5,5,5,
5,5,5,5,5,5,5,5,5,5,5,5,5,5,5,5,
5,5,5,5,5,5,5,5,5,5,5,5,5,5,5,5,
5,5,5,5,5,5,5,5,5,5,5,5,5,5,5,5,
5,5,5,5,5,5,5,5,5,5,5,5,5,5,5,5,
5,5,5,5,5,5,5,5,5,5,5,5,5,5,5,5,
5,5,5,5,5,5,5,5,5,5,5,5,5,5,5,5,
5,5,5,5,5,5,5,5,5,5,5,5,5,5,5,5,
5,5,5,5,5,5,5,5,5,5,5,5,5,5,5,5,
5,5,5,5,5,5,5,5,5,5,5,5,5,5,5,5,
5,5,5,5,5,5,5,5,5,5,5,5,5,5,5,5,
5,5,5,5,5,5,5,5,5,5,5,5,5,5,5,5,
5,5,5,5,5,5,5,5,5,5,5,5,5,5,5,5,
5,5,5,5,5,5,5,5,5,5,5,5,5,5,5,5,
5,5,5,5,5,5,5,5,5,5,5,5,5,5,5,5,
5,5,5,5,5,5,5,5,5,5,5,5,5,5,5,5
</chunk>
   <chunk x="528" y="-64" width="16" height="16">
5,5,5,5,5,5,5,5,5,5,0,0,0,0,0,0,
5,5,5,5,5,5,5,5,5,5,0,0,0,0,0,0,
5,5,5,5,5,5,5,5,5,5,0,0,0,0,0,0,
5,5,5,5,5,5,5,5,5,5,0,0,0,0,0,0,
5,5,5,5,5,5,5,5,5,5,0,0,0,0,0,0,
5,5,5,5,5,5,5,5,5,5,0,0,0,0,0,0,
5,5,5,5,5,5,5,5,5,5,0,0,0,0,0,0,
5,5,5,5,5,5,5,5,5,5,0,0,0,0,0,0,
5,5,5,5,5,5,5,5,5,5,0,0,0,0,0,0,
5,5,5,5,5,5,5,5,5,5,0,0,0,0,0,0,
5,5,5,5,5,5,5,5,5,5,0,0,0,0,0,0,
5,5,5,5,5,5,5,5,5,5,0,0,0,0,0,0,
5,5,5,5,5,5,5,5,5,5,0,0,0,0,0,0,
5,5,5,5,5,5,5,5,5,5,0,0,0,0,0,0,
5,5,5,5,5,5,5,5,5,5,0,0,0,0,0,0,
5,5,5,5,5,5,5,5,5,5,0,0,0,0,0,0
</chunk>
   <chunk x="-32" y="-48" width="16" height="16">
0,0,0,0,0,0,5,5,5,5,5,5,5,5,5,5,
0,0,0,0,0,0,5,5,5,5,5,5,5,5,5,5,
0,0,0,0,0,0,5,5,5,5,5,5,5,5,5,5,
0,0,0,0,0,0,5,5,5,5,5,5,5,5,5,5,
0,0,0,0,0,0,5,5,5,5,5,5,5,5,5,5,
0,0,0,0,0,0,5,5,5,5,5,5,5,5,5,5,
0,0,0,0,0,0,5,5,5,5,5,5,5,5,5,5,
0,0,0,0,0,0,5,5,5,5,5,5,5,5,5,5,
0,0,0,0,0,0,5,5,5,5,5,5,5,5,5,5,
0,0,0,0,0,0,5,5,5,5,5,5,5,5,5,5,
0,0,0,0,0,0,5,5,5,5,5,5,5,5,5,5,
0,0,0,0,0,0,5,5,5,5,5,5,5,5,5,5,
0,0,0,0,0,0,5,5,5,5,5,5,5,5,5,5,
0,0,0,0,0,0,5,5,5,5,5,5,5,5,5,5,
0,0,0,0,0,0,5,5,5,5,5,5,5,5,5,5,
0,0,0,0,0,0,5,5,5,5,5,5,5,5,5,5
</chunk>
   <chunk x="-16" y="-48" width="16" height="16">
5,5,6,19,19,19,19,19,19,19,19,19,19,19,19,19,
5,5,6,19,19,19,19,19,19,19,19,19,19,19,19,19,
5,5,6,19,19,19,19,19,19,19,19,19,19,19,19,19,
5,5,6,19,19,19,19,19,19,19,19,19,19,19,19,19,
5,5,6,19,19,19,19,19,19,19,19,19,19,19,19,19,
5,5,6,19,19,19,19,19,19,19,19,19,19,19,19,19,
5,5,6,19,19,19,19,19,19,19,19,19,19,19,19,19,
5,5,6,19,19,19,19,19,19,19,19,19,19,19,19,19,
5,5,6,19,19,19,19,19,19,19,19,19,19,19,19,19,
5,5,6,19,19,19,19,19,19,19,19,19,19,19,19,19,
5,5,6,19,19,19,19,19,19,19,19,19,19,19,19,19,
5,5,6,19,19,19,19,19,19,19,19,19,19,19,19,19,
5,5,6,19,19,19,19,19,19,19,19,19,19,19,19,19,
5,5,6,19,19,19,19,19,19,19,19,19,19,19,19,19,
5,5,6,19,19,19,19,19,19,19,19,19,19,19,19,19,
5,5,6,19,19,19,19,19,19,19,19,19,19,19,19,19
</chunk>
   <chunk x="0" y="-48" width="16" height="16">
19,19,19,19,19,19,19,19,19,0,0,0,0,0,0,0,
19,19,19,19,19,19,19,19,19,0,0,0,0,0,0,0,
19,19,19,19,19,19,19,19,19,0,0,0,0,0,0,0,
19,19,19,19,19,19,19,19,19,0,0,0,0,0,0,0,
19,19,19,19,19,19,19,19,19,0,0,0,0,0,0,0,
19,19,19,19,19,19,19,19,19,19,19,19,19,19,19,19,
19,19,19,19,19,19,19,19,19,19,19,19,19,19,19,19,
19,19,19,19,19,19,19,19,19,19,19,19,19,19,19,19,
19,19,19,19,19,19,19,19,19,19,19,19,19,19,19,19,
19,19,19,19,19,19,19,19,19,19,19,19,19,19,19,19,
19,19,19,19,19,19,19,19,19,19,19,19,19,19,19,19,
19,19,19,19,19,19,19,19,19,19,19,19,19,19,19,19,
19,19,19,19,19,19,19,19,19,19,19,19,19,19,19,19,
19,19,19,19,19,19,19,19,19,19,19,19,19,19,19,19,
19,19,19,19,19,19,19,19,19,19,19,19,19,19,19,19,
19,19,19,19,19,19,19,19,19,19,19,19,19,19,19,19
</chunk>
   <chunk x="16" y="-48" width="16" height="16">
0,0,0,0,0,0,0,0,0,0,0,0,0,0,0,0,
0,0,0,0,0,0,0,0,0,0,0,0,0,0,0,0,
0,0,0,0,0,0,0,0,0,0,0,0,0,0,0,0,
0,0,0,0,0,0,0,0,0,0,0,0,0,0,0,0,
0,0,0,0,0,0,0,0,0,0,0,0,0,0,0,0,
19,19,19,19,19,19,19,19,19,19,19,0,0,0,0,0,
19,19,19,19,19,19,19,19,19,19,19,19,0,0,0,0,
19,19,19,19,19,19,19,19,19,19,19,19,0,0,0,0,
19,19,19,19,19,19,19,19,19,19,19,19,0,0,0,0,
19,19,19,19,19,19,19,19,19,19,19,19,0,0,0,0,
19,19,19,19,19,19,19,19,19,19,19,19,0,0,0,0,
19,19,19,19,19,19,19,19,19,19,19,19,0,0,0,0,
19,19,19,19,19,19,19,19,19,19,19,19,0,0,0,0,
19,19,19,19,19,19,19,19,19,19,19,19,0,0,0,0,
19,19,19,19,19,19,19,19,19,19,19,19,0,0,0,0,
19,19,19,19,19,19,19,19,19,19,19,19,0,0,0,0
</chunk>
   <chunk x="160" y="-48" width="16" height="16">
0,0,0,0,0,0,0,0,0,0,0,0,0,0,0,0,
0,0,0,0,0,0,0,0,0,0,0,0,0,0,0,0,
0,0,0,0,0,0,0,0,0,0,0,0,0,0,0,0,
0,0,0,0,0,0,0,0,0,0,0,0,0,0,0,0,
0,0,0,0,0,0,0,0,0,0,0,0,0,0,0,0,
0,0,0,0,0,0,0,0,0,0,0,0,0,0,0,0,
0,0,0,0,0,0,0,0,0,0,0,0,0,0,0,0,
0,0,0,0,0,0,0,0,0,0,0,0,0,0,0,0,
0,0,0,0,0,0,0,0,0,0,0,0,0,0,0,0,
0,0,0,0,0,0,0,0,0,0,0,0,0,0,0,0,
0,0,0,0,0,0,0,0,0,0,0,0,0,0,0,0,
0,0,0,0,0,0,0,0,0,0,0,0,0,0,0,20,
0,0,0,0,0,0,0,0,0,0,0,0,0,0,0,0,
0,0,0,0,0,0,0,0,0,0,0,0,0,0,0,0,
0,0,0,0,0,0,0,0,0,0,0,0,0,0,0,0,
0,0,0,0,0,0,0,0,0,0,0,0,0,0,0,0
</chunk>
   <chunk x="176" y="-48" width="16" height="16">
0,0,0,0,0,0,0,0,0,0,0,0,0,0,0,0,
0,0,0,0,0,0,0,0,0,0,0,0,0,0,0,0,
0,0,0,0,0,0,0,0,0,0,0,0,0,0,0,0,
0,0,0,0,0,0,0,0,0,0,0,0,0,0,0,0,
0,0,0,0,0,0,0,0,0,0,0,0,0,0,0,0,
0,0,0,0,0,0,0,0,0,0,0,0,0,0,0,0,
0,0,0,0,0,0,0,0,0,0,0,0,0,0,0,0,
0,0,0,0,0,0,0,0,0,0,0,0,0,0,0,0,
0,0,0,0,0,0,0,0,0,0,0,0,0,0,0,0,
0,0,0,0,0,0,0,0,0,0,0,0,0,0,0,0,
0,0,0,0,0,0,0,0,0,0,0,0,0,0,0,0,
0,0,0,0,0,0,0,0,0,0,0,0,0,0,0,0,
0,0,0,0,0,0,0,0,0,0,0,0,0,0,0,0,
0,0,0,0,0,0,0,0,0,0,0,0,0,0,0,0,
0,0,0,0,0,0,0,0,0,0,0,0,0,20,0,0,
0,0,0,0,0,0,0,0,0,0,0,0,0,0,0,0
</chunk>
   <chunk x="192" y="-48" width="16" height="16">
0,0,0,0,0,0,0,0,0,0,0,0,0,0,0,0,
0,0,0,0,0,0,0,0,0,0,0,0,0,0,0,0,
0,0,0,0,0,0,0,0,0,0,0,0,0,0,0,0,
0,0,0,0,0,0,0,0,0,0,0,0,0,0,0,0,
0,0,0,0,0,0,0,0,0,0,0,0,0,0,0,0,
0,0,0,0,0,0,0,0,0,0,0,0,0,0,0,0,
0,0,0,0,0,0,0,0,0,0,0,0,0,0,0,0,
0,25,0,0,0,0,0,0,0,0,0,0,0,0,0,0,
0,0,0,0,0,0,0,0,0,0,0,0,0,0,0,0,
0,0,0,0,0,0,0,0,0,0,0,0,0,0,0,0,
0,0,0,0,0,0,0,0,0,0,0,0,0,0,0,0,
0,0,0,22,0,0,0,0,0,0,0,0,0,0,0,0,
0,0,0,0,0,0,0,0,0,0,0,0,27,0,0,0,
0,0,0,0,0,0,0,0,0,0,0,0,0,0,0,0,
0,0,0,0,0,0,0,0,0,0,0,0,0,0,0,0,
0,0,0,27,0,0,0,0,0,0,0,0,0,0,0,0
</chunk>
   <chunk x="208" y="-48" width="16" height="16">
0,0,0,0,0,0,0,0,0,0,0,0,0,0,0,0,
0,0,0,0,0,0,0,0,0,0,0,0,0,0,0,0,
0,0,0,0,0,0,0,0,0,0,0,0,0,0,0,0,
0,0,0,0,0,0,0,0,0,0,0,0,0,0,0,0,
0,0,0,0,0,0,0,0,0,0,0,0,0,0,0,0,
0,0,0,0,0,0,0,0,0,0,0,0,0,0,0,0,
0,0,0,0,0,0,0,0,0,0,0,0,0,0,0,0,
0,0,0,0,0,0,0,0,0,0,0,0,0,0,0,0,
0,0,0,0,0,0,0,0,0,0,0,0,0,0,0,0,
0,0,0,0,0,0,0,0,0,0,26,0,0,0,0,0,
0,0,0,0,0,0,0,0,0,0,0,0,0,0,0,0,
0,0,0,0,0,0,0,0,0,0,0,0,0,0,0,0,
0,0,0,0,0,0,0,0,0,0,0,0,0,0,0,0,
0,0,0,0,20,0,0,0,0,0,0,0,0,0,0,0,
0,0,0,0,0,0,0,0,0,0,0,22,0,0,0,0,
0,0,0,0,0,0,0,0,0,0,0,0,0,0,0,0
</chunk>
   <chunk x="224" y="-48" width="16" height="16">
0,0,0,0,0,0,0,0,0,0,0,0,0,0,0,0,
0,0,0,0,0,0,0,0,0,0,0,0,0,0,0,0,
0,0,0,0,0,0,0,0,0,0,0,0,0,0,0,0,
0,0,0,0,0,0,0,0,0,0,0,0,0,0,0,0,
0,0,0,0,0,0,0,0,0,0,0,0,0,0,0,0,
0,0,0,0,0,0,0,0,0,0,0,0,0,0,0,0,
0,0,0,0,0,0,0,0,0,0,0,0,0,0,0,0,
0,0,0,0,0,0,0,0,0,0,22,0,0,0,0,0,
0,0,0,27,0,0,0,0,0,0,0,0,0,0,0,0,
0,0,0,0,0,0,0,0,0,0,0,0,0,0,0,0,
0,0,0,0,0,0,0,0,0,0,0,0,0,0,0,0,
0,0,0,0,0,0,0,0,0,0,0,0,0,0,0,0,
0,0,0,0,0,0,0,0,0,0,0,0,0,0,0,20,
0,0,0,0,0,0,0,0,0,0,0,0,0,0,0,0,
0,0,0,0,0,0,25,0,0,0,0,0,0,0,0,0,
0,0,0,0,0,0,0,0,0,0,0,0,0,0,0,27
</chunk>
   <chunk x="240" y="-48" width="16" height="16">
0,0,0,0,0,0,0,0,0,0,0,0,0,0,0,0,
0,0,0,0,0,0,0,0,0,0,0,0,0,0,0,0,
0,0,0,0,0,0,0,0,0,0,0,0,0,0,0,0,
0,0,0,0,0,0,0,0,0,0,0,0,0,0,0,0,
0,0,0,0,0,0,0,0,0,0,0,0,0,0,0,0,
0,0,0,25,20,0,0,0,0,0,0,0,0,0,0,0,
0,0,0,0,0,0,0,0,0,0,0,0,0,0,0,0,
0,0,0,0,0,0,0,0,0,0,0,0,0,0,0,0,
0,0,0,0,0,0,0,0,0,0,0,0,0,0,0,0,
0,0,0,0,0,22,0,0,0,0,0,0,0,0,0,0,
0,0,0,0,0,0,0,0,0,0,0,0,0,0,27,0,
0,0,0,0,0,0,0,0,0,0,0,0,0,0,0,0,
0,0,0,0,0,0,0,0,0,0,0,0,0,0,0,0,
0,0,0,0,0,27,0,0,0,0,0,0,0,0,0,0,
0,0,0,20,0,0,0,0,0,0,0,0,0,0,0,0,
0,0,0,0,0,0,0,0,0,0,0,0,0,0,0,0
</chunk>
   <chunk x="256" y="-48" width="16" height="16">
0,0,0,0,0,0,0,0,0,0,0,0,0,0,0,0,
0,0,0,0,0,0,0,0,0,0,0,0,0,0,0,0,
0,0,0,0,0,0,0,0,0,0,0,0,0,0,0,0,
0,0,0,0,0,0,0,0,0,0,0,0,0,0,0,0,
0,0,0,0,0,0,0,0,0,0,0,0,0,0,0,0,
0,0,0,0,0,0,0,0,0,0,0,0,0,0,0,0,
0,0,0,0,0,0,0,0,0,0,0,0,0,0,0,0,
0,0,0,0,0,0,0,0,0,0,0,0,26,0,0,0,
0,0,0,0,0,0,0,0,0,0,0,0,0,0,0,0,
0,0,0,0,0,0,0,0,0,0,0,0,0,0,0,0,
0,0,0,0,0,0,0,0,0,0,0,0,0,0,0,0,
0,0,0,0,0,0,20,0,0,0,0,0,0,0,0,0,
0,0,0,0,0,0,0,0,0,0,0,0,0,22,0,0,
0,0,0,0,0,0,0,0,0,0,0,0,0,0,0,0,
0,0,0,0,0,0,0,0,0,0,0,0,0,0,0,0,
0,0,0,0,0,0,0,0,0,0,0,0,0,0,0,0
</chunk>
   <chunk x="272" y="-48" width="16" height="16">
0,0,0,0,0,0,0,0,0,0,0,0,0,0,0,0,
0,0,0,0,0,0,0,0,0,0,0,0,0,0,0,0,
0,0,0,0,0,0,0,0,0,0,0,0,0,0,0,0,
0,0,0,0,0,0,0,0,0,0,0,0,0,0,0,0,
0,0,0,0,0,0,0,0,0,0,0,0,0,0,0,0,
20,0,0,0,0,0,0,0,0,0,0,0,22,0,0,0,
0,0,0,0,0,27,0,0,0,0,0,0,0,0,0,0,
0,0,0,0,0,0,0,0,0,0,0,0,0,0,0,0,
0,0,0,0,0,0,0,0,0,0,0,0,0,0,0,0,
0,0,0,0,0,0,0,0,0,0,0,0,0,0,0,0,
0,0,0,0,0,0,0,0,0,0,0,0,0,0,0,0,
0,0,0,0,0,0,0,0,0,0,0,0,0,0,0,0,
0,0,0,0,0,0,0,0,25,0,0,0,0,0,0,0,
0,0,0,0,0,0,0,0,0,0,0,0,0,0,0,0,
0,0,0,0,26,0,0,0,0,0,0,0,0,0,0,0,
0,0,0,0,0,0,0,0,0,0,0,0,0,0,0,26
</chunk>
   <chunk x="288" y="-48" width="16" height="16">
0,0,0,0,0,0,0,0,0,0,0,0,0,0,0,0,
0,0,0,0,0,0,0,0,0,0,0,0,0,0,0,0,
0,0,0,0,0,0,0,0,0,0,0,0,0,0,0,0,
0,0,0,0,0,0,0,0,0,0,0,0,0,0,0,0,
0,0,0,0,0,0,0,0,0,0,0,0,0,0,0,0,
0,0,0,0,0,0,0,0,0,0,0,0,0,0,0,0,
0,0,0,0,0,0,0,0,0,20,0,0,0,0,0,0,
0,0,0,0,0,0,0,0,0,0,0,0,0,0,0,0,
0,0,0,0,0,0,0,0,0,0,0,0,0,0,0,23,
0,0,0,0,0,0,0,0,0,0,0,0,0,0,0,0,
0,0,0,0,0,0,0,0,0,0,0,0,0,0,0,0,
0,0,0,0,0,0,0,0,0,0,20,0,0,0,0,0,
0,0,0,0,0,0,0,0,0,0,0,0,0,0,0,0,
0,0,0,0,0,0,0,0,0,0,0,0,0,0,0,0,
0,0,0,0,0,0,0,0,0,0,0,0,0,0,0,0,
0,0,0,0,0,0,0,21,0,0,0,0,0,0,0,0
</chunk>
   <chunk x="304" y="-48" width="16" height="16">
0,0,0,26,0,0,0,0,0,0,0,0,0,0,0,0,
0,0,0,0,0,0,0,0,0,0,0,0,0,0,0,0,
0,0,0,0,0,0,0,0,0,0,0,0,0,0,0,0,
0,0,0,0,0,0,0,0,0,0,0,0,0,0,0,0,
0,0,0,0,0,0,20,21,0,0,0,0,0,0,0,0,
0,0,0,0,0,0,0,0,0,0,0,0,0,0,0,0,
0,0,0,0,0,0,0,0,0,0,0,0,0,0,0,0,
0,21,0,0,0,0,0,0,0,0,0,0,0,0,21,0,
0,0,0,0,0,0,0,0,0,0,0,0,0,0,0,0,
0,0,0,0,0,0,0,0,0,0,0,0,0,0,0,0,
0,0,0,0,0,0,21,0,0,0,0,0,0,0,0,0,
0,0,0,0,0,0,0,0,0,0,0,0,0,0,0,0,
0,0,0,0,0,0,40,40,42,43,42,40,40,0,0,0,
0,0,0,0,0,1,2,2,2,2,2,2,2,3,0,0,
0,0,0,0,0,31,32,32,32,32,32,32,32,33,0,0,
0,0,0,0,0,31,32,32,32,32,32,32,32,33,0,0
</chunk>
   <chunk x="320" y="-48" width="16" height="16">
20,0,0,0,0,0,0,0,0,0,0,0,0,0,0,0,
0,0,0,0,0,0,0,0,0,0,0,0,0,0,0,0,
0,0,0,0,0,0,0,0,0,0,0,0,0,0,0,0,
0,0,0,0,0,0,0,0,20,0,0,0,0,0,0,0,
0,0,23,0,0,0,0,0,0,0,0,0,0,0,0,0,
0,0,0,0,0,0,0,0,0,0,0,0,0,23,0,0,
0,0,0,0,0,0,0,0,0,0,0,0,0,0,0,0,
0,0,0,21,0,0,0,23,0,0,0,0,0,0,0,0,
0,0,0,0,0,0,0,0,0,0,0,0,0,0,0,0,
20,0,0,0,0,0,0,0,0,0,0,0,0,0,0,0,
0,0,0,0,0,0,0,0,0,0,0,0,38,0,0,38,
0,0,0,0,0,0,0,0,0,0,0,1,2,2,2,2,
0,0,0,0,0,0,0,0,0,0,0,31,32,32,32,32,
0,0,23,0,0,0,0,0,0,0,0,31,32,32,32,32,
0,0,0,0,38,43,38,45,0,0,0,31,32,32,32,32,
0,0,0,1,2,2,2,3,0,0,0,31,32,32,32,32
</chunk>
   <chunk x="336" y="-48" width="16" height="16">
0,0,0,0,0,0,0,0,0,0,0,23,0,0,0,0,
0,0,0,0,0,0,0,0,0,0,0,0,0,0,0,0,
0,0,0,0,0,20,0,0,0,0,0,0,0,0,0,0,
0,0,0,0,0,0,0,0,0,0,0,0,0,0,0,0,
0,0,0,0,0,0,0,0,0,0,0,0,0,0,0,0,
0,0,0,0,0,0,0,0,0,0,0,0,0,0,0,0,
0,26,0,0,0,0,0,0,0,0,0,0,0,0,0,0,
0,0,0,0,0,0,0,0,0,0,0,0,0,0,0,0,
0,0,0,0,0,0,0,0,0,23,0,0,0,0,0,0,
0,0,0,0,0,0,0,0,0,0,0,0,0,0,0,0,
0,0,0,0,0,0,0,0,0,0,20,0,0,0,0,0,
2,3,0,0,0,0,0,0,0,0,0,0,0,0,0,0,
32,33,0,0,0,0,0,0,0,0,0,0,0,0,0,0,
32,33,0,0,0,0,0,0,0,0,0,0,0,0,0,0,
32,33,0,0,0,0,20,0,0,0,0,0,0,0,0,0,
32,33,0,0,0,0,0,0,0,0,0,0,0,43,38,44
</chunk>
   <chunk x="352" y="-48" width="16" height="16">
0,26,0,0,0,0,0,0,0,0,0,0,0,0,0,0,
0,0,0,0,0,0,0,0,0,0,0,0,0,0,0,0,
27,0,0,0,0,0,0,0,0,0,0,0,0,0,0,0,
0,0,0,0,0,0,0,0,0,0,0,20,0,0,0,0,
0,0,0,0,0,0,0,0,0,0,0,0,0,0,0,0,
0,0,0,0,0,0,0,0,0,0,0,0,0,0,0,0,
0,0,0,0,0,0,0,0,0,0,0,0,0,0,0,0,
0,20,0,0,0,0,0,0,0,0,0,0,0,0,0,0,
0,0,0,0,0,0,0,0,0,0,0,0,0,0,0,0,
0,0,0,0,0,0,0,0,0,23,0,0,0,0,0,0,
0,0,23,0,0,0,0,0,0,0,0,0,0,0,0,0,
0,0,0,0,0,0,0,0,0,0,0,0,0,0,0,0,
0,0,0,0,0,0,0,0,0,0,0,0,0,0,0,0,
0,0,0,43,44,0,45,0,38,43,44,0,43,38,0,45,
0,0,1,2,2,2,2,2,2,2,2,2,2,2,2,2,
43,45,4,5,5,5,5,5,5,5,5,5,5,5,5,5
</chunk>
   <chunk x="368" y="-48" width="16" height="16">
0,0,0,0,26,0,0,0,0,0,0,0,0,0,0,0,
0,0,0,0,0,0,0,0,0,0,25,0,0,0,0,0,
0,25,0,0,0,0,0,0,20,0,20,0,0,0,0,0,
0,0,0,0,0,0,0,0,0,0,0,0,0,0,0,0,
0,0,0,0,0,0,0,0,0,20,0,0,0,0,0,0,
0,0,0,0,0,0,0,0,0,0,0,0,0,0,0,0,
0,0,0,0,0,0,0,0,0,0,0,0,0,0,0,0,
0,23,0,0,0,0,0,0,0,23,0,0,0,0,0,0,
0,0,0,0,0,0,0,0,0,0,0,0,0,0,0,0,
0,0,0,0,0,0,0,0,23,0,0,0,0,0,0,0,
0,0,0,0,0,0,0,0,0,0,0,0,0,0,0,0,
0,0,0,44,0,43,44,43,0,0,0,0,0,0,0,0,
0,0,0,1,2,2,2,2,3,29,29,29,29,29,29,29,
38,43,0,4,5,5,5,5,6,32,32,32,32,32,32,32,
2,2,2,10,5,5,5,5,6,32,32,32,32,32,32,32,
5,5,5,5,5,5,5,5,6,32,32,32,32,32,32,32
</chunk>
   <chunk x="384" y="-48" width="16" height="16">
0,0,0,0,0,0,0,0,0,0,0,20,0,0,0,0,
0,0,0,0,0,0,0,0,0,0,0,0,0,0,0,0,
0,0,0,27,0,0,0,0,0,0,0,0,0,0,0,0,
0,0,0,0,0,0,0,0,0,0,0,0,0,0,20,0,
0,0,0,0,20,0,0,0,0,0,0,0,0,0,0,0,
0,0,0,0,0,0,0,0,0,0,0,0,0,0,0,0,
0,0,0,0,0,0,0,0,0,0,0,0,0,0,0,0,
38,44,45,0,0,0,0,0,0,0,0,0,0,0,0,0,
1,2,3,0,0,0,0,0,0,0,0,0,20,0,0,0,
4,32,6,0,0,0,0,0,0,0,0,0,0,0,0,0,
4,32,6,38,43,44,44,45,0,0,0,0,0,0,0,0,
4,32,12,2,2,2,2,3,0,0,0,0,0,0,0,0,
10,32,32,32,32,32,32,6,0,0,0,0,0,0,0,0,
32,32,32,32,32,32,32,6,43,44,38,44,44,38,0,44,
32,32,32,32,32,32,32,12,2,2,2,2,2,2,2,2,
32,32,32,32,32,32,32,32,32,32,32,32,32,32,32,32
</chunk>
   <chunk x="400" y="-48" width="16" height="16">
20,0,0,0,0,0,0,0,0,0,0,0,0,0,0,0,
0,0,0,0,0,0,0,0,0,0,0,0,0,25,0,0,
0,0,0,0,25,0,0,0,0,0,0,0,0,0,0,0,
0,0,0,0,0,0,0,0,0,0,0,0,0,0,0,0,
0,0,0,0,0,0,0,0,0,0,0,20,0,0,0,0,
0,0,0,0,0,0,0,0,0,0,0,0,0,0,0,0,
0,0,0,0,0,0,0,0,0,0,0,0,0,0,0,0,
0,0,0,0,0,0,0,0,0,0,0,0,0,0,0,0,
20,0,0,0,0,0,0,0,0,0,0,0,0,0,0,0,
0,0,0,0,0,0,0,0,0,0,0,0,0,0,0,0,
0,0,0,0,0,0,0,0,0,0,0,0,26,0,0,0,
0,0,0,0,0,0,0,0,0,0,0,0,0,0,0,0,
0,0,0,0,20,0,0,0,0,0,0,0,0,0,0,0,
45,0,0,0,0,0,0,0,0,0,0,0,0,0,0,0,
3,0,0,0,0,0,0,0,0,0,27,0,0,0,0,0,
33,0,0,0,21,0,0,0,0,0,0,0,0,0,0,0
</chunk>
   <chunk x="416" y="-48" width="16" height="16">
0,0,0,0,26,0,0,0,0,0,0,0,0,0,0,0,
0,0,0,0,0,0,0,0,0,0,0,0,0,0,0,0,
0,0,0,0,0,0,0,0,0,0,0,0,0,0,0,25,
0,0,0,0,0,0,0,0,0,0,0,0,0,0,0,0,
0,0,0,0,0,0,26,20,0,0,0,0,0,0,0,0,
0,0,0,0,0,0,0,0,0,0,0,0,0,0,0,0,
0,0,0,0,0,0,0,0,0,0,0,0,0,0,0,0,
0,0,0,0,0,20,0,0,0,0,0,0,0,0,0,0,
0,0,0,0,0,0,0,0,0,0,0,0,0,0,0,0,
0,0,0,20,0,0,0,0,0,0,0,0,0,0,0,0,
0,0,0,0,0,0,0,0,0,0,0,0,0,0,0,0,
0,0,0,0,0,0,0,0,0,0,0,0,0,0,0,0,
0,21,0,0,0,0,0,0,0,0,0,0,0,0,0,44,
0,0,0,0,0,0,0,0,27,0,0,0,0,0,0,1,
0,0,0,0,0,0,0,0,0,0,0,0,0,0,0,31,
0,24,0,0,0,0,0,24,0,0,0,0,0,0,0,31
</chunk>
   <chunk x="432" y="-48" width="16" height="16">
0,0,0,0,22,0,0,0,0,0,0,0,0,0,0,0,
0,0,0,0,0,0,0,0,0,0,27,0,0,0,0,0,
0,20,0,0,0,0,0,0,0,0,0,0,0,0,0,25,
0,0,0,0,0,0,20,0,0,0,0,0,0,0,0,0,
0,0,0,0,0,0,0,0,0,0,0,0,0,0,0,0,
0,0,0,0,0,0,0,0,0,0,0,0,0,0,0,0,
0,0,0,0,0,0,0,0,0,0,0,0,0,0,0,0,
27,0,0,0,0,0,0,0,0,0,0,0,0,0,0,0,
0,0,0,0,0,0,0,0,0,0,0,20,0,0,0,0,
0,0,0,0,0,0,0,0,0,0,0,0,0,0,0,0,
0,0,0,0,0,0,0,0,0,0,0,0,0,0,0,0,
0,0,0,0,0,0,0,0,0,0,0,0,0,0,0,0,
39,44,39,44,44,44,39,44,0,0,0,0,0,0,0,0,
2,2,2,2,2,2,2,3,0,0,0,0,0,0,0,0,
32,32,32,32,32,32,32,33,0,0,0,0,0,44,44,39,
32,32,32,32,32,32,32,33,0,0,0,0,0,1,2,2
</chunk>
   <chunk x="448" y="-48" width="16" height="16">
27,0,0,0,0,0,0,0,26,0,0,0,27,0,0,0,
0,0,0,0,0,0,24,0,0,0,0,0,0,0,0,0,
0,0,0,0,0,0,0,0,0,0,0,0,0,0,0,0,
0,0,0,0,0,0,0,0,0,20,0,0,0,0,0,0,
0,0,0,0,0,0,0,0,0,0,0,0,0,0,0,0,
0,0,0,0,0,0,0,0,0,0,0,0,0,26,0,0,
0,0,0,0,0,0,0,0,0,0,25,0,0,0,0,0,
0,25,0,0,0,0,0,0,0,0,0,0,0,0,0,0,
0,0,0,0,0,0,0,0,0,0,0,0,20,0,0,0,
0,0,0,0,0,0,0,0,0,0,0,0,0,0,0,0,
0,0,0,0,0,44,38,39,44,40,39,44,0,0,0,0,
0,0,0,0,0,1,2,2,2,2,2,3,0,0,0,0,
0,0,0,0,0,31,32,32,32,32,32,33,0,0,0,0,
0,0,0,0,0,31,32,32,32,32,32,33,0,0,0,0,
44,44,0,0,0,31,32,32,32,32,32,33,0,0,0,0,
2,3,0,0,0,31,32,32,32,32,32,33,0,0,0,0
</chunk>
   <chunk x="464" y="-48" width="16" height="16">
0,0,0,20,0,0,0,0,0,0,0,0,0,0,0,0,
0,0,0,0,0,0,0,0,0,0,0,22,0,0,0,0,
0,0,0,0,27,0,0,0,0,0,0,0,0,0,0,0,
0,0,0,0,0,0,25,0,0,0,0,0,0,0,0,0,
0,0,0,0,0,0,0,0,0,0,0,0,0,20,0,0,
0,0,0,0,0,0,0,0,0,0,0,0,0,0,0,0,
0,0,0,0,0,0,0,0,0,0,0,0,0,0,0,0,
0,0,0,0,0,0,0,0,0,0,0,0,0,0,0,0,
0,0,0,0,0,0,0,27,0,0,0,0,0,0,0,0,
0,0,0,0,20,0,0,0,0,0,0,0,0,0,0,0,
0,0,0,0,0,0,0,0,0,0,0,0,0,0,0,0,
0,0,0,0,0,0,0,0,0,0,0,0,0,0,20,0,
0,0,0,0,0,20,0,0,0,0,0,0,0,0,0,0,
0,0,0,0,0,0,0,0,0,0,44,42,40,39,38,40,
0,0,0,20,0,0,0,0,0,0,1,2,2,2,2,2,
0,0,0,0,0,44,40,42,40,38,4,5,5,5,5,5
</chunk>
   <chunk x="480" y="-48" width="16" height="16">
0,0,0,0,0,0,0,0,0,0,0,0,0,0,0,0,
0,0,0,0,0,0,0,24,0,0,0,0,0,0,0,0,
0,0,0,0,20,0,0,0,0,0,0,0,0,0,0,0,
0,0,0,0,0,0,25,0,0,0,0,0,0,0,0,0,
0,0,0,0,0,0,0,0,0,0,0,0,0,0,0,0,
0,0,0,0,0,0,0,0,0,0,0,0,0,0,0,0,
0,0,0,0,0,0,0,0,0,0,0,0,0,0,0,0,
0,0,0,0,0,0,0,0,0,0,0,0,0,0,0,0,
0,0,0,0,0,0,0,0,25,0,0,0,0,0,0,0,
0,0,20,0,0,0,0,0,0,0,0,0,0,0,0,0,
0,0,0,0,0,0,0,0,0,0,0,0,0,27,0,0,
0,0,0,0,0,0,0,0,0,0,20,0,0,0,0,0,
0,0,0,0,0,0,0,0,0,0,0,0,0,0,0,0,
39,42,38,39,40,27,0,0,0,0,0,0,0,0,21,0,
2147483650,2147483650,2147483650,2147483650,2147483650,2147483649,0,0,0,0,0,0,0,0,0,0,
2147483653,2147483653,2147483653,2147483653,2147483653,2147483652,44,39,44,39,44,0,0,0,0,0
</chunk>
   <chunk x="496" y="-48" width="16" height="16">
0,0,0,0,0,0,0,0,0,0,0,0,0,0,0,4,
0,0,0,0,0,0,0,0,0,0,0,0,0,0,0,4,
0,0,0,0,0,0,0,0,0,0,0,0,0,0,0,4,
0,0,0,0,0,0,0,0,0,0,0,27,0,0,0,4,
20,0,0,0,0,0,0,0,0,0,0,0,0,0,0,4,
26,0,0,0,0,0,24,0,0,0,0,0,0,0,0,4,
0,0,0,0,0,0,0,0,0,0,0,0,0,0,0,4,
0,25,0,0,0,0,0,0,0,0,0,0,0,0,0,4,
0,0,0,0,0,0,0,0,0,0,0,0,0,0,0,4,
0,0,0,0,0,0,0,0,22,0,0,0,0,0,0,4,
0,0,0,0,27,0,0,0,0,0,0,20,0,0,0,4,
0,0,0,0,0,0,24,0,0,0,0,0,0,0,0,4,
0,0,0,0,0,0,0,0,0,0,0,0,0,0,0,4,
0,0,0,0,0,0,0,0,0,0,0,0,0,0,0,4,
0,0,0,0,0,0,21,0,0,0,26,0,0,0,0,4,
0,22,0,0,0,0,0,0,0,0,0,0,0,0,0,4
</chunk>
   <chunk x="512" y="-48" width="16" height="16">
5,5,5,5,5,5,5,5,5,5,5,5,5,5,5,5,
5,5,5,5,5,5,5,5,5,5,5,5,5,5,5,5,
5,5,5,5,5,5,5,5,5,5,5,5,5,5,5,5,
5,5,5,5,5,5,5,5,5,5,5,5,5,5,5,5,
5,5,5,5,5,5,5,5,5,5,5,5,5,5,5,5,
5,5,5,5,5,5,5,5,5,5,5,5,5,5,5,5,
5,5,5,5,5,5,5,5,5,5,5,5,5,5,5,5,
5,5,5,5,5,5,5,5,5,5,5,5,5,5,5,5,
5,5,5,5,5,5,5,5,5,5,5,5,5,5,5,5,
5,5,5,5,5,5,5,5,5,5,5,5,5,5,5,5,
5,5,5,5,5,5,5,5,5,5,5,5,5,5,5,5,
5,5,5,5,5,5,5,5,5,5,5,5,5,5,5,5,
5,5,5,5,5,5,5,5,5,5,5,5,5,5,5,5,
5,5,5,5,5,5,5,5,5,5,5,5,5,5,5,5,
5,5,5,5,5,5,5,5,5,5,5,5,5,5,5,5,
5,5,5,5,5,5,5,5,5,5,5,5,5,5,5,5
</chunk>
   <chunk x="528" y="-48" width="16" height="16">
5,5,5,5,5,5,5,5,5,5,0,0,0,0,0,0,
5,5,5,5,5,5,5,5,5,5,0,0,0,0,0,0,
5,5,5,5,5,5,5,5,5,5,0,0,0,0,0,0,
5,5,5,5,5,5,5,5,5,5,0,0,0,0,0,0,
5,5,5,5,5,5,5,5,5,5,0,0,0,0,0,0,
5,5,5,5,5,5,5,5,5,5,0,0,0,0,0,0,
5,5,5,5,5,5,5,5,5,5,0,0,0,0,0,0,
5,5,5,5,5,5,5,5,5,5,0,0,0,0,0,0,
5,5,5,5,5,5,5,5,5,5,0,0,0,0,0,0,
5,5,5,5,5,5,5,5,5,5,0,0,0,0,0,0,
5,5,5,5,5,5,5,5,5,5,0,0,0,0,0,0,
5,5,5,5,5,5,5,5,5,5,0,0,0,0,0,0,
5,5,5,5,5,5,5,5,5,5,0,0,0,0,0,0,
5,5,5,5,5,5,5,5,5,5,0,0,0,0,0,0,
5,5,5,5,5,5,5,5,5,5,0,0,0,0,0,0,
5,5,5,5,5,5,5,5,5,5,0,0,0,0,0,0
</chunk>
   <chunk x="-32" y="-32" width="16" height="16">
0,0,0,0,0,0,5,5,5,5,5,5,5,5,5,5,
0,0,0,0,0,0,5,5,5,5,5,5,5,5,5,5,
0,0,0,0,0,0,5,5,5,5,5,5,5,5,5,5,
0,0,0,0,0,0,5,5,5,5,5,5,5,5,5,5,
0,0,0,0,0,0,5,5,5,5,5,5,5,5,5,5,
0,0,0,0,0,0,5,5,5,5,5,5,5,5,5,5,
0,0,0,0,0,0,5,5,5,5,5,5,5,5,5,5,
0,0,0,0,0,0,5,5,5,5,5,5,5,5,5,5,
0,0,0,0,0,0,5,5,5,5,5,5,5,5,5,5,
0,0,0,0,0,5,5,5,5,5,5,5,5,5,5,5,
0,0,0,0,0,5,5,5,5,5,5,5,5,5,5,5,
0,0,0,0,5,5,5,5,5,5,5,5,5,5,5,5,
0,0,0,0,5,5,5,5,5,5,5,5,5,5,5,5,
0,0,0,5,5,5,5,5,5,5,5,5,5,5,5,5,
0,0,0,5,5,5,5,5,5,5,5,5,5,5,5,5,
0,0,0,5,5,5,5,5,5,5,5,5,5,5,5,5
</chunk>
   <chunk x="-16" y="-32" width="16" height="16">
5,5,6,19,19,19,19,19,19,19,19,19,19,19,19,19,
5,5,6,19,19,19,19,19,19,19,19,19,19,19,19,19,
5,5,6,19,19,19,19,19,19,19,19,19,19,19,19,19,
5,5,6,19,19,19,19,19,19,19,19,19,19,19,19,19,
5,5,6,19,19,19,19,19,19,19,19,19,19,19,19,19,
5,5,6,19,19,19,19,19,19,19,19,19,19,19,19,19,
5,5,6,39,19,19,19,19,19,19,19,19,19,19,19,19,
5,5,12,3,19,19,19,19,19,19,19,19,19,19,19,19,
5,5,5,6,19,19,19,19,19,19,19,19,19,19,19,19,
5,5,5,6,19,19,19,19,19,19,19,19,19,19,19,19,
5,5,5,6,19,19,19,19,19,26,19,19,19,19,19,19,
5,5,5,6,19,19,19,19,19,19,19,19,19,19,19,19,
5,5,5,6,19,19,19,19,19,19,19,19,19,19,19,19,
5,5,5,6,19,19,19,19,19,19,19,19,19,19,19,19,
5,5,5,6,19,19,19,19,19,19,19,19,19,19,19,19,
5,5,5,6,39,19,19,19,19,19,19,19,19,19,19,19
</chunk>
   <chunk x="0" y="-32" width="16" height="16">
19,19,19,19,19,19,19,19,19,19,19,19,19,19,19,19,
19,19,19,19,19,19,19,19,19,19,19,19,19,19,19,19,
19,19,19,19,19,19,19,19,19,19,19,19,19,19,19,19,
19,19,19,19,19,19,19,19,19,19,19,19,19,19,19,19,
19,19,19,19,19,19,19,19,19,19,19,19,19,19,19,19,
19,19,19,19,19,19,19,19,19,19,19,19,19,19,19,19,
19,19,19,19,19,19,19,19,19,19,19,19,19,19,19,19,
19,19,19,19,19,19,19,19,19,19,19,19,19,19,19,19,
19,19,19,19,19,19,19,19,19,19,19,19,19,19,19,19,
19,19,19,19,19,19,19,19,19,19,19,19,19,19,19,19,
19,19,19,19,19,19,19,19,19,19,19,19,19,19,19,19,
19,19,19,19,19,19,19,19,19,19,19,19,19,19,19,19,
19,19,19,19,19,19,19,19,19,19,19,19,19,19,19,19,
19,19,19,19,19,19,19,19,19,19,19,19,19,19,19,19,
19,19,19,19,19,19,19,19,19,19,19,19,19,19,19,19,
19,19,19,19,19,19,19,19,19,19,19,19,19,19,19,19
</chunk>
   <chunk x="16" y="-32" width="16" height="16">
19,19,19,19,19,19,19,19,19,19,19,19,0,0,0,0,
19,19,19,19,19,19,19,19,19,19,19,19,0,0,0,0,
19,19,19,19,19,19,19,19,19,19,19,19,0,0,0,0,
19,19,19,19,19,19,19,19,19,19,19,19,0,0,0,0,
19,19,19,19,19,19,19,19,19,19,19,19,0,0,0,0,
19,19,19,19,19,19,19,19,19,19,19,19,0,0,0,0,
19,19,19,19,19,19,19,19,19,19,19,19,0,0,0,0,
19,19,19,19,19,19,19,19,19,19,19,19,0,0,0,0,
19,19,19,19,19,19,19,19,19,19,19,19,0,0,0,0,
19,19,19,19,19,19,19,19,19,19,19,19,0,0,0,0,
19,19,19,19,19,19,19,19,19,19,19,19,0,0,0,0,
19,19,19,19,19,19,19,19,19,19,19,19,0,0,0,0,
19,19,19,19,19,19,19,19,19,19,19,19,0,0,0,0,
19,19,19,19,19,19,19,19,19,19,19,19,0,0,0,0,
19,19,19,19,19,19,19,19,19,19,19,19,0,0,0,0,
19,19,19,19,19,19,19,19,19,19,19,19,0,0,0,0
</chunk>
   <chunk x="176" y="-32" width="16" height="16">
0,0,0,0,0,0,0,0,0,0,0,0,0,0,0,0,
0,0,0,0,0,0,0,0,0,0,0,0,0,27,0,0,
0,0,0,0,0,0,0,0,0,0,0,0,0,0,0,0,
0,0,0,0,0,0,0,0,0,0,0,0,0,0,0,0,
0,0,0,0,0,0,0,0,0,0,0,0,0,0,0,0,
0,0,0,0,0,0,0,0,0,0,0,0,0,0,0,0,
0,0,0,0,0,0,0,0,0,0,0,0,0,0,26,0,
0,0,0,0,0,0,0,0,0,0,0,0,0,0,0,0,
0,0,0,0,0,0,0,0,0,0,0,0,0,0,0,0,
0,0,0,0,0,0,0,0,0,0,0,0,0,20,0,0,
0,0,0,0,0,0,0,0,0,0,0,0,0,0,0,0,
0,0,0,0,0,0,0,0,0,0,0,0,0,0,0,0,
0,0,0,0,0,0,0,0,0,0,0,0,0,0,0,0,
0,0,0,0,0,0,0,0,0,0,0,0,0,0,0,0,
0,0,0,0,0,0,0,0,0,0,0,0,0,0,0,0,
0,0,0,0,0,0,0,0,0,0,0,0,0,0,0,0
</chunk>
   <chunk x="192" y="-32" width="16" height="16">
0,0,0,0,0,0,0,0,0,0,0,0,0,0,0,0,
0,0,0,0,0,0,0,0,0,0,0,0,0,0,0,0,
0,0,0,0,0,0,0,0,0,0,0,0,22,0,0,0,
0,0,0,0,0,0,0,0,0,0,0,0,0,0,0,0,
0,0,0,0,0,0,0,25,0,0,0,0,0,0,0,0,
0,0,0,0,0,0,0,0,0,0,0,0,0,0,20,0,
0,0,0,0,0,0,0,0,0,0,0,0,0,0,0,0,
0,0,0,0,0,0,0,0,0,0,0,0,0,0,0,0,
0,0,0,0,0,0,0,0,0,0,0,0,0,0,0,0,
0,0,0,0,0,0,0,0,27,0,0,0,0,0,0,0,
0,0,0,0,0,0,0,0,0,0,0,0,0,0,0,0,
0,0,0,0,0,0,0,0,0,0,0,0,0,0,0,0,
0,0,0,0,0,0,0,0,0,0,0,0,0,0,0,0,
0,0,20,0,0,0,0,0,0,0,0,0,0,0,0,0,
0,0,0,0,0,0,0,0,0,0,0,0,0,0,0,0,
0,0,0,0,0,0,0,0,0,0,0,0,0,0,0,0
</chunk>
   <chunk x="208" y="-32" width="16" height="16">
0,0,0,0,0,0,0,0,0,0,0,0,0,0,0,0,
0,0,0,0,0,0,0,0,0,0,0,0,0,0,0,0,
0,0,0,0,0,0,0,0,27,0,0,0,0,0,0,0,
0,0,0,0,0,0,0,0,0,0,0,0,0,0,0,0,
0,0,0,0,0,0,0,25,0,0,0,0,0,0,0,0,
0,0,0,0,0,0,0,0,0,0,0,0,0,0,0,0,
0,0,0,0,0,0,0,0,0,0,0,0,0,0,0,0,
0,0,0,0,0,0,0,0,0,0,0,0,0,0,0,0,
0,0,0,0,0,0,20,0,0,0,0,0,0,0,0,0,
0,0,0,0,0,0,0,0,0,25,0,0,0,0,0,0,
0,0,0,20,0,0,0,0,0,0,0,0,0,0,0,0,
0,0,0,0,0,0,0,0,0,0,0,0,0,0,0,0,
0,0,0,0,0,0,0,0,0,0,0,0,0,0,0,0,
0,0,0,0,0,0,0,0,0,0,0,0,0,23,0,0,
0,0,0,0,0,0,0,0,0,0,0,0,0,0,0,0,
0,0,0,0,0,24,24,0,0,0,0,0,0,0,0,0
</chunk>
   <chunk x="224" y="-32" width="16" height="16">
0,0,26,0,0,0,0,0,0,0,0,0,0,0,0,0,
0,0,0,0,0,0,0,0,0,0,0,0,0,0,0,0,
0,0,0,0,0,0,0,0,0,0,0,0,0,0,0,0,
0,0,0,0,0,0,0,0,0,0,0,0,0,0,0,0,
0,0,0,0,0,0,0,0,0,0,0,0,27,0,0,0,
0,20,0,0,0,0,0,0,0,0,0,0,0,0,0,0,
0,0,0,0,0,0,0,0,0,0,0,0,0,0,0,0,
0,0,0,0,0,0,26,0,0,0,0,0,0,0,0,20,
0,0,25,0,0,0,0,0,0,0,0,0,0,0,0,0,
0,0,0,0,0,0,0,0,0,0,0,0,0,0,0,0,
0,0,0,0,0,0,0,0,0,0,0,0,0,0,0,0,
0,0,0,0,0,0,0,0,0,0,0,0,20,0,0,0,
0,0,0,0,0,0,0,0,0,0,0,0,0,0,0,0,
0,0,0,0,0,0,0,0,0,0,0,0,0,0,0,0,
0,0,0,0,0,0,0,0,0,0,0,0,0,0,0,0,
0,0,0,0,0,0,0,0,0,44,42,40,44,0,42,0
</chunk>
   <chunk x="240" y="-32" width="16" height="16">
0,0,0,0,0,0,0,0,0,0,0,0,0,0,22,0,
0,0,0,0,0,0,0,0,0,0,0,0,0,0,0,0,
0,0,0,0,0,0,0,0,0,25,0,0,0,0,0,0,
0,0,0,0,0,0,0,0,0,0,0,0,0,0,0,0,
26,0,0,0,0,0,0,0,0,0,0,0,0,0,0,0,
0,0,0,0,0,0,0,0,0,0,0,0,0,0,0,0,
0,0,0,0,0,0,0,0,0,0,0,0,0,0,0,0,
0,0,0,0,0,0,0,0,0,0,27,0,0,0,0,0,
0,0,0,0,0,0,0,0,0,0,0,0,0,0,0,0,
0,0,0,0,0,0,0,0,0,0,21,0,0,0,0,0,
0,0,0,0,0,0,0,0,0,0,0,0,0,0,0,0,
0,0,0,0,0,23,0,0,0,0,0,0,0,0,0,0,
0,0,0,0,0,0,0,0,0,0,0,0,0,0,0,0,
0,0,0,0,0,0,0,0,0,0,0,0,0,0,0,44,
0,0,0,0,0,0,0,21,0,0,0,0,0,1,2,2,
0,0,21,0,0,0,0,0,0,0,0,0,0,31,32,32
</chunk>
   <chunk x="256" y="-32" width="16" height="16">
0,0,0,0,0,0,0,0,0,0,27,0,0,0,0,0,
0,0,0,0,0,0,0,0,0,0,0,0,0,0,0,0,
0,0,0,0,0,0,0,0,0,25,0,0,0,0,0,0,
20,0,0,0,0,0,0,0,0,0,0,0,0,0,0,0,
0,0,0,0,0,0,0,0,0,0,0,0,0,0,0,0,
0,0,0,0,0,0,0,0,0,0,0,0,0,0,0,0,
0,0,0,0,0,0,0,0,0,0,0,0,0,0,0,0,
0,0,0,0,0,0,0,0,0,0,0,25,0,0,0,0,
0,0,0,0,0,20,0,0,0,0,0,0,0,0,0,0,
0,0,0,0,0,0,0,0,0,0,0,0,0,0,0,0,
0,0,0,0,0,0,0,0,0,0,0,0,0,0,0,0,
0,0,0,0,0,0,0,0,0,0,0,0,0,0,0,0,
0,0,0,0,0,0,0,0,0,0,0,0,0,20,0,0,
39,40,0,0,0,0,0,0,0,0,0,0,0,19,19,19,
2,2,2,3,0,0,0,0,0,21,0,0,0,0,0,0,
32,32,32,33,0,0,0,0,0,0,0,0,0,0,0,0
</chunk>
   <chunk x="272" y="-32" width="16" height="16">
0,0,0,0,0,0,0,0,0,0,0,0,0,0,0,0,
0,0,0,0,0,0,0,0,0,0,0,0,0,20,0,0,
0,0,0,0,0,0,0,0,0,0,0,0,0,0,27,0,
0,0,0,20,0,0,0,0,0,0,0,0,0,0,0,0,
0,0,0,0,0,0,0,0,0,0,0,0,0,0,0,0,
0,0,0,0,0,0,0,0,0,0,0,0,0,0,0,0,
0,0,0,0,25,0,0,0,0,0,0,0,0,0,0,0,
0,0,0,0,0,0,0,0,0,0,0,0,0,0,0,0,
23,0,0,0,0,0,0,0,23,0,0,0,0,0,0,0,
0,0,0,0,0,0,0,0,0,0,0,0,0,0,20,0,
0,0,0,0,0,0,0,0,0,0,0,0,0,0,0,0,
0,0,0,0,0,0,0,0,0,0,0,0,0,0,0,0,
0,0,0,0,0,0,20,0,0,0,0,0,0,0,0,0,
19,0,0,0,0,0,0,0,0,0,0,0,0,0,0,0,
0,0,0,0,0,0,0,0,0,0,0,0,0,0,0,0,
0,0,0,0,0,0,0,0,0,0,0,0,0,0,0,0
</chunk>
   <chunk x="288" y="-32" width="16" height="16">
0,0,0,0,23,0,0,0,0,0,0,0,21,0,0,0,
0,0,0,0,0,0,0,0,0,0,0,0,0,0,0,0,
0,0,0,0,0,0,0,0,0,0,0,0,0,0,0,0,
0,0,0,23,0,0,0,0,0,0,0,0,0,0,42,38,
0,0,0,0,0,0,0,0,0,0,0,0,40,1,2,2,
0,0,0,0,0,0,0,0,0,0,0,39,1,10,5,5,
0,0,0,21,0,0,0,0,0,0,42,1,10,5,5,5,
0,0,0,0,0,0,0,0,0,39,1,10,5,5,5,5,
0,0,0,0,0,0,0,0,40,1,10,5,5,5,5,5,
0,0,0,0,0,0,0,0,1,10,5,5,5,5,5,5,
21,0,0,0,0,0,39,1,10,5,5,5,5,5,5,5,
0,0,0,0,0,40,1,10,5,5,5,5,5,5,5,5,
0,0,0,0,42,1,10,5,5,5,5,5,5,5,5,5,
0,0,0,38,1,10,5,5,5,5,5,5,5,5,5,5,
0,0,0,1,10,5,5,5,5,5,5,5,5,5,5,5,
0,39,1,10,5,5,5,5,5,5,5,5,5,5,5,5
</chunk>
   <chunk x="304" y="-32" width="16" height="16">
0,0,0,0,0,31,32,32,32,32,32,32,32,33,0,0,
0,0,0,0,0,31,32,32,32,32,32,32,32,33,0,0,
0,0,0,0,39,31,32,32,32,32,32,32,32,33,40,0,
42,0,42,0,1,2,2,2,2,2,2,2,2,2,2,2,
2,2,2,2,10,5,5,5,5,5,5,5,5,5,5,5,
5,5,5,5,5,5,5,5,5,5,5,5,5,5,5,5,
5,5,5,5,5,5,5,5,5,5,5,5,5,5,5,5,
5,5,5,5,5,5,5,5,5,5,5,5,5,5,5,5,
5,5,5,5,5,5,5,5,5,5,5,5,5,5,5,5,
5,5,5,5,5,5,5,5,5,5,5,5,5,5,5,5,
5,5,5,5,5,5,5,5,5,5,5,5,5,5,5,5,
5,5,5,5,5,5,5,5,5,5,5,5,5,5,5,5,
5,5,5,5,5,5,5,5,5,5,5,5,5,5,5,5,
5,5,5,5,5,5,5,5,5,5,5,5,5,5,5,5,
5,5,5,5,5,5,5,5,5,5,5,5,5,5,5,5,
5,5,5,5,5,5,5,5,5,5,5,5,5,5,5,5
</chunk>
   <chunk x="320" y="-32" width="16" height="16">
0,0,0,31,32,32,32,33,0,0,0,31,32,32,32,32,
0,0,0,31,32,32,32,33,0,0,0,31,32,32,32,32,
42,38,40,31,32,32,32,33,45,38,39,31,32,32,32,32,
2,2,2,2,2,2,2,2,2,2,2,2,2,2,2,2,
5,5,5,5,5,5,5,5,5,5,5,5,5,5,5,5,
5,5,5,5,5,5,5,5,5,5,5,5,5,5,5,5,
5,5,5,5,5,5,5,5,5,5,5,5,5,5,5,5,
5,5,5,5,5,5,5,5,5,5,5,5,5,5,5,5,
5,5,5,5,5,5,5,5,5,5,5,5,5,5,5,5,
5,5,5,5,5,5,5,5,5,5,5,5,5,5,5,5,
5,5,5,5,5,5,5,5,5,5,5,5,5,5,5,5,
5,5,5,5,5,5,5,5,5,5,5,5,5,5,5,5,
5,5,5,5,5,5,5,5,5,5,5,5,5,5,5,5,
5,5,5,5,5,5,5,5,5,5,5,5,5,5,5,5,
5,5,5,5,5,5,5,5,5,5,5,5,5,5,5,5,
5,5,5,5,5,5,5,5,5,5,5,5,5,5,5,5
</chunk>
   <chunk x="336" y="-32" width="16" height="16">
32,33,0,0,0,0,0,0,0,0,0,0,0,1,2,2,
32,33,0,0,0,0,0,0,0,0,0,0,0,4,5,5,
32,33,40,42,40,38,42,40,42,38,39,40,1,10,5,5,
2,2,2,2,2,2,2,2,2,2,2,2,2,2,2,2,
5,5,5,5,5,5,5,5,5,5,5,5,5,5,5,5,
5,5,5,5,5,5,5,5,5,5,5,5,5,5,5,5,
5,5,5,5,5,5,5,5,5,5,5,5,5,5,5,5,
5,5,5,5,5,5,5,5,5,5,5,5,5,5,5,5,
5,5,5,5,5,5,5,5,5,5,5,5,5,5,5,5,
5,5,5,5,5,5,5,5,5,5,5,5,5,5,5,5,
5,5,5,5,5,5,5,5,5,5,5,5,5,5,5,5,
5,5,5,5,5,5,5,5,5,5,5,5,5,5,5,5,
5,5,5,5,5,5,5,5,5,5,5,5,5,5,5,5,
5,5,5,5,5,5,5,5,5,5,5,5,5,5,5,5,
5,5,5,5,5,5,5,5,5,5,5,5,5,5,5,5,
5,5,5,5,5,5,5,5,5,5,5,5,5,5,5,5
</chunk>
   <chunk x="352" y="-32" width="16" height="16">
2,2,10,5,5,5,5,5,5,5,5,5,5,5,5,5,
5,5,5,5,5,5,5,5,5,5,5,5,5,5,5,5,
5,5,5,5,5,5,5,5,5,5,5,5,5,5,5,5,
2,2,2,2,2,2,2,2,2,2,2,2,2,2,2,2,
5,5,5,5,5,5,5,5,5,5,5,5,5,5,5,5,
5,5,5,5,5,5,5,5,5,5,5,5,5,5,5,5,
5,5,5,5,5,5,5,5,5,5,5,5,5,5,5,5,
5,5,5,5,5,5,5,5,5,5,5,5,5,5,5,5,
5,5,5,5,5,5,5,5,5,5,5,5,5,5,5,5,
5,5,5,5,5,5,5,5,5,5,5,5,5,5,5,5,
5,5,5,5,5,5,5,5,5,5,5,5,5,5,5,5,
5,5,5,5,5,5,5,5,5,5,5,5,5,5,5,5,
5,5,5,5,5,5,5,5,5,5,5,5,5,5,5,5,
5,5,5,5,5,5,5,5,5,5,5,5,5,5,5,5,
5,5,5,5,5,5,5,5,5,5,5,5,5,5,5,5,
5,5,5,5,5,5,5,5,5,5,5,5,5,5,5,5
</chunk>
   <chunk x="368" y="-32" width="16" height="16">
5,5,5,5,5,5,5,5,6,32,32,32,32,32,32,32,
5,5,5,5,5,5,5,5,6,32,32,32,32,32,32,32,
5,5,5,5,5,5,5,5,6,32,32,32,32,32,32,32,
2,2,2,2,2,2,2,2,2,2,2,2,2,2,2,2,
5,5,5,5,5,5,5,5,5,5,5,5,5,5,5,5,
5,5,5,5,5,5,5,5,5,5,5,5,5,5,5,5,
5,5,5,5,5,5,5,5,5,5,5,5,5,5,5,5,
5,5,5,5,5,5,5,5,5,5,5,5,5,5,5,5,
5,5,5,5,5,5,5,5,5,5,5,5,5,5,5,5,
5,5,5,5,5,5,5,5,5,5,5,5,5,5,5,5,
5,5,5,5,5,5,5,5,5,5,5,5,5,5,5,5,
5,5,5,5,5,5,5,5,5,5,5,5,5,5,5,5,
5,5,5,5,5,5,5,5,5,5,5,5,5,5,5,5,
5,5,5,5,5,5,5,5,5,5,5,5,5,5,5,5,
5,5,5,5,5,5,5,5,5,5,5,5,5,5,5,5,
5,5,5,5,5,5,5,5,5,5,5,5,5,5,5,5
</chunk>
   <chunk x="384" y="-32" width="16" height="16">
32,32,32,32,32,32,32,32,32,32,32,32,32,32,32,32,
32,32,32,32,32,32,32,32,32,32,32,32,32,32,32,32,
32,32,32,32,32,32,32,32,32,32,32,32,32,32,32,32,
2,2,2,2,2,2,2,2,2,2,2,2,2,2,2,2,
5,5,5,5,5,5,5,5,5,5,5,5,5,5,5,5,
5,5,5,5,5,5,5,5,5,5,5,5,5,5,5,5,
5,5,5,5,5,5,5,5,5,5,5,5,5,5,5,5,
5,5,5,5,5,5,5,5,5,5,5,5,5,5,5,5,
5,5,5,5,5,5,5,5,5,5,5,5,5,5,5,5,
5,5,5,5,5,5,5,5,5,5,5,5,5,5,5,5,
5,5,5,5,5,5,5,5,5,5,5,5,5,5,5,5,
5,5,5,5,5,5,5,5,5,5,5,5,5,5,5,5,
5,5,5,5,5,5,5,5,5,5,5,5,5,5,5,5,
5,5,5,5,5,5,5,5,5,5,5,5,5,5,5,5,
5,5,5,5,5,5,5,5,5,5,5,5,5,5,5,5,
5,5,5,5,5,5,5,5,5,5,5,5,5,5,5,5
</chunk>
   <chunk x="400" y="-32" width="16" height="16">
33,0,0,0,0,0,0,0,0,0,0,0,0,0,0,0,
33,0,0,0,0,0,0,0,0,0,0,0,0,0,0,0,
33,0,0,43,45,40,43,38,40,45,43,42,40,38,45,40,
2,2,2,2,2,2,2,2,2,2,2,2,2,2,2,2,
5,5,5,5,5,5,5,5,5,5,5,5,5,5,5,5,
5,5,5,5,5,5,5,5,5,5,5,5,5,5,5,5,
5,5,5,5,5,5,5,5,5,5,5,5,5,5,5,5,
5,5,5,5,5,5,5,5,5,5,5,5,5,5,5,5,
5,5,5,5,5,5,5,5,5,5,5,5,5,5,5,5,
5,5,5,5,5,5,5,5,5,5,5,5,5,5,5,5,
5,5,5,5,5,5,5,5,5,5,5,5,5,5,5,5,
5,5,5,5,5,5,5,5,5,5,5,5,5,5,5,5,
5,5,5,5,5,5,5,5,5,5,5,5,5,5,5,5,
5,5,5,5,5,5,5,5,5,5,5,5,5,5,5,5,
5,5,5,5,5,5,5,5,5,5,5,5,5,5,5,5,
5,5,5,5,5,5,5,5,5,5,5,5,5,5,5,5
</chunk>
   <chunk x="416" y="-32" width="16" height="16">
0,0,0,0,0,0,0,0,0,0,0,0,0,0,0,31,
0,0,0,0,0,0,0,0,0,0,0,0,0,0,0,31,
43,42,38,45,40,43,40,38,0,45,40,43,42,38,42,31,
2,2,2,2,2,2,2,2,2,2,2,2,2,2,2,2,
5,5,5,5,5,5,5,5,5,5,5,5,5,5,5,5,
5,5,5,5,5,5,5,5,5,5,5,5,5,5,5,5,
5,5,5,5,5,5,5,5,5,5,5,5,5,5,5,5,
5,5,5,5,5,5,5,5,5,5,5,5,5,5,5,5,
5,5,5,5,5,5,5,5,5,5,5,5,5,5,5,5,
5,5,5,5,5,5,5,5,5,5,5,5,5,5,5,5,
5,5,5,5,5,5,5,5,5,5,5,5,5,5,5,5,
5,5,5,5,5,5,5,5,5,5,5,5,5,5,5,5,
5,5,5,5,5,5,5,5,5,5,5,5,5,5,5,5,
5,5,5,5,5,5,5,5,5,5,5,5,5,5,5,5,
5,5,5,5,5,5,5,5,5,5,5,5,5,5,5,5,
5,5,5,5,5,5,5,5,5,5,5,5,5,5,5,5
</chunk>
   <chunk x="432" y="-32" width="16" height="16">
32,32,32,32,32,32,32,33,0,0,0,0,0,31,32,32,
32,32,32,32,32,32,32,33,0,0,0,0,37,31,32,32,
32,32,32,32,32,32,32,33,39,44,44,39,44,31,32,32,
2,2,2,2,2,2,2,2,2,2,2,2,2,2,2,2,
5,5,5,5,5,5,5,5,5,5,5,5,5,5,5,5,
5,5,5,5,5,5,5,5,5,5,5,5,5,5,5,5,
5,5,5,5,5,5,5,5,5,5,5,5,5,5,5,5,
5,5,5,5,5,5,5,5,5,5,5,5,5,5,5,5,
5,5,5,5,5,5,5,5,5,5,5,5,5,5,5,5,
5,5,5,5,5,5,5,5,5,5,5,5,5,5,5,5,
5,5,5,5,5,5,5,5,5,5,5,5,5,5,5,5,
5,5,5,5,5,5,5,5,5,5,5,5,5,5,5,5,
5,5,5,5,5,5,5,5,5,5,5,5,5,5,5,5,
5,5,5,5,5,5,5,5,5,5,5,5,5,5,5,5,
5,5,5,5,5,5,5,5,5,5,5,5,5,5,5,5,
5,5,5,5,5,5,5,5,5,5,5,5,5,5,5,5
</chunk>
   <chunk x="448" y="-32" width="16" height="16">
32,33,0,0,0,31,32,32,32,32,32,33,0,0,0,0,
32,33,0,0,0,31,32,32,32,32,32,33,0,0,0,0,
32,33,44,39,44,31,32,32,32,32,32,33,0,40,39,38,
2,2,2,2,2,2,2,2,2,2,2,2,2,2,2,2,
5,5,5,5,5,5,5,5,5,5,5,5,5,5,5,5,
5,5,5,5,5,5,5,5,5,5,5,5,5,5,5,5,
5,5,5,5,5,5,5,5,5,5,5,5,5,5,5,5,
5,5,5,5,5,5,5,5,5,5,5,5,5,5,5,5,
5,5,5,5,5,5,5,5,5,5,5,5,5,5,5,5,
5,5,5,5,5,5,5,5,5,5,5,5,5,5,5,5,
5,5,5,5,5,5,5,5,5,5,5,5,5,5,5,5,
5,5,5,5,5,5,5,5,5,5,5,5,5,5,5,5,
5,5,5,5,5,5,5,5,5,5,5,5,5,5,5,5,
5,5,5,5,5,5,5,5,5,5,5,5,5,5,5,5,
5,5,5,5,5,5,5,5,5,5,5,5,5,5,5,5,
5,5,5,5,5,5,5,5,5,5,5,5,5,5,5,5
</chunk>
   <chunk x="464" y="-32" width="16" height="16">
0,0,0,0,0,1,2,2,2,2,10,5,5,5,5,5,
0,0,0,0,42,4,5,5,5,5,5,5,5,5,5,5,
0,40,42,44,1,10,5,5,5,5,5,5,5,5,5,5,
2,2,2,2,2,2,2,2,2,2,2,2,2,2,2,2,
5,5,5,5,5,5,5,5,5,5,5,5,5,5,5,5,
5,5,5,5,5,5,5,5,5,5,5,5,5,5,5,5,
5,5,5,5,5,5,5,5,5,5,5,5,5,5,5,5,
5,5,5,5,5,5,5,5,5,5,5,5,5,5,5,5,
5,5,5,5,5,5,5,5,5,5,5,5,5,5,5,5,
5,5,5,5,5,5,5,5,5,5,5,5,5,5,5,5,
5,5,5,5,5,5,5,5,5,5,5,5,5,5,5,5,
5,5,5,5,5,5,5,5,5,5,5,5,5,5,5,5,
5,5,5,5,5,5,5,5,5,5,5,5,5,5,5,5,
5,5,5,5,5,5,5,5,5,5,5,5,5,5,5,5,
5,5,5,5,5,5,5,5,5,5,5,5,5,5,5,5,
5,5,5,5,5,5,5,5,5,5,5,5,5,5,5,5
</chunk>
   <chunk x="480" y="-32" width="16" height="16">
2147483653,2147483653,2147483653,2147483653,2147483653,2147483658,2147483650,2147483650,2147483650,2147483650,2147483649,0,0,0,0,0,
2147483653,2147483653,2147483653,2147483653,2147483653,2147483653,2147483653,2147483653,2147483653,2147483653,2147483652,44,0,0,0,0,
2147483653,2147483653,2147483653,2147483653,2147483653,2147483653,2147483653,2147483653,2147483653,2147483653,2147483658,2147483649,40,44,38,44,
2,2,2,2,2,2,2,2,2,2,2,2,2,2,2,2,
5,5,5,5,5,5,5,5,5,5,5,5,5,5,5,5,
5,5,5,5,5,5,5,5,5,5,5,5,5,5,5,5,
5,5,5,5,5,5,5,5,5,5,5,5,5,5,5,5,
5,5,5,5,5,5,5,5,5,5,5,5,5,5,5,5,
5,5,5,5,5,5,5,5,5,5,5,5,5,5,5,5,
5,5,5,5,5,5,5,5,5,5,5,5,5,5,5,5,
5,5,5,5,5,5,5,5,5,5,5,5,5,5,5,5,
5,5,5,5,5,5,5,5,5,5,5,5,5,5,5,5,
5,5,5,5,5,5,5,5,5,5,5,5,5,5,5,5,
5,5,5,5,5,5,5,5,5,5,5,5,5,5,5,5,
5,5,5,5,5,5,5,5,5,5,5,5,5,5,5,5,
5,5,5,5,5,5,5,5,5,5,5,5,5,5,5,5
</chunk>
   <chunk x="496" y="-32" width="16" height="16">
0,0,0,0,0,0,0,0,0,0,0,20,0,0,0,4,
0,0,37,37,37,37,37,0,0,0,0,0,0,0,0,4,
44,39,44,40,44,38,44,39,39,41,40,38,44,44,39,4,
2,2,2,2,2,2,2,2,2,2,2,2,2,2,2,10,
5,5,5,5,5,5,5,5,5,5,5,5,5,5,5,5,
5,5,5,5,5,5,5,5,5,5,5,5,5,5,5,5,
5,5,5,5,5,5,5,5,5,5,5,5,5,5,5,5,
5,5,5,5,5,5,5,5,5,5,5,5,5,5,5,5,
5,5,5,5,5,5,5,5,5,5,5,5,5,5,5,5,
5,5,5,5,5,5,5,5,5,5,5,5,5,5,5,5,
5,5,5,5,5,5,5,5,5,5,5,5,5,5,5,5,
5,5,5,5,5,5,5,5,5,5,5,5,5,5,5,5,
5,5,5,5,5,5,5,5,5,5,5,5,5,5,5,5,
5,5,5,5,5,5,5,5,5,5,5,5,5,5,5,5,
5,5,5,5,5,5,5,5,5,5,5,5,5,5,5,5,
5,5,5,5,5,5,5,5,5,5,5,5,5,5,5,5
</chunk>
   <chunk x="512" y="-32" width="16" height="16">
5,5,5,5,5,5,5,5,5,5,5,5,5,5,5,5,
5,5,5,5,5,5,5,5,5,5,5,5,5,5,5,5,
5,5,5,5,5,5,5,5,5,5,5,5,5,5,5,5,
5,5,5,5,5,5,5,5,5,5,5,5,5,5,5,5,
5,5,5,5,5,5,5,5,5,5,5,5,5,5,5,5,
5,5,5,5,5,5,5,5,5,5,5,5,5,5,5,5,
5,5,5,5,5,5,5,5,5,5,5,5,5,5,5,5,
5,5,5,5,5,5,5,5,5,5,5,5,5,5,5,5,
5,5,5,5,5,5,5,5,5,5,5,5,5,5,5,5,
5,5,5,5,5,5,5,5,5,5,5,5,5,5,5,5,
5,5,5,5,5,5,5,5,5,5,5,5,5,5,5,5,
5,5,5,5,5,5,5,5,5,5,5,5,5,5,5,5,
5,5,5,5,5,5,5,5,5,5,5,5,5,5,5,5,
5,5,5,5,5,5,5,5,5,5,5,5,5,5,5,5,
5,5,5,5,5,5,5,5,5,5,5,5,5,5,5,5,
5,5,5,5,5,5,5,5,5,5,5,5,5,5,5,5
</chunk>
   <chunk x="528" y="-32" width="16" height="16">
5,5,5,5,5,5,5,5,5,5,0,0,0,0,0,0,
5,5,5,5,5,5,5,5,5,5,0,0,0,0,0,0,
5,5,5,5,5,5,5,5,5,5,0,0,0,0,0,0,
5,5,5,5,5,5,5,5,5,5,0,0,0,0,0,0,
5,5,5,5,5,5,5,5,5,5,0,0,0,0,0,0,
5,5,5,5,5,5,5,5,5,5,0,0,0,0,0,0,
5,5,5,5,5,5,5,5,5,5,0,0,0,0,0,0,
5,5,5,5,5,5,5,5,5,5,0,0,0,0,0,0,
5,5,5,5,5,5,5,5,5,5,0,0,0,0,0,0,
5,5,5,5,5,5,5,5,5,5,0,0,0,0,0,0,
5,5,5,5,5,5,5,5,5,5,0,0,0,0,0,0,
5,5,5,5,5,5,5,5,5,5,0,0,0,0,0,0,
5,5,5,5,5,5,5,5,5,5,0,0,0,0,0,0,
5,5,5,5,5,5,5,5,5,5,0,0,0,0,0,0,
5,5,5,5,5,5,5,5,5,5,0,0,0,0,0,0,
5,5,5,5,5,5,5,5,5,5,0,0,0,0,0,0
</chunk>
   <chunk x="-48" y="-16" width="16" height="16">
0,0,0,0,0,0,0,0,0,0,0,0,0,0,0,0,
0,0,0,0,0,0,0,0,0,0,0,0,0,0,0,0,
0,0,0,0,0,0,0,0,0,0,0,0,0,0,0,0,
0,0,0,0,0,0,0,0,0,0,0,0,0,0,0,0,
0,0,0,0,0,0,0,0,0,0,0,0,0,0,0,0,
0,0,0,0,0,0,0,0,0,0,0,0,0,0,0,0,
0,0,0,0,0,0,0,0,0,0,0,0,0,0,0,0,
0,0,0,0,0,0,0,0,0,0,0,0,0,0,0,0,
0,0,0,0,0,0,0,0,0,0,0,0,0,0,0,0,
0,0,0,0,0,0,0,0,0,0,0,0,0,0,0,0,
0,0,0,0,0,0,0,0,0,0,0,0,0,0,0,0,
0,0,0,0,0,0,0,0,0,0,0,0,0,0,0,0,
0,0,0,0,0,0,0,0,0,0,0,0,0,0,0,5,
0,0,0,0,0,0,0,0,0,0,0,0,0,0,0,5,
0,0,0,0,0,0,0,0,0,0,0,0,0,0,0,5,
0,0,0,0,0,0,0,0,0,0,0,0,0,0,5,5
</chunk>
   <chunk x="-32" y="-16" width="16" height="16">
0,0,0,5,5,5,5,5,5,5,5,5,5,5,5,5,
0,0,5,5,5,5,5,5,5,5,5,5,5,5,5,5,
0,0,5,5,5,5,5,5,5,5,5,5,5,5,5,5,
0,0,5,5,5,5,5,5,5,5,5,5,5,5,5,5,
0,0,5,5,5,5,5,5,5,5,5,5,5,5,5,5,
0,5,5,5,5,5,5,5,5,5,5,5,5,5,5,5,
0,5,5,5,5,5,5,5,5,5,5,5,5,5,5,5,
0,5,5,5,5,5,5,5,5,5,5,5,5,5,5,5,
5,5,5,5,5,5,5,5,5,5,5,5,5,5,5,5,
5,5,5,5,5,5,5,5,5,5,5,5,5,5,5,5,
5,5,5,5,5,5,5,5,5,5,5,5,5,5,5,5,
5,5,5,5,5,5,5,5,5,5,5,5,5,5,5,5,
5,5,5,5,5,5,5,5,5,5,5,5,5,5,5,5,
5,5,5,5,5,5,5,5,5,5,5,5,5,5,5,5,
5,5,5,5,5,5,5,5,5,5,5,5,5,5,5,5,
5,5,5,5,5,5,5,5,5,5,5,5,5,5,5,5
</chunk>
   <chunk x="-16" y="-16" width="16" height="16">
5,5,5,12,3,19,19,19,19,19,19,19,19,19,19,19,
5,5,5,5,6,19,19,19,19,19,19,19,19,19,19,19,
5,5,5,5,6,19,19,19,19,19,19,19,19,19,19,19,
5,5,5,5,6,19,19,19,19,19,19,19,19,19,19,19,
5,5,5,5,6,19,19,19,19,19,19,19,19,19,19,19,
5,5,5,5,6,19,19,19,19,19,19,19,19,19,19,21,
5,5,5,5,6,19,19,19,19,19,20,19,19,19,19,19,
5,5,5,5,6,19,19,19,19,19,19,19,19,19,19,19,
5,5,5,5,6,39,19,19,19,19,19,19,19,19,19,19,
5,5,5,5,12,3,19,19,19,19,19,19,19,19,19,19,
5,5,5,5,5,6,19,19,19,19,19,19,19,19,19,19,
5,5,5,5,5,6,19,19,19,19,19,19,19,19,19,19,
5,5,5,5,5,6,19,19,19,19,19,19,19,19,19,20,
5,5,5,5,5,6,19,19,19,19,19,19,19,19,19,19,
5,5,5,5,5,6,19,19,19,19,19,19,19,19,19,19,
5,5,5,5,5,6,19,19,19,19,19,19,19,19,19,19
</chunk>
   <chunk x="0" y="-16" width="16" height="16">
19,19,19,19,19,19,19,19,19,19,19,19,19,19,19,19,
19,19,19,19,19,19,19,19,19,19,19,19,19,19,19,19,
19,19,19,19,19,19,19,19,19,19,19,27,19,19,19,19,
19,19,19,19,19,19,21,19,19,19,19,19,19,19,19,19,
19,19,19,19,19,19,19,19,19,19,19,19,19,19,19,19,
19,19,19,19,19,19,19,19,19,19,19,19,19,19,19,19,
19,19,19,19,19,19,19,19,19,19,19,19,19,19,19,19,
19,19,19,19,19,19,19,19,19,19,19,19,19,19,19,19,
19,19,19,20,21,19,19,19,19,19,19,19,21,19,19,19,
19,19,19,19,19,19,19,19,19,19,19,19,19,19,19,19,
19,19,19,19,19,19,19,19,19,19,19,19,19,19,19,19,
19,19,19,19,19,19,19,19,19,19,19,19,19,19,19,19,
19,19,19,19,27,19,19,19,19,19,19,19,19,19,19,19,
19,19,19,19,19,19,19,19,19,19,19,20,19,19,27,19,
19,19,19,19,19,19,19,19,19,19,19,19,19,19,19,19,
19,19,19,19,19,19,19,19,19,19,19,19,19,19,19,19
</chunk>
   <chunk x="16" y="-16" width="16" height="16">
19,19,19,19,19,19,19,19,19,19,19,19,0,0,0,0,
19,19,19,19,19,19,19,19,19,19,19,19,0,0,0,0,
19,19,19,19,19,19,19,19,19,19,19,19,0,0,0,0,
19,19,19,19,19,19,19,19,19,19,19,19,0,0,0,0,
19,19,19,21,21,19,19,19,19,19,19,19,27,0,0,0,
19,19,19,19,19,19,19,19,19,19,19,19,0,0,0,0,
19,19,19,19,19,19,19,19,19,19,19,19,0,0,0,0,
19,19,19,19,19,19,19,19,19,19,19,19,0,0,0,0,
19,19,26,19,19,19,19,19,19,19,19,19,0,0,0,0,
19,19,19,20,19,19,19,19,19,19,19,19,0,0,0,0,
19,19,19,19,19,19,19,19,19,19,19,19,0,0,0,0,
19,19,19,19,19,19,19,19,19,19,19,19,0,0,0,0,
19,19,19,19,19,19,21,19,19,19,19,19,0,0,0,0,
19,19,19,19,19,19,19,19,19,19,19,19,0,0,0,0,
19,19,19,19,19,19,19,19,19,19,19,19,0,0,0,0,
19,19,19,19,19,19,19,19,19,19,19,19,0,0,0,0
</chunk>
   <chunk x="32" y="-16" width="16" height="16">
0,0,0,0,0,0,0,0,0,0,0,0,0,0,0,0,
0,0,0,0,0,0,0,0,0,0,0,0,0,0,0,0,
26,0,0,0,0,0,0,0,0,0,0,0,0,0,0,0,
0,0,0,0,0,0,0,0,0,0,0,0,0,0,0,0,
0,0,0,0,0,0,0,0,0,0,0,0,0,0,0,0,
0,0,0,0,0,0,0,0,0,0,0,0,0,0,0,0,
0,0,0,0,0,0,0,0,0,0,0,0,0,0,0,0,
0,0,0,0,0,0,0,0,0,0,0,0,0,0,0,0,
0,0,20,0,0,0,0,0,0,0,0,0,0,0,0,0,
0,0,0,0,0,0,0,0,0,0,0,0,0,0,0,0,
0,0,0,0,0,0,0,0,0,0,0,0,0,0,0,0,
27,0,0,0,22,0,0,0,0,0,0,0,0,0,0,0,
0,0,0,0,0,0,0,0,0,0,0,0,21,0,0,0,
0,0,0,0,0,0,0,0,0,0,0,0,0,0,0,0,
0,0,0,0,0,0,0,0,0,0,0,0,0,0,0,0,
0,0,0,0,0,0,0,0,0,0,0,0,0,0,0,20
</chunk>
   <chunk x="48" y="-16" width="16" height="16">
0,0,0,0,0,0,0,0,0,0,0,0,0,0,0,0,
0,0,0,0,0,0,0,0,0,0,0,0,0,0,0,0,
0,0,0,0,0,0,0,0,0,0,0,0,0,0,0,0,
0,0,0,0,0,0,0,0,0,0,0,0,0,0,0,0,
0,0,0,0,0,0,0,0,0,0,0,0,0,0,0,0,
0,0,0,0,0,0,0,0,0,0,0,0,0,0,0,0,
0,0,0,0,0,0,0,0,0,0,0,0,0,0,0,0,
0,0,0,0,0,0,0,0,0,0,0,0,0,0,0,0,
0,0,0,25,0,0,0,0,0,0,0,0,0,0,0,0,
0,0,0,0,0,0,0,0,0,0,0,0,0,0,0,0,
0,0,0,0,0,0,0,0,0,0,0,0,0,0,0,0,
0,0,0,0,0,0,0,0,0,0,0,0,0,0,0,0,
0,0,0,0,0,22,0,0,0,0,0,0,0,0,0,0,
0,0,0,0,0,0,0,0,0,0,0,0,0,0,27,0,
0,0,0,0,0,0,0,0,0,0,0,0,0,0,0,0,
0,0,0,0,0,0,0,0,0,0,0,0,0,0,0,0
</chunk>
   <chunk x="64" y="-16" width="16" height="16">
0,0,0,0,0,0,0,0,0,0,0,0,0,0,0,0,
0,0,0,0,0,0,0,0,0,0,0,0,0,0,0,0,
0,0,0,0,0,0,0,0,0,0,0,0,0,0,0,0,
0,0,0,0,0,0,0,0,0,0,0,0,0,0,0,0,
0,0,0,0,0,0,0,0,0,0,0,0,0,0,0,0,
0,0,0,0,0,0,0,0,0,0,0,0,0,0,0,0,
0,0,0,0,0,0,0,0,0,0,0,0,0,0,0,0,
0,0,0,0,0,0,0,0,0,0,0,0,0,0,0,0,
0,0,0,0,0,0,0,0,0,0,0,0,0,0,0,0,
0,0,0,0,0,0,0,0,0,0,0,0,0,0,0,0,
0,0,0,0,0,0,0,0,0,0,0,0,26,0,0,0,
0,0,0,0,0,0,0,0,0,0,0,0,0,0,0,0,
0,0,0,0,0,0,0,0,0,0,0,0,0,0,0,0,
0,0,0,0,0,0,0,0,0,0,0,0,0,0,0,0,
0,0,0,0,0,0,20,0,0,0,0,0,0,0,0,0,
0,0,0,0,0,0,0,0,0,0,0,0,0,22,0,0
</chunk>
   <chunk x="80" y="-16" width="16" height="16">
0,0,0,0,0,0,0,0,0,0,0,0,0,0,0,0,
0,0,0,0,0,0,0,0,0,0,0,0,0,0,0,0,
0,0,0,0,0,0,0,0,0,0,0,0,0,0,0,0,
0,0,0,0,0,0,0,0,0,0,0,0,0,0,0,0,
0,0,0,0,0,0,0,0,0,0,0,0,0,0,0,0,
0,0,0,0,0,0,0,0,0,0,0,0,0,0,0,0,
0,0,0,0,0,0,0,0,0,0,0,0,0,0,0,0,
0,0,0,0,0,0,0,0,0,0,0,0,0,0,0,0,
0,0,0,0,0,0,0,0,0,0,0,0,22,0,0,0,
0,0,0,0,0,27,0,0,0,0,0,0,0,0,0,0,
0,0,0,0,0,0,0,0,0,0,0,0,0,0,0,0,
0,0,0,0,0,0,0,0,0,0,0,0,0,0,0,0,
0,0,0,0,0,0,0,0,0,0,0,0,0,0,0,0,
0,0,0,0,0,0,0,0,0,0,0,0,0,0,0,0,
0,0,0,0,0,0,0,0,0,0,0,0,0,0,0,0,
0,0,0,0,0,0,0,0,25,0,0,0,0,0,0,0
</chunk>
   <chunk x="96" y="-16" width="16" height="16">
0,0,0,0,0,0,0,0,0,0,0,0,0,0,0,0,
0,0,0,0,0,0,0,0,0,0,0,0,0,0,0,0,
0,0,0,0,0,0,0,0,0,0,0,0,0,0,0,0,
0,0,0,0,0,0,0,0,0,0,0,0,0,0,0,0,
0,0,0,0,0,0,0,0,0,0,0,0,0,0,0,0,
0,0,0,0,0,0,0,0,0,26,26,0,0,0,0,0,
0,0,0,0,0,0,0,0,0,0,0,0,0,0,0,0,
0,0,0,0,0,0,0,0,0,0,0,0,0,0,0,0,
0,0,0,0,0,0,0,0,0,0,0,0,0,0,0,0,
0,0,0,0,0,0,0,0,0,0,0,0,0,0,0,0,
0,0,27,0,0,0,0,0,0,0,0,20,0,0,0,0,
0,0,0,0,0,0,0,0,0,0,0,0,0,0,0,0,
0,0,0,0,0,0,0,0,0,0,0,0,0,0,0,0,
0,0,0,0,0,0,0,0,0,0,0,0,0,0,0,0,
0,0,0,0,0,0,0,0,0,0,0,0,0,0,0,0,
0,0,0,0,0,0,0,0,0,0,0,0,0,0,0,0
</chunk>
   <chunk x="112" y="-16" width="16" height="16">
0,0,0,0,0,0,0,0,0,0,0,0,0,0,0,0,
0,0,0,0,0,0,0,0,0,0,0,0,0,0,0,0,
0,0,0,0,0,0,0,0,0,0,0,0,0,0,0,0,
0,0,0,0,0,0,0,0,0,0,0,0,0,0,0,0,
0,0,0,0,0,0,0,0,0,0,0,0,0,0,0,0,
0,0,0,0,0,0,0,0,0,0,0,0,0,0,0,0,
0,0,0,0,0,0,0,0,0,0,0,0,0,0,0,0,
0,0,0,0,0,0,0,0,0,0,0,0,0,0,0,0,
0,0,0,0,0,0,0,0,26,0,0,0,0,0,0,0,
0,0,0,0,0,0,0,0,0,0,0,0,0,0,0,0,
0,0,0,0,0,0,0,0,0,0,0,0,0,0,0,0,
0,0,0,0,0,0,0,0,0,0,0,0,0,0,0,0,
0,0,0,0,0,0,0,0,0,0,0,0,0,0,0,0,
0,0,25,0,0,0,0,0,0,0,0,0,0,0,0,0,
0,0,0,0,0,0,0,0,0,0,0,0,0,0,0,0,
0,0,0,0,0,0,0,0,0,0,0,21,0,0,0,0
</chunk>
   <chunk x="128" y="-16" width="16" height="16">
0,0,0,0,0,0,0,0,0,0,0,0,0,0,0,0,
0,0,0,0,0,0,0,0,0,0,0,0,0,0,0,0,
0,0,0,0,0,0,0,0,0,0,0,0,0,0,0,0,
0,0,0,0,0,0,0,0,0,0,0,0,0,0,0,0,
0,0,0,0,0,0,0,0,0,0,0,0,0,0,0,0,
0,0,0,0,0,0,0,0,0,0,0,0,0,0,0,0,
0,0,0,0,0,0,0,0,0,0,0,0,0,0,0,0,
0,0,0,0,0,0,0,0,0,0,0,0,0,0,0,0,
0,0,0,0,0,0,0,0,0,0,0,0,0,0,26,0,
0,0,0,21,0,0,0,0,0,0,0,0,0,0,0,0,
0,0,0,0,0,0,0,0,0,0,0,0,0,0,0,0,
0,0,0,0,0,0,0,0,0,0,0,0,0,0,0,0,
0,0,0,0,0,0,0,0,0,0,0,0,0,0,0,0,
0,0,0,0,0,0,0,0,0,0,0,0,0,0,0,0,
0,0,0,0,0,0,0,0,0,0,0,0,0,0,0,0,
0,0,0,0,0,0,20,0,0,0,0,0,0,0,0,0
</chunk>
   <chunk x="144" y="-16" width="16" height="16">
0,0,0,0,0,0,0,0,0,0,0,0,0,0,0,0,
0,0,0,0,0,0,0,0,0,0,0,0,0,0,0,0,
0,0,0,0,0,0,0,0,0,0,0,0,0,0,0,0,
0,0,0,0,0,0,0,0,0,0,0,0,0,0,0,0,
0,0,0,0,0,0,0,0,0,0,0,0,0,0,0,0,
0,0,0,0,0,0,0,0,0,0,0,0,0,0,0,0,
0,0,0,0,0,0,0,0,0,0,0,0,0,0,0,0,
0,0,0,0,0,0,0,0,0,0,0,0,0,0,0,0,
0,0,0,0,20,0,0,0,0,0,0,0,0,0,0,0,
0,0,0,0,0,0,0,0,0,0,0,0,0,0,0,0,
0,0,0,0,0,0,0,0,0,0,0,0,0,0,0,0,
0,0,0,0,0,0,0,0,0,0,0,0,0,0,0,0,
0,0,0,0,0,0,0,0,0,27,0,0,0,0,0,0,
0,0,0,0,0,0,0,0,0,0,0,0,0,0,0,0,
21,0,0,0,0,0,0,0,0,0,0,0,0,0,0,0,
0,0,0,0,0,0,0,0,0,0,0,0,0,0,0,0
</chunk>
   <chunk x="160" y="-16" width="16" height="16">
0,0,0,0,0,0,0,0,0,0,0,0,0,0,0,0,
0,0,0,0,0,0,0,0,0,0,0,0,0,0,0,0,
0,0,0,0,0,0,0,0,0,0,0,0,0,0,0,0,
0,0,0,0,0,0,0,0,0,0,0,0,0,0,0,0,
0,0,0,0,0,0,0,0,0,0,0,0,0,0,0,0,
0,0,0,0,27,0,0,0,0,0,0,0,0,0,0,0,
0,0,0,0,0,0,0,0,0,0,0,0,0,0,0,0,
0,0,0,0,0,0,0,0,0,0,0,0,0,0,0,0,
0,0,0,0,0,0,0,0,0,0,27,0,0,0,0,25,
0,0,0,0,0,0,0,0,0,0,0,0,0,0,0,0,
0,0,0,0,0,0,0,0,0,0,0,0,0,0,0,0,
0,0,0,0,0,0,0,0,0,0,0,0,0,0,0,0,
25,0,0,0,0,0,0,0,0,0,0,0,0,0,0,0,
0,0,0,0,0,0,0,0,0,0,0,0,0,0,0,0,
0,0,0,0,0,0,0,0,0,0,0,0,0,0,0,0,
0,0,0,0,0,0,0,0,0,0,22,0,0,0,0,0
</chunk>
   <chunk x="176" y="-16" width="16" height="16">
0,0,0,0,0,0,0,0,0,0,0,0,0,0,0,0,
0,0,0,0,0,0,0,0,0,0,0,0,0,0,0,0,
0,0,0,20,0,0,0,0,0,0,0,0,0,0,0,0,
0,0,0,0,0,0,0,0,0,0,0,0,0,0,0,0,
0,0,0,0,0,0,0,0,0,0,0,0,0,0,0,0,
0,0,0,0,0,0,0,0,0,0,0,0,0,0,0,0,
0,0,0,0,0,0,0,0,0,0,0,0,0,0,0,0,
0,0,0,0,0,0,0,0,0,0,0,0,0,0,0,0,
26,19,19,19,0,0,0,0,0,0,0,0,0,0,0,0,
0,0,0,0,0,0,0,0,0,0,0,0,0,0,0,0,
0,0,0,0,0,0,0,0,0,0,0,26,0,23,0,0,
0,0,0,0,0,0,0,20,0,0,0,0,0,24,0,0,
0,0,0,0,0,0,0,0,0,0,0,0,0,23,0,0,
21,0,0,0,0,0,0,0,0,0,0,0,0,0,0,0,
0,0,0,0,0,0,0,0,0,0,0,0,0,0,0,0,
0,0,0,0,0,0,0,0,0,0,0,0,0,21,0,0
</chunk>
   <chunk x="192" y="-16" width="16" height="16">
0,0,0,0,0,0,0,0,0,0,0,0,0,0,0,0,
0,0,0,0,0,0,0,0,0,0,0,0,0,0,0,0,
0,0,0,0,0,0,0,0,0,0,0,0,0,0,0,0,
0,0,0,0,0,0,0,0,0,0,0,0,0,0,0,0,
0,0,0,0,0,0,0,0,0,0,0,0,0,0,0,0,
0,0,0,25,0,0,0,0,0,0,0,0,0,21,0,26,
0,0,0,0,0,0,0,0,0,0,0,0,0,0,0,0,
0,0,0,0,23,0,0,0,0,0,0,0,0,0,0,0,
0,0,0,0,0,0,0,0,0,0,23,0,0,0,0,0,
0,0,0,0,0,0,0,0,0,0,0,0,0,0,0,0,
0,0,0,0,0,0,0,0,22,0,0,0,0,0,0,0,
0,0,0,0,0,0,0,0,0,0,0,0,0,0,0,0,
0,0,0,0,0,0,0,0,0,0,0,0,0,0,0,0,
0,0,0,0,26,0,0,0,0,0,0,0,0,0,0,0,
0,0,0,0,0,0,22,0,0,20,0,0,0,0,0,0,
0,0,0,0,0,0,0,0,0,0,0,0,0,0,0,0
</chunk>
   <chunk x="208" y="-16" width="16" height="16">
0,0,0,0,0,0,0,0,0,0,0,0,0,0,0,0,
0,0,0,0,0,0,0,0,0,0,0,0,0,0,0,0,
0,0,0,0,0,0,0,0,0,0,0,0,0,0,0,0,
0,0,0,0,0,0,0,0,0,0,0,0,20,0,0,0,
0,0,0,0,0,0,0,0,0,0,0,0,0,0,0,0,
0,0,0,0,0,0,0,0,0,0,0,0,0,0,0,0,
0,0,0,0,0,0,0,0,0,0,0,0,0,0,0,0,
0,0,0,0,0,0,0,0,0,0,0,0,0,0,0,0,
0,0,0,0,0,0,0,0,0,0,0,0,0,0,0,0,
0,0,0,0,0,0,0,0,0,0,23,0,0,0,0,0,
0,0,0,0,0,0,0,0,0,0,0,0,0,0,0,0,
25,0,0,0,0,0,0,0,0,0,0,0,0,0,37,40,
0,0,0,0,0,0,0,0,0,0,0,0,0,0,40,1,
0,0,0,0,0,0,0,0,0,0,0,0,0,44,1,10,
0,0,0,0,0,0,0,0,0,0,0,0,38,1,10,5,
0,0,0,0,23,0,0,0,0,0,0,42,1,10,5,5
</chunk>
   <chunk x="224" y="-16" width="16" height="16">
0,0,0,0,0,0,0,1,2,2,2,2,2,2,2,3,
0,0,0,0,0,0,0,31,32,32,32,32,32,32,32,33,
0,0,0,0,0,0,0,31,32,32,32,32,32,32,32,33,
0,0,0,0,23,0,0,31,32,32,32,32,32,32,32,33,
0,0,0,0,0,0,0,31,32,32,32,32,32,32,32,33,
0,0,0,0,0,0,42,31,32,32,32,32,32,32,32,33,
0,0,0,0,44,40,1,2,2,2,2,2,2,2,2,2,
0,0,0,0,1,2,10,5,5,5,5,5,5,5,5,5,
0,0,40,1,10,5,5,5,5,5,5,5,5,5,5,5,
0,38,1,10,5,5,5,5,5,5,5,5,5,5,5,5,
44,1,10,5,5,5,5,5,5,5,5,5,5,5,5,5,
1,10,5,5,5,5,5,5,5,5,5,5,5,5,5,5,
10,5,5,5,5,5,5,5,5,5,5,5,5,5,5,5,
5,5,5,5,5,5,5,5,5,5,5,5,5,5,5,5,
5,5,5,5,5,5,5,5,5,5,5,5,5,5,5,5,
5,5,5,5,5,5,5,5,5,5,5,5,5,5,5,5
</chunk>
   <chunk x="240" y="-16" width="16" height="16">
0,0,0,0,0,0,0,37,0,0,0,0,0,31,32,32,
0,0,0,0,0,0,44,45,44,0,0,0,0,31,32,32,
0,0,0,0,0,1,2,2,2,3,0,0,0,31,32,32,
0,0,0,0,0,31,32,32,32,33,0,23,0,31,32,32,
0,0,0,0,0,31,32,32,32,33,0,0,0,31,32,32,
0,38,44,44,42,31,32,32,32,33,40,44,0,31,32,32,
2,2,2,2,2,2,2,2,2,2,2,2,2,2,2,2,
5,5,5,5,5,5,5,5,5,5,5,5,5,5,5,5,
5,5,5,5,5,5,5,5,5,5,5,5,5,5,5,5,
5,5,5,5,5,5,5,5,5,5,5,5,5,5,5,5,
5,5,5,5,5,5,5,5,5,5,5,5,5,5,5,5,
5,5,5,5,5,5,5,5,5,5,5,5,5,5,5,5,
5,5,5,5,5,5,5,5,5,5,5,5,5,5,5,5,
5,5,5,5,5,5,5,5,5,5,5,5,5,5,5,5,
5,5,5,5,5,5,5,5,5,5,5,5,5,5,5,5,
5,5,5,5,5,5,5,5,5,5,5,5,5,5,5,5
</chunk>
   <chunk x="256" y="-16" width="16" height="16">
32,32,32,33,0,0,0,0,21,0,0,0,0,0,0,0,
32,32,32,33,0,0,0,0,0,0,0,0,0,0,0,0,
32,32,32,33,0,0,0,0,0,0,0,0,0,23,0,0,
32,32,32,33,0,0,0,0,0,0,0,0,0,0,0,0,
32,32,32,33,0,0,0,0,0,0,0,0,0,0,0,0,
32,32,32,33,0,39,44,44,38,44,39,44,42,44,39,38,
2,2,2,2,2,2,2,2,2,2,2,2,2,2,2,2,
5,5,5,5,5,5,5,5,5,5,5,5,5,5,5,5,
5,5,5,5,5,5,5,5,5,5,5,5,5,5,5,5,
5,5,5,5,5,5,5,5,5,5,5,5,5,5,5,5,
5,5,5,5,5,5,5,5,5,5,5,5,5,5,5,5,
5,5,5,5,5,5,5,5,5,5,5,5,5,5,5,5,
5,5,5,5,5,5,5,5,5,5,5,5,5,5,5,5,
5,5,5,5,5,5,5,5,5,5,5,5,5,5,5,5,
5,5,5,5,5,5,5,5,5,5,5,5,5,5,5,5,
5,5,5,5,5,5,5,5,5,5,5,5,5,5,5,5
</chunk>
   <chunk x="272" y="-16" width="16" height="16">
0,0,0,0,0,0,0,0,0,0,0,0,23,0,0,0,
0,0,0,0,0,0,0,0,0,0,0,0,0,0,0,42,
0,0,0,0,0,0,23,0,0,0,0,0,0,0,0,1,
0,0,0,0,0,0,0,0,0,0,0,0,39,38,1,10,
0,0,0,0,0,0,0,0,0,0,0,42,1,2,10,5,
44,42,44,39,44,38,42,0,0,39,1,2,10,5,5,5,
2,2,2,2,2,2,2,2,2,2,10,5,5,5,5,5,
5,5,5,5,5,5,5,5,5,5,5,5,5,5,5,5,
5,5,5,5,5,5,5,5,5,5,5,5,5,5,5,5,
5,5,5,5,5,5,5,5,5,5,5,5,5,5,5,5,
5,5,5,5,5,5,5,5,5,5,5,5,5,5,5,5,
5,5,5,5,5,5,5,5,5,5,5,5,5,5,5,5,
5,5,5,5,5,5,5,5,5,5,5,5,5,5,5,5,
5,5,5,5,5,5,5,5,5,5,5,5,5,5,5,5,
5,5,5,5,5,5,5,5,5,5,5,5,5,5,5,5,
5,5,5,5,5,5,5,5,5,5,5,5,5,5,5,5
</chunk>
   <chunk x="288" y="-16" width="16" height="16">
39,1,10,5,5,5,5,5,5,5,5,5,5,5,5,5,
1,10,5,5,5,5,5,5,5,5,5,5,5,5,5,5,
10,5,5,5,5,5,5,5,5,5,5,5,5,5,5,5,
5,5,5,5,5,5,5,5,5,5,5,5,5,5,5,5,
5,5,5,5,5,5,5,5,5,5,5,5,5,5,5,5,
5,5,5,5,5,5,5,5,5,5,5,5,5,5,5,5,
5,5,5,5,5,5,5,5,5,5,5,5,5,5,5,5,
5,5,5,5,5,5,5,5,5,5,5,5,5,5,5,5,
5,5,5,5,5,5,5,5,5,5,5,5,5,5,5,5,
5,5,5,5,5,5,5,5,5,5,5,5,5,5,5,5,
5,5,5,5,5,5,5,5,5,5,5,5,5,5,5,5,
5,5,5,5,5,5,5,5,5,5,5,5,5,5,5,5,
5,5,5,5,5,5,5,5,5,5,5,5,5,5,5,5,
5,5,5,5,5,5,5,5,5,5,5,5,5,5,5,5,
5,5,5,5,5,5,5,5,5,5,5,5,5,5,5,5,
5,5,5,5,5,5,5,5,5,5,5,5,5,5,5,5
</chunk>
   <chunk x="304" y="-16" width="16" height="16">
5,5,5,5,5,5,5,5,5,5,5,5,5,5,5,5,
5,5,5,5,5,5,5,5,5,5,5,5,5,5,5,5,
5,5,5,5,5,5,5,5,5,5,5,5,5,5,5,5,
5,5,5,5,5,5,5,5,5,5,5,5,5,5,5,5,
5,5,5,5,5,5,5,5,5,5,5,5,5,5,5,5,
5,5,5,5,5,5,5,5,5,5,5,5,5,5,5,5,
5,5,5,5,5,5,5,5,5,5,5,5,5,5,5,5,
5,5,5,5,5,5,5,5,5,5,5,5,5,5,5,5,
5,5,5,5,5,5,5,5,5,5,5,5,5,5,5,5,
5,5,5,5,5,5,5,5,5,5,5,5,5,5,5,5,
5,5,5,5,5,5,5,5,5,5,5,5,5,5,5,5,
5,5,5,5,5,5,5,5,5,5,5,5,5,5,5,5,
5,5,5,5,5,5,5,5,5,5,5,5,5,5,5,5,
5,5,5,5,5,5,5,5,5,5,5,5,5,5,5,5,
5,5,5,5,5,5,5,5,5,5,5,5,5,5,5,5,
5,5,5,5,5,5,5,5,5,5,5,5,5,5,5,5
</chunk>
   <chunk x="320" y="-16" width="16" height="16">
5,5,5,5,5,5,5,5,5,5,5,5,5,5,5,5,
5,5,5,5,5,5,5,5,5,5,5,5,5,5,5,5,
5,5,5,5,5,5,5,5,5,5,5,5,5,5,5,5,
5,5,5,5,5,5,5,5,5,5,5,5,5,5,5,5,
5,5,5,5,5,5,5,5,5,5,5,5,5,5,5,5,
5,5,5,5,5,5,5,5,5,5,5,5,5,5,5,5,
5,5,5,5,5,5,5,5,5,5,5,5,5,5,5,5,
5,5,5,5,5,5,5,5,5,5,5,5,5,5,5,0,
5,5,5,5,5,5,5,5,5,5,5,5,5,5,0,0,
5,5,5,5,5,5,5,5,5,5,5,5,5,0,0,0,
5,5,5,5,5,5,5,5,5,5,5,5,5,0,0,0,
5,5,5,5,5,5,5,5,5,5,5,5,0,0,0,0,
5,5,5,5,5,5,5,5,5,5,5,0,0,0,0,0,
5,5,5,5,5,5,5,5,5,0,0,0,0,0,0,0,
5,5,5,5,5,5,5,5,0,0,0,0,0,0,0,0,
5,5,5,5,5,5,5,0,0,0,0,0,0,0,0,0
</chunk>
   <chunk x="336" y="-16" width="16" height="16">
5,5,5,5,5,5,5,5,5,5,5,5,5,5,5,5,
5,5,5,5,5,5,5,5,5,5,5,5,5,5,5,5,
5,5,5,5,5,5,5,5,5,5,5,5,5,5,5,5,
5,5,5,5,5,5,5,5,5,5,5,5,5,5,5,5,
5,5,5,5,5,5,5,5,5,5,5,5,5,5,5,5,
5,5,5,5,5,5,5,5,5,5,5,5,5,5,5,5,
5,5,5,5,5,5,5,5,5,5,5,5,5,5,5,5,
0,0,0,0,0,0,0,0,0,0,0,0,0,0,0,0,
0,0,0,0,0,0,0,0,0,0,0,0,0,0,0,0,
0,0,0,0,0,0,0,0,0,0,0,0,0,0,0,0,
0,0,0,0,0,0,0,0,0,0,0,0,0,0,0,0,
0,0,0,0,0,0,0,0,0,0,0,0,0,0,0,0,
0,0,0,0,0,0,0,0,0,0,0,0,0,0,0,0,
0,0,0,0,0,0,0,0,0,0,0,0,0,0,0,0,
0,0,0,0,0,0,0,0,0,0,0,0,0,0,0,0,
0,0,0,0,0,0,0,0,0,0,0,0,0,0,0,0
</chunk>
   <chunk x="352" y="-16" width="16" height="16">
5,5,5,5,5,5,5,5,5,5,5,5,5,5,5,5,
5,5,5,5,5,5,5,5,5,5,5,5,5,5,5,5,
5,5,5,5,5,5,5,5,5,5,5,5,5,5,5,5,
5,5,5,5,5,5,5,5,5,5,5,5,5,5,5,5,
5,5,5,5,5,5,5,5,5,5,5,5,5,5,5,5,
5,5,5,5,5,5,5,5,5,5,5,5,5,5,5,5,
5,5,5,5,5,5,5,5,5,5,5,5,5,5,5,5,
0,0,0,0,0,0,0,0,0,0,0,0,0,0,0,0,
0,0,0,0,0,0,0,0,0,0,0,0,0,0,0,0,
0,0,0,0,0,0,0,0,0,0,0,0,0,0,0,0,
0,0,0,0,0,0,0,0,0,0,0,0,0,0,0,0,
0,0,0,0,0,0,0,0,0,0,0,0,0,0,0,0,
0,0,0,0,0,0,0,0,0,0,0,0,0,0,0,0,
0,0,0,0,0,0,0,0,0,0,0,0,0,0,0,0,
0,0,0,0,0,0,0,0,0,0,0,0,0,0,0,0,
0,0,0,0,0,0,0,0,0,0,0,0,0,0,0,0
</chunk>
   <chunk x="368" y="-16" width="16" height="16">
5,5,5,5,5,5,5,5,5,5,5,5,5,5,5,5,
5,5,5,5,5,5,5,5,5,5,5,5,5,5,5,5,
5,5,5,5,5,5,5,5,5,5,5,5,5,5,5,5,
5,5,5,5,5,5,5,5,5,5,5,5,5,5,5,5,
5,5,5,5,5,5,5,5,5,5,5,5,5,5,5,5,
5,5,5,5,5,5,5,5,5,5,5,5,5,5,5,5,
5,5,5,5,5,5,5,5,5,5,5,5,5,5,5,5,
0,0,0,0,0,0,0,0,0,0,0,0,0,0,0,0,
0,0,0,0,0,0,0,0,0,0,0,0,0,0,0,0,
0,0,0,0,0,0,0,0,0,0,0,0,0,0,0,0,
0,0,0,0,0,0,0,0,0,0,0,0,0,0,0,0,
0,0,0,0,0,0,0,0,0,0,0,0,0,0,0,0,
0,0,0,0,0,0,0,0,0,0,0,0,0,0,0,0,
0,0,0,0,0,0,0,0,0,0,0,0,0,0,0,0,
0,0,0,0,0,0,0,0,0,0,0,0,0,0,0,0,
0,0,0,0,0,0,0,0,0,0,0,0,0,0,0,0
</chunk>
   <chunk x="384" y="-16" width="16" height="16">
5,5,5,5,5,5,5,5,5,5,5,5,5,5,5,5,
5,5,5,5,5,5,5,5,5,5,5,5,5,5,5,5,
5,5,5,5,5,5,5,5,5,5,5,5,5,5,5,5,
5,5,5,5,5,5,5,5,5,5,5,5,5,5,5,5,
5,5,5,5,5,5,5,5,5,5,5,5,5,5,5,5,
5,5,5,5,5,5,5,5,5,5,5,5,5,5,5,5,
5,5,5,5,5,5,5,5,5,5,5,5,5,5,5,5,
0,0,0,0,0,0,0,0,0,0,0,0,0,0,0,0,
0,0,0,0,0,0,0,0,0,0,0,0,0,0,0,0,
0,0,0,0,0,0,0,0,0,0,0,0,0,0,0,0,
0,0,0,0,0,0,0,0,0,0,0,0,0,0,0,0,
0,0,0,0,0,0,0,0,0,0,0,0,0,0,0,0,
0,0,0,0,0,0,0,0,0,0,0,0,0,0,0,0,
0,0,0,0,0,0,0,0,0,0,0,0,0,0,0,0,
0,0,0,0,0,0,0,0,0,0,0,0,0,0,0,0,
0,0,0,0,0,0,0,0,0,0,0,0,0,0,0,0
</chunk>
   <chunk x="400" y="-16" width="16" height="16">
5,5,5,5,5,5,5,5,5,5,5,5,5,5,5,5,
5,5,5,5,5,5,5,5,5,5,5,5,5,5,5,5,
5,5,5,5,5,5,5,5,5,5,5,5,5,5,5,5,
5,5,5,5,5,5,5,5,5,5,5,5,5,5,5,5,
5,5,5,5,5,5,5,5,5,5,5,5,5,5,5,5,
5,5,5,5,5,5,5,5,5,5,5,5,5,5,5,5,
5,5,5,5,5,5,5,5,5,5,5,5,5,5,5,5,
0,0,0,0,0,0,0,0,0,0,0,0,0,0,0,0,
0,0,0,0,0,0,0,0,0,0,0,0,0,0,0,0,
0,0,0,0,0,0,0,0,0,0,0,0,0,0,0,0,
0,0,0,0,0,0,0,0,0,0,0,0,0,0,0,0,
0,0,0,0,0,0,0,0,0,0,0,0,0,0,0,0,
0,0,0,0,0,0,0,0,0,0,0,0,0,0,0,0,
0,0,0,0,0,0,0,0,0,0,0,0,0,0,0,0,
0,0,0,0,0,0,0,0,0,0,0,0,0,0,0,0,
0,0,0,0,0,0,0,0,0,0,0,0,0,0,0,0
</chunk>
   <chunk x="416" y="-16" width="16" height="16">
5,5,5,5,5,5,5,5,5,5,5,5,5,5,5,5,
5,5,5,5,5,5,5,5,5,5,5,5,5,5,5,5,
5,5,5,5,5,5,5,5,5,5,5,5,5,5,5,5,
5,5,5,5,5,5,5,5,5,5,5,5,5,5,5,5,
5,5,5,5,5,5,5,5,5,5,5,5,5,5,5,5,
5,5,5,5,5,5,5,5,5,5,5,5,5,5,5,5,
5,5,5,5,5,5,5,5,5,5,5,5,5,5,5,5,
0,0,0,0,0,0,0,0,0,0,0,0,0,0,0,0,
0,0,0,0,0,0,0,0,0,0,0,0,0,0,0,0,
0,0,0,0,0,0,0,0,0,0,0,0,0,0,0,0,
0,0,0,0,0,0,0,0,0,0,0,0,0,0,0,0,
0,0,0,0,0,0,0,0,0,0,0,0,0,0,0,0,
0,0,0,0,0,0,0,0,0,0,0,0,0,0,0,0,
0,0,0,0,0,0,0,0,0,0,0,0,0,0,0,0,
0,0,0,0,0,0,0,0,0,0,0,0,0,0,0,0,
0,0,0,0,0,0,0,0,0,0,0,0,0,0,0,0
</chunk>
   <chunk x="432" y="-16" width="16" height="16">
5,5,5,5,5,5,5,5,5,5,5,5,5,5,5,5,
5,5,5,5,5,5,5,5,5,5,5,5,5,5,5,5,
5,5,5,5,5,5,5,5,5,5,5,5,5,5,5,5,
5,5,5,5,5,5,5,5,5,5,5,5,5,5,5,5,
5,5,5,5,5,5,5,5,5,5,5,5,5,5,5,5,
5,5,5,5,5,5,5,5,5,5,5,5,5,5,5,5,
5,5,5,5,5,5,5,5,5,5,5,5,5,5,5,5,
0,0,0,0,0,0,0,0,0,0,0,0,0,0,0,0,
0,0,0,0,0,0,0,0,0,0,0,0,0,0,0,0,
0,0,0,0,0,0,0,0,0,0,0,0,0,0,0,0,
0,0,0,0,0,0,0,0,0,0,0,0,0,0,0,0,
0,0,0,0,0,0,0,0,0,0,0,0,0,0,0,0,
0,0,0,0,0,0,0,0,0,0,0,0,0,0,0,0,
0,0,0,0,0,0,0,0,0,0,0,0,0,0,0,0,
0,0,0,0,0,0,0,0,0,0,0,0,0,0,0,0,
0,0,0,0,0,0,0,0,0,0,0,0,0,0,0,0
</chunk>
   <chunk x="448" y="-16" width="16" height="16">
5,5,5,5,5,5,5,5,5,5,5,5,5,5,5,5,
5,5,5,5,5,5,5,5,5,5,5,5,5,5,5,5,
5,5,5,5,5,5,5,5,5,5,5,5,5,5,5,5,
5,5,5,5,5,5,5,5,5,5,5,5,5,5,5,5,
5,5,5,5,5,5,5,5,5,5,5,5,5,5,5,5,
5,5,5,5,5,5,5,5,5,5,5,5,5,5,5,5,
5,5,5,5,5,5,5,5,5,5,5,5,5,5,5,5,
0,0,0,0,0,0,0,0,0,0,0,0,0,0,0,0,
0,0,0,0,0,0,0,0,0,0,0,0,0,0,0,0,
0,0,0,0,0,0,0,0,0,0,0,0,0,0,0,0,
0,0,0,0,0,0,0,0,0,0,0,0,0,0,0,0,
0,0,0,0,0,0,0,0,0,0,0,0,0,0,0,0,
0,0,0,0,0,0,0,0,0,0,0,0,0,0,0,0,
0,0,0,0,0,0,0,0,0,0,0,0,0,0,0,0,
0,0,0,0,0,0,0,0,0,0,0,0,0,0,0,0,
0,0,0,0,0,0,0,0,0,0,0,0,0,0,0,0
</chunk>
   <chunk x="464" y="-16" width="16" height="16">
5,5,5,5,5,5,5,5,5,5,5,5,5,5,5,5,
5,5,5,5,5,5,5,5,5,5,5,5,5,5,5,5,
5,5,5,5,5,5,5,5,5,5,5,5,5,5,5,5,
5,5,5,5,5,5,5,5,5,5,5,5,5,5,5,5,
5,5,5,5,5,5,5,5,5,5,5,5,5,5,5,5,
5,5,5,5,5,5,5,5,5,5,5,5,5,5,5,5,
5,5,5,5,5,5,5,5,5,5,5,5,5,5,5,5,
0,0,0,0,0,0,0,0,0,0,0,0,0,0,0,0,
0,0,0,0,0,0,0,0,0,0,0,0,0,0,0,0,
0,0,0,0,0,0,0,0,0,0,0,0,0,0,0,0,
0,0,0,0,0,0,0,0,0,0,0,0,0,0,0,0,
0,0,0,0,0,0,0,0,0,0,0,0,0,0,0,0,
0,0,0,0,0,0,0,0,0,0,0,0,0,0,0,0,
0,0,0,0,0,0,0,0,0,0,0,0,0,0,0,0,
0,0,0,0,0,0,0,0,0,0,0,0,0,0,0,0,
0,0,0,0,0,0,0,0,0,0,0,0,0,0,0,0
</chunk>
   <chunk x="480" y="-16" width="16" height="16">
5,5,5,5,5,5,5,5,5,5,5,5,5,5,5,5,
5,5,5,5,5,5,5,5,5,5,5,5,5,5,5,5,
5,5,5,5,5,5,5,5,5,5,5,5,5,5,5,5,
5,5,5,5,5,5,5,5,5,5,5,5,5,5,5,5,
5,5,5,5,5,5,5,5,5,5,5,5,5,5,5,5,
5,5,5,5,5,5,5,5,5,5,5,5,5,5,5,5,
5,5,5,5,5,5,5,5,5,5,5,5,5,5,5,5,
0,0,0,0,0,0,0,0,0,0,0,0,0,0,0,0,
0,0,0,0,0,0,0,0,0,0,0,0,0,0,0,0,
0,0,0,0,0,0,0,0,0,0,0,0,0,0,0,0,
0,0,0,0,0,0,0,0,0,0,0,0,0,0,0,0,
0,0,0,0,0,0,0,0,0,0,0,0,0,0,0,0,
0,0,0,0,0,0,0,0,0,0,0,0,0,0,0,0,
0,0,0,0,0,0,0,0,0,0,0,0,0,0,0,0,
0,0,0,0,0,0,0,0,0,0,0,0,0,0,0,0,
0,0,0,0,0,0,0,0,0,0,0,0,0,0,0,0
</chunk>
   <chunk x="496" y="-16" width="16" height="16">
5,5,5,5,5,5,5,5,5,5,5,5,5,5,5,5,
5,5,5,5,5,5,5,5,5,5,5,5,5,5,5,5,
5,5,5,5,5,5,5,5,5,5,5,5,5,5,5,5,
5,5,5,5,5,5,5,5,5,5,5,5,5,5,5,5,
5,5,5,5,5,5,5,5,5,5,5,5,5,5,5,5,
5,5,5,5,5,5,5,5,5,5,5,5,5,5,5,5,
5,5,5,5,5,5,5,5,5,5,5,5,5,5,5,5,
0,0,0,0,0,0,0,0,0,0,0,0,0,0,0,0,
0,0,0,0,0,0,0,0,0,0,0,0,0,0,0,0,
0,0,0,0,0,0,0,0,0,0,0,0,0,0,0,0,
0,0,0,0,0,0,0,0,0,0,0,0,0,0,0,0,
0,0,0,0,0,0,0,0,0,0,0,0,0,0,0,0,
0,0,0,0,0,0,0,0,0,0,0,0,0,0,0,0,
0,0,0,0,0,0,0,0,0,0,0,0,0,0,0,0,
0,0,0,0,0,0,0,0,0,0,0,0,0,0,0,0,
0,0,0,0,0,0,0,0,0,0,0,0,0,0,0,0
</chunk>
   <chunk x="512" y="-16" width="16" height="16">
5,5,5,5,5,5,5,5,5,5,5,5,5,5,5,5,
5,5,5,5,5,5,5,5,5,5,5,5,5,5,5,5,
5,5,5,5,5,5,5,5,5,5,5,5,5,5,5,5,
5,5,5,5,5,5,5,5,5,5,5,5,5,5,5,5,
5,5,5,5,5,5,5,5,5,5,5,5,5,5,5,5,
5,5,5,5,5,5,5,5,5,5,5,5,5,5,5,5,
5,5,5,5,5,5,5,5,5,5,5,5,5,5,5,5,
0,0,0,0,0,0,0,0,0,0,0,0,0,0,0,0,
0,0,0,0,0,0,0,0,0,0,0,0,0,0,0,0,
0,0,0,0,0,0,0,0,0,0,0,0,0,0,0,0,
0,0,0,0,0,0,0,0,0,0,0,0,0,0,0,0,
0,0,0,0,0,0,0,0,0,0,0,0,0,0,0,0,
0,0,0,0,0,0,0,0,0,0,0,0,0,0,0,0,
0,0,0,0,0,0,0,0,0,0,0,0,0,0,0,0,
0,0,0,0,0,0,0,0,0,0,0,0,0,0,0,0,
0,0,0,0,0,0,0,0,0,0,0,0,0,0,0,0
</chunk>
   <chunk x="528" y="-16" width="16" height="16">
5,5,5,5,5,5,5,5,5,5,0,0,0,0,0,0,
5,5,5,5,5,5,5,5,5,5,0,0,0,0,0,0,
5,5,5,5,5,5,5,5,5,5,0,0,0,0,0,0,
5,5,5,5,5,5,5,5,5,5,0,0,0,0,0,0,
5,5,5,5,5,5,5,5,5,5,0,0,0,0,0,0,
5,5,5,5,5,5,5,5,5,5,0,0,0,0,0,0,
5,5,5,0,0,0,0,0,0,0,0,0,0,0,0,0,
0,0,0,0,0,0,0,0,0,0,0,0,0,0,0,0,
0,0,0,0,0,0,0,0,0,0,0,0,0,0,0,0,
0,0,0,0,0,0,0,0,0,0,0,0,0,0,0,0,
0,0,0,0,0,0,0,0,0,0,0,0,0,0,0,0,
0,0,0,0,0,0,0,0,0,0,0,0,0,0,0,0,
0,0,0,0,0,0,0,0,0,0,0,0,0,0,0,0,
0,0,0,0,0,0,0,0,0,0,0,0,0,0,0,0,
0,0,0,0,0,0,0,0,0,0,0,0,0,0,0,0,
0,0,0,0,0,0,0,0,0,0,0,0,0,0,0,0
</chunk>
   <chunk x="-48" y="0" width="16" height="16">
0,0,0,0,0,0,0,0,0,0,0,0,0,0,5,5,
0,0,0,0,0,0,0,0,0,0,0,0,0,0,5,5,
0,0,0,0,0,0,0,0,0,0,0,0,0,0,5,5,
0,0,0,0,0,0,0,0,0,0,0,0,0,0,5,5,
0,0,0,0,0,0,0,0,0,0,0,0,0,0,5,5,
0,0,0,0,0,0,0,0,0,0,0,0,0,0,5,5,
0,0,0,0,0,0,0,0,0,0,0,0,0,0,0,5,
0,0,0,0,0,0,0,0,0,0,0,0,0,0,0,0,
0,0,0,0,0,0,0,0,0,0,0,0,0,0,0,0,
0,0,0,0,0,0,0,0,0,0,0,0,0,0,0,0,
0,0,0,0,0,0,0,0,0,0,0,0,0,0,0,0,
0,0,0,0,0,0,0,0,0,0,0,0,0,0,0,0,
0,0,0,0,0,0,0,0,0,0,0,0,0,0,0,0,
0,0,0,0,0,0,0,0,0,0,0,0,0,0,0,0,
0,0,0,0,0,0,0,0,0,0,0,0,0,0,0,0,
0,0,0,0,0,0,0,0,0,0,0,0,0,0,0,0
</chunk>
   <chunk x="-32" y="0" width="16" height="16">
5,5,5,5,5,5,5,5,5,5,5,5,5,5,5,5,
5,5,5,5,5,5,5,5,5,5,5,5,5,5,5,5,
5,5,5,5,5,5,5,5,5,5,5,5,5,5,5,5,
5,5,5,5,5,5,5,5,5,5,5,5,5,5,5,5,
5,5,5,5,5,5,5,5,5,5,5,5,5,5,5,5,
5,5,5,5,5,5,5,5,5,5,5,5,5,5,5,5,
5,5,5,5,5,5,5,5,5,5,5,5,5,5,5,5,
0,5,5,5,5,5,5,5,5,5,5,5,5,5,5,5,
0,0,0,5,5,5,5,5,5,5,5,5,5,5,5,5,
0,0,0,0,5,5,5,5,5,5,5,5,5,5,5,5,
0,0,0,0,5,5,5,5,5,5,5,5,5,5,5,5,
0,0,0,0,0,0,5,5,5,5,5,5,5,5,5,5,
0,0,0,0,0,0,5,5,5,5,5,5,5,5,5,5,
0,0,0,0,0,0,0,5,5,5,5,5,5,5,5,5,
0,0,0,0,0,0,0,0,5,5,5,5,5,5,5,5,
0,0,0,0,0,0,0,0,0,5,5,5,5,5,5,5
</chunk>
   <chunk x="-16" y="0" width="16" height="16">
5,5,5,5,5,6,19,44,40,39,44,44,42,39,41,40,
5,5,5,5,5,12,2,2,2,2,2,2,2,2,2,2,
5,5,5,5,5,5,5,5,5,5,5,5,5,5,5,5,
5,5,5,5,5,5,5,5,5,5,5,5,5,5,5,5,
5,5,5,5,5,5,5,5,5,5,5,5,5,5,5,5,
5,5,5,5,5,5,5,5,5,5,5,5,5,5,5,5,
5,5,5,5,5,5,5,5,5,5,5,5,5,5,5,5,
5,5,5,5,5,5,5,5,5,5,5,5,5,5,5,5,
5,5,5,5,5,5,5,5,5,5,5,5,5,5,5,5,
5,5,5,5,5,5,5,5,5,5,5,5,5,5,5,5,
5,5,5,5,5,5,5,5,5,5,5,5,5,5,5,5,
5,5,5,5,5,5,5,5,5,5,5,5,5,5,5,5,
5,5,5,5,5,5,5,5,5,5,5,5,5,5,5,5,
5,5,5,5,5,5,5,5,5,5,5,5,5,5,5,5,
5,5,5,5,5,5,5,5,5,5,5,5,5,5,5,5,
5,5,5,5,5,5,5,5,5,5,5,5,5,5,5,5
</chunk>
   <chunk x="0" y="0" width="16" height="16">
44,39,39,42,44,39,43,44,19,19,19,19,19,19,19,19,
2,2,2,2,2,2,2,2,3,19,44,39,19,40,44,39,
5,5,5,5,5,5,5,5,12,2,2,2,2,2,2,2,
5,5,5,5,5,5,5,5,5,5,5,5,5,5,5,5,
5,5,5,5,5,5,5,5,5,5,5,5,5,5,5,5,
5,5,5,5,5,5,5,5,5,5,5,5,5,5,5,5,
5,5,5,5,5,5,5,5,5,5,5,5,5,5,5,5,
5,5,5,5,5,5,5,5,5,5,5,5,5,5,5,5,
5,5,5,5,5,5,5,5,5,5,5,5,5,5,5,5,
5,5,5,5,5,5,5,5,5,5,5,5,5,5,5,5,
5,5,5,5,5,5,5,5,5,5,5,5,5,5,5,5,
5,5,5,5,5,5,5,5,5,5,5,5,5,5,5,5,
5,5,5,5,5,5,5,5,5,5,5,5,5,5,5,5,
5,5,5,5,5,5,5,5,5,5,5,5,5,5,5,5,
5,5,5,5,5,5,5,5,5,5,5,5,5,5,5,5,
5,5,5,5,5,5,5,5,5,5,5,5,5,5,5,5
</chunk>
   <chunk x="16" y="0" width="16" height="16">
19,19,19,19,19,19,19,19,19,19,19,19,0,0,0,0,
19,19,19,19,19,19,19,19,19,19,19,19,0,0,0,0,
3,0,40,44,39,40,0,38,0,0,0,0,0,0,0,0,
12,2,2,2,2,2,2,2,2,3,40,0,0,0,0,0,
5,5,5,5,5,5,5,5,5,12,3,0,0,0,0,0,
5,5,5,5,5,5,5,5,5,5,6,0,0,0,0,0,
5,5,5,5,5,5,5,5,5,5,6,0,0,0,0,0,
5,5,5,5,5,5,5,5,5,5,6,0,0,0,0,0,
5,5,5,5,5,5,5,5,5,5,6,0,44,38,44,40,
5,5,5,5,5,5,5,5,5,5,12,2,2,2,2,2,
5,5,5,5,5,5,5,5,5,5,5,5,5,5,5,5,
5,5,5,5,5,5,5,5,5,5,5,5,5,5,5,5,
5,5,5,5,5,5,5,5,5,5,5,5,5,5,5,5,
5,5,5,5,5,5,5,5,5,5,5,5,5,5,5,5,
5,5,5,5,5,5,5,5,5,5,5,5,5,5,5,5,
5,5,5,5,5,5,5,5,5,5,5,5,5,5,5,5
</chunk>
   <chunk x="32" y="0" width="16" height="16">
0,0,0,0,25,0,0,0,0,0,0,0,0,0,0,0,
0,0,0,0,0,0,0,0,0,0,0,0,0,0,0,0,
0,20,0,0,0,0,0,0,0,0,0,0,0,0,0,27,
0,0,0,0,0,0,0,0,21,0,0,0,0,0,0,0,
0,0,0,0,0,0,0,0,0,0,0,0,0,0,0,0,
0,0,0,0,0,0,0,0,0,0,0,0,0,0,0,0,
0,0,0,0,0,0,0,0,0,0,0,0,0,0,0,0,
0,0,0,0,0,0,0,0,0,0,0,0,0,0,0,0,
0,40,0,0,0,0,0,0,0,0,0,0,0,0,0,0,
2,2,3,0,0,0,0,0,0,0,0,0,0,0,0,0,
5,5,12,3,0,0,0,0,0,0,0,0,0,0,0,20,
5,5,5,6,0,0,0,0,0,0,0,0,0,0,0,0,
5,5,5,6,0,0,0,0,0,0,0,0,0,0,0,0,
5,5,5,6,0,0,0,0,0,0,0,0,0,0,0,0,
5,5,5,6,0,0,40,44,40,38,0,44,40,44,38,0,
5,5,5,12,2,2,2,2,2,2,2,2,2,2,2,2
</chunk>
   <chunk x="48" y="0" width="16" height="16">
0,0,0,0,0,27,0,0,0,0,0,0,0,0,0,0,
0,0,0,0,0,0,0,0,0,0,0,0,0,0,0,0,
0,0,0,0,0,0,0,0,0,0,0,0,0,0,0,0,
0,0,0,0,0,0,0,0,0,0,0,0,0,0,22,0,
0,0,0,0,0,0,0,0,0,0,0,0,0,0,0,0,
0,0,0,0,0,0,0,0,0,25,0,0,0,0,0,0,
0,0,0,0,0,0,0,0,0,0,0,0,0,0,0,0,
26,0,0,0,0,0,0,0,0,0,0,0,0,0,0,0,
0,0,0,0,0,0,0,0,0,0,0,0,0,0,0,0,
0,0,0,0,0,0,0,0,0,0,0,0,0,0,0,0,
0,0,0,0,0,0,0,0,0,0,27,0,0,0,0,0,
0,0,0,0,0,0,0,0,0,0,0,0,0,0,0,0,
0,0,0,0,0,0,0,0,0,0,0,0,0,0,0,0,
0,0,0,0,0,0,0,0,0,0,0,0,0,0,0,0,
0,0,0,0,0,0,0,0,0,0,0,0,0,0,0,0,
3,44,40,39,44,44,42,44,40,39,44,44,42,39,40,40
</chunk>
   <chunk x="64" y="0" width="16" height="16">
0,0,0,0,0,0,0,0,0,0,0,0,0,0,0,0,
0,0,0,0,0,0,0,0,0,0,0,0,0,0,0,0,
0,0,0,0,0,0,0,0,0,0,0,0,0,0,0,0,
0,0,0,0,0,0,0,0,0,0,27,0,0,0,0,0,
0,0,0,0,0,0,0,0,0,0,0,0,0,0,0,0,
0,0,0,0,0,0,0,0,0,25,0,0,0,0,0,0,
20,0,0,0,0,0,0,0,0,0,0,0,0,0,0,0,
0,0,0,0,0,0,0,0,0,0,0,0,0,0,0,0,
0,0,0,0,0,0,0,0,0,0,0,0,0,0,0,0,
0,0,0,0,0,0,0,0,0,0,0,0,0,0,0,0,
0,0,0,0,0,0,0,0,0,0,0,25,0,0,0,0,
0,0,0,0,0,20,0,0,0,0,0,0,0,0,0,0,
0,0,0,0,0,0,0,0,0,0,0,0,0,0,0,0,
0,0,0,0,0,0,0,0,0,0,0,0,0,0,0,0,
0,0,0,0,0,0,0,0,0,0,0,0,0,0,0,0,
44,39,39,42,44,39,43,44,39,39,42,44,39,43,44,0
</chunk>
   <chunk x="80" y="0" width="16" height="16">
0,0,0,0,0,0,0,0,0,0,0,0,0,0,0,0,
0,0,0,0,26,0,0,0,0,0,0,0,0,0,0,0,
0,0,0,0,0,0,0,0,0,0,0,0,0,0,0,0,
0,0,0,0,0,0,0,0,0,0,0,0,0,0,0,0,
0,0,0,0,0,0,0,0,0,0,0,0,0,0,0,0,
0,0,0,0,0,0,0,0,0,0,0,0,0,0,27,0,
0,0,0,20,0,0,0,0,23,0,0,0,0,0,0,0,
0,0,0,0,0,0,0,0,0,0,0,0,0,0,0,0,
0,0,0,0,0,0,0,0,0,0,0,0,0,0,0,0,
0,0,0,0,25,0,0,0,0,0,0,0,0,0,0,0,
0,0,0,0,0,0,0,0,0,0,0,0,0,0,0,0,
0,0,0,0,0,0,0,0,0,0,0,0,0,0,0,0,
0,0,0,0,0,0,23,0,0,0,0,0,0,0,20,0,
0,0,0,0,0,0,0,0,0,0,0,0,0,0,0,0,
0,0,0,0,0,0,0,0,0,0,0,0,0,0,0,0,
0,0,0,0,0,0,0,0,0,0,0,0,0,0,0,0
</chunk>
   <chunk x="96" y="0" width="16" height="16">
0,0,0,0,0,0,0,0,0,0,0,0,0,0,0,0,
0,0,0,0,0,0,0,0,0,0,0,0,0,0,0,0,
0,0,0,0,0,0,0,25,0,0,0,0,0,0,0,0,
0,0,0,0,0,0,0,0,0,0,0,0,0,0,0,0,
0,0,0,0,0,0,0,0,0,0,0,0,0,0,0,0,
0,0,0,0,0,0,0,0,0,0,0,0,0,0,0,0,
0,0,0,0,0,20,0,0,0,0,0,0,0,0,0,0,
0,0,0,0,0,0,0,0,0,0,0,0,0,0,0,0,
0,0,0,0,0,0,0,0,0,0,0,0,0,0,0,43,
0,0,0,0,0,0,0,0,0,0,0,0,0,1,2,2,
0,0,0,0,0,0,0,0,0,0,0,0,0,31,32,32,
0,0,0,0,0,0,0,0,0,0,0,0,0,31,32,32,
0,0,0,0,0,0,0,0,0,0,0,0,0,31,32,32,
0,0,0,0,0,0,0,0,0,0,0,0,0,31,32,32,
0,0,0,0,0,0,0,0,0,0,38,0,0,31,32,32,
0,0,0,0,0,1,2,2,2,2,2,2,2,2,2,2
</chunk>
   <chunk x="112" y="0" width="16" height="16">
0,0,0,0,0,0,0,0,0,0,0,0,0,0,0,0,
0,0,0,0,0,0,0,0,0,0,0,0,0,0,0,0,
0,0,0,0,0,0,0,0,0,0,0,20,0,0,0,0,
0,27,0,0,0,0,22,0,0,0,0,0,0,0,0,0,
0,0,0,0,0,0,0,0,0,0,0,0,0,0,0,0,
0,0,0,0,0,0,0,0,0,0,0,0,0,27,0,0,
0,0,0,0,0,0,0,0,0,0,0,0,0,0,0,0,
0,0,0,0,0,0,0,0,0,0,0,0,0,0,0,0,
42,40,38,42,40,0,0,0,0,0,0,0,0,0,0,0,
2,2,2,2,2,3,0,0,0,0,0,0,0,0,0,0,
32,32,32,32,32,33,0,0,0,0,0,44,40,42,38,40,
32,32,32,32,32,33,0,0,0,0,0,1,2,2,2,3,
32,32,32,32,32,33,0,0,0,0,0,31,32,32,32,33,
32,32,32,32,32,33,0,0,37,0,0,31,32,32,32,33,
32,32,32,32,32,33,0,38,0,43,44,31,32,32,32,33,
2,2,2,2,2,2,2,2,2,2,2,2,2,2,2,2
</chunk>
   <chunk x="128" y="0" width="16" height="16">
0,0,0,0,0,0,0,0,0,0,0,0,0,0,0,0,
0,0,0,0,0,0,0,0,0,0,0,0,0,0,0,0,
0,0,0,0,0,0,0,0,0,0,0,0,0,0,0,0,
0,0,0,0,0,0,0,0,0,0,0,0,0,25,0,0,
0,0,0,0,0,0,0,0,0,0,0,0,0,0,0,0,
0,0,0,0,0,0,0,0,0,0,0,0,0,0,0,0,
0,0,0,0,0,40,42,38,42,0,0,0,0,0,0,0,
0,0,0,1,2,2,2,2,2,3,0,0,0,0,0,0,
0,0,0,31,32,32,32,32,32,33,0,0,0,0,0,0,
0,0,0,31,32,32,32,32,32,33,0,0,0,0,0,0,
0,0,0,31,32,32,32,32,32,33,0,0,0,0,0,0,
0,0,0,31,32,32,32,32,32,33,0,0,0,0,0,0,
0,0,0,31,32,32,32,32,32,33,0,0,0,0,0,0,
0,0,0,31,32,32,32,32,32,33,0,0,0,0,0,0,
0,40,40,31,32,32,32,32,32,33,44,40,39,44,44,42,
2,2,2,2,2,2,2,2,2,2,2,2,2,2,2,2
</chunk>
   <chunk x="144" y="0" width="16" height="16">
0,0,0,0,0,0,0,0,0,21,0,0,0,0,0,0,
0,0,0,0,0,0,0,0,0,0,0,0,0,0,0,0,
0,0,0,0,0,0,0,0,0,0,0,0,0,0,0,0,
0,0,0,0,0,0,0,0,0,0,0,0,0,0,0,0,
0,0,0,0,0,0,0,0,0,0,0,0,0,0,0,0,
0,0,0,27,0,0,0,0,0,0,0,0,0,0,0,0,
0,0,0,0,0,0,0,0,0,0,0,0,0,0,20,0,
0,0,0,0,0,0,0,0,0,0,0,0,0,0,0,0,
0,0,0,0,0,0,0,0,26,0,0,0,0,0,0,0,
0,0,0,0,0,0,0,0,0,0,0,0,0,0,0,0,
0,0,0,0,0,0,0,0,0,0,0,0,0,0,0,0,
0,0,0,0,0,0,0,0,0,0,0,0,0,0,0,0,
0,0,0,0,0,0,0,0,0,0,0,0,0,0,0,0,
0,0,0,0,0,0,0,0,0,0,0,0,0,0,0,0,
39,38,40,44,39,39,42,44,39,43,38,44,44,42,39,40,
2,2,2,2,2,2,2,2,2,2,2,2,2,2,2,2
</chunk>
   <chunk x="160" y="0" width="16" height="16">
0,0,0,0,0,0,0,0,0,0,0,0,0,0,0,0,
0,0,0,0,0,0,0,0,20,0,0,0,0,0,0,0,
0,0,0,0,0,0,0,0,0,0,0,21,0,0,0,0,
0,0,0,0,0,0,27,0,0,0,0,0,0,0,0,0,
0,0,0,0,0,0,0,0,0,0,0,0,0,0,0,0,
0,0,0,0,0,0,0,0,0,0,0,0,0,0,0,0,
0,0,0,0,0,0,0,0,0,0,0,0,0,0,21,0,
0,0,0,0,0,0,0,0,0,0,0,0,0,0,0,0,
0,0,0,0,27,0,0,0,0,0,0,0,0,0,0,0,
0,0,0,0,0,0,0,0,0,0,0,0,0,0,0,0,
0,0,0,0,0,0,0,0,0,0,0,0,0,0,0,0,
0,0,0,0,0,0,0,0,0,0,0,0,0,0,0,0,
0,0,0,0,0,0,0,0,0,0,0,38,0,0,1,2,
0,0,0,0,0,0,0,0,0,1,2,2,2,2,10,5,
40,44,39,39,42,44,39,43,44,4,5,5,5,5,5,5,
2,2,2,2,2,2,2,2,2,10,5,5,5,5,5,5
</chunk>
   <chunk x="176" y="0" width="16" height="16">
0,0,0,0,0,0,0,0,0,0,0,0,0,0,0,0,
0,0,0,0,0,0,0,0,0,0,0,0,0,0,0,0,
0,0,25,0,0,0,0,0,0,0,0,0,0,0,0,0,
0,0,0,0,0,0,0,0,0,0,0,0,0,0,0,22,
0,0,0,0,0,0,0,0,21,0,0,0,0,0,0,0,
0,0,0,0,0,0,0,0,0,0,0,0,0,0,0,0,
0,0,0,0,0,0,0,0,0,0,0,0,0,0,0,0,
0,0,0,0,0,0,0,0,0,0,0,0,0,0,0,43,
0,0,0,0,0,0,0,44,44,40,45,43,45,44,1,2,
0,43,44,45,40,0,44,1,2,2,2,2,2,2,10,5,
1,2,2,2,2,2,2,10,5,5,5,5,5,5,5,5,
4,5,5,5,5,5,5,5,5,5,5,5,5,5,5,5,
10,5,5,5,5,5,5,5,5,5,5,5,5,5,5,5,
5,5,5,5,5,5,5,5,5,5,5,5,5,5,5,5,
5,5,5,5,5,5,5,5,5,5,5,5,5,5,5,5,
5,5,5,5,5,5,5,5,5,5,5,5,5,5,5,5
</chunk>
   <chunk x="192" y="0" width="16" height="16">
0,0,0,0,0,0,0,0,0,0,0,0,0,0,0,0,
0,0,0,0,0,0,0,0,0,0,0,0,0,0,0,0,
0,0,0,0,0,0,0,0,0,0,0,0,0,0,0,0,
0,0,0,0,0,0,0,23,0,0,0,0,0,0,0,0,
0,0,0,0,0,0,0,0,0,0,0,0,0,0,0,0,
0,0,0,0,0,0,0,0,0,0,0,44,0,42,40,42,
0,0,0,0,0,44,44,40,42,42,45,1,2,2,2,2,
44,45,43,0,45,1,2,2,2,2,2,10,5,5,5,5,
2,2,2,2,2,10,5,5,5,5,5,5,5,5,5,5,
5,5,5,5,5,5,5,5,5,5,5,5,5,5,5,5,
5,5,5,5,5,5,5,5,5,5,5,5,5,5,5,5,
5,5,5,5,5,5,5,5,5,5,5,5,5,5,5,5,
5,5,5,5,5,5,5,5,5,5,5,5,5,5,5,5,
5,5,5,5,5,5,5,5,5,5,5,5,5,5,5,5,
5,5,5,5,5,5,5,5,5,5,5,5,5,5,5,5,
5,5,5,5,5,5,5,5,5,5,5,5,5,5,5,5
</chunk>
   <chunk x="208" y="0" width="16" height="16">
0,0,0,0,0,0,0,0,0,0,40,1,10,5,5,5,
0,0,0,0,0,0,0,0,37,38,1,10,5,5,5,5,
0,0,0,0,0,0,0,0,44,1,10,5,5,5,5,5,
0,0,0,0,0,0,0,42,1,10,5,5,5,5,5,5,
0,0,44,40,42,40,44,1,10,5,5,5,5,5,5,5,
44,1,2,2,2,2,2,10,5,5,5,5,5,5,5,5,
2,10,5,5,5,5,5,5,5,5,5,5,5,5,5,5,
5,5,5,5,5,5,5,5,5,5,5,5,5,5,5,5,
5,5,5,5,5,5,5,5,5,5,5,5,5,5,5,5,
5,5,5,5,5,5,5,5,5,5,5,5,5,5,5,5,
5,5,5,5,5,5,5,5,5,5,5,5,5,5,5,5,
5,5,5,5,5,5,5,5,5,5,5,5,5,5,5,5,
5,5,5,5,5,5,5,5,5,5,5,5,5,5,5,5,
5,5,5,5,5,5,5,5,5,5,5,5,5,5,5,5,
5,5,5,5,5,5,5,5,5,5,5,5,5,5,5,5,
5,5,5,5,5,5,5,5,5,5,5,5,5,5,5,5
</chunk>
   <chunk x="224" y="0" width="16" height="16">
5,5,5,5,5,5,5,5,5,5,5,5,5,5,5,5,
5,5,5,5,5,5,5,5,5,5,5,5,5,5,5,5,
5,5,5,5,5,5,5,5,5,5,5,5,5,5,5,5,
5,5,5,5,5,5,5,5,5,5,5,5,5,5,5,5,
5,5,5,5,5,5,5,5,5,5,5,5,5,5,5,5,
5,5,5,5,5,5,5,5,5,5,5,5,5,5,5,5,
5,5,5,5,5,5,5,5,5,5,5,5,5,5,5,5,
5,5,5,5,5,5,5,5,5,5,5,5,5,5,5,5,
5,5,5,5,5,5,5,5,5,5,5,5,5,5,5,5,
5,5,5,5,5,5,5,5,5,5,5,5,5,5,5,5,
5,5,5,5,5,5,5,5,5,5,5,5,5,5,5,5,
5,5,5,5,5,5,5,5,5,5,5,5,5,5,5,5,
5,5,5,5,5,5,5,5,5,5,5,5,5,5,5,5,
5,5,5,5,5,5,5,5,5,5,5,5,5,5,5,5,
5,5,5,5,5,5,5,5,5,5,5,5,5,5,5,5,
5,5,5,5,5,5,5,5,5,5,5,5,5,5,5,5
</chunk>
   <chunk x="240" y="0" width="16" height="16">
5,5,5,5,5,5,5,5,5,5,5,5,5,5,5,5,
5,5,5,5,5,5,5,5,5,5,5,5,5,5,5,5,
5,5,5,5,5,5,5,5,5,5,5,5,5,5,5,5,
5,5,5,5,5,5,5,5,5,5,5,5,5,5,5,5,
5,5,5,5,5,5,5,5,5,5,5,5,5,5,5,5,
5,5,5,5,5,5,5,5,5,5,5,5,5,5,5,5,
5,5,5,5,5,5,5,5,5,5,5,5,5,5,5,5,
5,5,5,5,5,5,5,5,5,5,5,5,5,5,5,5,
5,5,5,5,5,5,5,5,5,5,5,5,5,5,5,5,
5,5,5,5,5,5,5,5,5,5,5,5,5,5,5,5,
5,5,5,5,5,5,5,5,5,5,5,5,5,5,5,5,
5,5,5,5,5,5,5,5,5,5,5,5,5,5,5,5,
5,5,5,5,5,5,5,5,5,5,5,5,5,5,5,5,
5,5,5,5,5,5,5,5,5,5,5,5,5,5,5,5,
5,5,5,5,5,5,5,5,5,5,5,5,5,5,5,5,
5,5,5,5,5,5,5,5,5,5,5,5,5,5,5,5
</chunk>
   <chunk x="256" y="0" width="16" height="16">
5,5,5,5,5,5,5,5,5,5,5,5,5,5,5,5,
5,5,5,5,5,5,5,5,5,5,5,5,5,5,5,5,
5,5,5,5,5,5,5,5,5,5,5,5,5,5,5,5,
5,5,5,5,5,5,5,5,5,5,5,5,5,5,5,5,
5,5,5,5,5,5,5,5,5,5,5,5,5,5,5,5,
5,5,5,5,5,5,5,5,5,5,5,5,5,5,5,5,
5,5,5,5,5,5,5,5,5,5,5,5,5,5,5,5,
5,5,5,5,5,5,5,5,5,5,5,5,5,5,5,5,
5,5,5,5,5,5,5,5,5,5,5,5,5,5,5,5,
5,5,5,5,5,5,5,5,5,5,5,5,5,5,5,5,
5,5,5,5,5,5,5,5,5,5,5,5,5,5,5,5,
5,5,5,5,5,5,5,5,5,5,5,5,5,5,5,5,
5,5,5,5,5,5,5,5,5,5,5,5,5,5,5,5,
5,5,5,5,5,5,5,5,5,5,5,5,5,5,5,5,
5,5,5,5,5,5,5,5,5,5,5,5,5,5,5,5,
5,5,5,5,5,5,5,5,5,5,5,5,5,5,5,5
</chunk>
   <chunk x="272" y="0" width="16" height="16">
5,5,5,5,5,5,5,5,5,5,5,5,5,5,5,5,
5,5,5,5,5,5,5,5,5,5,5,5,5,5,5,5,
5,5,5,5,5,5,5,5,5,5,5,5,5,5,5,5,
5,5,5,5,5,5,5,5,5,5,5,5,5,5,5,5,
5,5,5,5,5,5,5,5,5,5,5,5,5,5,5,5,
5,5,5,5,5,5,5,5,5,5,5,5,5,5,5,5,
5,5,5,5,5,5,5,5,5,5,5,5,5,5,5,5,
5,5,5,5,5,5,5,5,5,5,5,5,5,5,5,5,
5,5,5,5,5,5,5,5,5,5,5,5,5,5,5,5,
5,5,5,5,5,5,5,5,5,5,5,5,5,5,5,5,
5,5,5,5,5,5,5,5,5,5,5,5,5,5,5,5,
5,5,5,5,5,5,5,5,5,5,5,5,5,5,5,5,
5,5,5,5,5,5,5,5,5,5,5,5,5,5,5,5,
5,5,5,5,5,5,5,5,5,5,5,5,5,5,5,5,
5,5,5,5,5,5,5,5,5,5,5,5,5,5,5,5,
5,5,5,5,5,5,5,5,5,5,5,5,5,5,5,5
</chunk>
   <chunk x="288" y="0" width="16" height="16">
5,5,5,5,5,5,5,5,5,5,5,5,5,5,5,5,
5,5,5,5,5,5,5,5,5,5,5,5,5,5,5,5,
5,5,5,5,5,5,5,5,5,5,5,5,5,5,5,5,
5,5,5,5,5,5,5,5,5,5,5,5,5,5,5,5,
5,5,5,5,5,5,5,5,5,5,5,5,5,5,5,5,
5,5,5,5,5,5,5,5,5,5,5,5,5,5,5,5,
5,5,5,5,5,5,5,5,5,5,5,5,5,5,5,5,
5,5,5,5,5,5,5,5,5,5,5,5,5,5,5,5,
5,5,5,5,5,5,5,5,5,5,5,5,5,5,5,5,
5,5,5,5,5,5,5,5,5,5,5,5,5,5,5,5,
5,5,5,5,5,5,5,5,5,5,5,5,5,5,5,5,
5,5,5,5,5,5,5,5,5,5,5,5,5,5,5,5,
5,5,5,5,5,5,5,5,5,5,5,5,5,5,5,5,
5,5,5,5,5,5,5,5,5,5,5,5,5,5,5,5,
5,5,5,5,5,5,5,5,5,5,5,5,5,5,5,5,
5,5,5,5,5,5,5,5,5,5,5,5,5,5,5,5
</chunk>
   <chunk x="304" y="0" width="16" height="16">
5,5,5,5,5,5,5,5,5,5,5,5,5,5,5,5,
5,5,5,5,5,5,5,5,5,5,5,5,5,5,5,5,
5,5,5,5,5,5,5,5,5,5,5,5,5,5,5,5,
5,5,5,5,5,5,5,5,5,5,5,5,5,5,5,5,
5,5,5,5,5,5,5,5,5,5,5,5,5,5,5,5,
5,5,5,5,5,5,5,5,5,5,5,5,5,5,5,5,
5,5,5,5,5,5,5,5,5,5,5,5,5,5,5,5,
5,5,5,5,5,5,5,5,5,5,5,5,5,5,5,5,
5,5,5,5,5,5,5,5,5,5,5,5,5,5,5,0,
5,5,5,5,5,5,5,5,5,5,5,5,5,0,0,0,
5,5,5,5,5,5,5,5,5,5,5,5,0,0,0,0,
5,5,5,5,5,5,5,5,5,5,5,0,0,0,0,0,
5,5,5,5,5,5,5,5,5,5,5,0,0,0,0,0,
5,5,5,5,5,5,5,5,5,5,0,0,0,0,0,0,
5,5,5,5,5,5,5,5,5,0,0,0,0,0,0,0,
5,5,5,5,5,5,5,5,0,0,0,0,0,0,0,0
</chunk>
   <chunk x="320" y="0" width="16" height="16">
5,5,5,5,5,5,5,0,0,0,0,0,0,0,0,0,
5,5,5,5,5,5,0,0,0,0,0,0,0,0,0,0,
5,5,5,5,5,0,0,0,0,0,0,0,0,0,0,0,
5,5,5,0,0,0,0,0,0,0,0,0,0,0,0,0,
5,5,0,0,0,0,0,0,0,0,0,0,0,0,0,0,
5,0,0,0,0,0,0,0,0,0,0,0,0,0,0,0,
5,0,0,0,0,0,0,0,0,0,0,0,0,0,0,0,
0,0,0,0,0,0,0,0,0,0,0,0,0,0,0,0,
0,0,0,0,0,0,0,0,0,0,0,0,0,0,0,0,
0,0,0,0,0,0,0,0,0,0,0,0,0,0,0,0,
0,0,0,0,0,0,0,0,0,0,0,0,0,0,0,0,
0,0,0,0,0,0,0,0,0,0,0,0,0,0,0,0,
0,0,0,0,0,0,0,0,0,0,0,0,0,0,0,0,
0,0,0,0,0,0,0,0,0,0,0,0,0,0,0,0,
0,0,0,0,0,0,0,0,0,0,0,0,0,0,0,0,
0,0,0,0,0,0,0,0,0,0,0,0,0,0,0,0
</chunk>
   <chunk x="-32" y="16" width="16" height="16">
0,0,0,0,0,0,0,0,0,0,5,5,5,5,5,5,
0,0,0,0,0,0,0,0,0,0,0,5,5,5,5,5,
0,0,0,0,0,0,0,0,0,0,0,0,5,5,5,5,
0,0,0,0,0,0,0,0,0,0,0,0,0,5,5,5,
0,0,0,0,0,0,0,0,0,0,0,0,0,0,5,5,
0,0,0,0,0,0,0,0,0,0,0,0,0,0,0,5,
0,0,0,0,0,0,0,0,0,0,0,0,0,0,0,0,
0,0,0,0,0,0,0,0,0,0,0,0,0,0,0,0,
0,0,0,0,0,0,0,0,0,0,0,0,0,0,0,0,
0,0,0,0,0,0,0,0,0,0,0,0,0,0,0,0,
0,0,0,0,0,0,0,0,0,0,0,0,0,0,0,0,
0,0,0,0,0,0,0,0,0,0,0,0,0,0,0,0,
0,0,0,0,0,0,0,0,0,0,0,0,0,0,0,0,
0,0,0,0,0,0,0,0,0,0,0,0,0,0,0,0,
0,0,0,0,0,0,0,0,0,0,0,0,0,0,0,0,
0,0,0,0,0,0,0,0,0,0,0,0,0,0,0,0
</chunk>
   <chunk x="-16" y="16" width="16" height="16">
5,5,5,5,5,5,5,5,5,5,5,5,5,5,5,5,
5,5,5,5,5,5,5,5,5,5,5,5,5,5,5,5,
5,5,5,5,5,5,5,5,5,5,5,5,5,5,5,5,
5,5,5,5,5,5,5,5,5,5,5,5,5,5,5,5,
5,5,5,5,5,5,5,5,5,5,5,5,5,5,5,5,
5,5,5,5,5,5,5,5,5,5,5,5,5,5,5,5,
5,5,5,5,5,5,5,5,5,5,5,5,5,5,5,5,
0,5,5,5,5,5,5,5,5,5,5,5,5,5,5,5,
0,0,5,5,5,5,5,5,5,5,5,5,5,5,5,5,
0,0,0,0,0,0,5,5,5,5,5,5,5,5,5,5,
0,0,0,0,0,0,0,5,5,5,5,5,5,5,5,5,
0,0,0,0,0,0,0,0,5,5,5,5,5,5,5,5,
0,0,0,0,0,0,0,0,0,5,5,5,5,5,5,5,
0,0,0,0,0,0,0,0,0,0,0,0,5,5,5,5,
0,0,0,0,0,0,0,0,0,0,0,0,0,5,5,5,
0,0,0,0,0,0,0,0,0,0,0,0,0,0,0,0
</chunk>
   <chunk x="0" y="16" width="16" height="16">
5,5,5,5,5,5,5,5,5,5,5,5,5,5,5,5,
5,5,5,5,5,5,5,5,5,5,5,5,5,5,5,5,
5,5,5,5,5,5,5,5,5,5,5,5,5,5,5,5,
5,5,5,5,5,5,5,5,5,5,5,5,5,5,5,5,
5,5,5,5,5,5,5,5,5,5,5,5,5,5,5,5,
5,5,5,5,5,5,5,5,5,5,5,5,5,5,5,5,
5,5,5,5,5,5,5,5,5,5,5,5,5,5,5,5,
5,5,5,5,5,5,5,5,5,5,5,5,5,5,5,5,
5,5,5,5,5,5,5,5,5,5,5,5,5,5,5,5,
5,5,5,5,5,5,5,5,5,5,5,5,5,5,5,5,
5,5,5,5,5,5,5,5,5,5,5,5,5,5,5,5,
5,5,5,5,5,5,5,5,5,5,5,5,5,5,5,5,
5,5,5,5,5,5,5,5,5,5,5,5,5,5,5,5,
5,5,5,5,5,5,5,5,5,5,5,5,5,5,5,5,
5,5,5,5,5,5,5,5,5,5,5,5,5,5,5,5,
5,5,5,5,5,5,5,5,5,5,5,5,5,5,5,5
</chunk>
   <chunk x="16" y="16" width="16" height="16">
5,5,5,5,5,5,5,5,5,5,5,5,5,5,5,5,
5,5,5,5,5,5,5,5,5,5,5,5,5,5,5,5,
5,5,5,5,5,5,5,5,5,5,5,5,5,5,5,5,
5,5,5,5,5,5,5,5,5,5,5,5,5,5,5,5,
5,5,5,5,5,5,5,5,5,5,5,5,5,5,5,5,
5,5,5,5,5,5,5,5,5,5,5,5,5,5,5,5,
5,5,5,5,5,5,5,5,5,5,5,5,5,5,5,5,
5,5,5,5,5,5,5,5,5,5,5,5,5,5,5,5,
5,5,5,5,5,5,5,5,5,5,5,5,5,5,5,5,
5,5,5,5,5,5,5,5,5,5,5,5,5,5,5,5,
5,5,5,5,5,5,5,5,5,5,5,5,5,5,5,5,
5,5,5,5,5,5,5,5,5,5,5,5,5,5,5,5,
5,5,5,5,5,5,5,5,5,5,5,5,5,5,5,5,
5,5,5,5,5,5,5,5,5,5,5,5,5,5,5,5,
5,5,5,5,5,5,5,5,5,5,5,5,5,5,5,5,
5,5,5,5,5,5,5,5,5,5,5,5,5,5,5,5
</chunk>
   <chunk x="32" y="16" width="16" height="16">
5,5,5,5,5,5,5,5,5,5,5,5,5,5,5,5,
5,5,5,5,5,5,5,5,5,5,5,5,5,5,5,5,
5,5,5,5,5,5,5,5,5,5,5,5,5,5,5,5,
5,5,5,5,5,5,5,5,5,5,5,5,5,5,5,5,
5,5,5,5,5,5,5,5,5,5,5,5,5,5,5,5,
5,5,5,5,5,5,5,5,5,5,5,5,5,5,5,5,
5,5,5,5,5,5,5,5,5,5,5,5,5,5,5,5,
5,5,5,5,5,5,5,5,5,5,5,5,5,5,5,5,
5,5,5,5,5,5,5,5,5,5,5,5,5,5,5,5,
5,5,5,5,5,5,5,5,5,5,5,5,5,5,5,5,
5,5,5,5,5,5,5,5,5,5,5,5,5,5,5,5,
5,5,5,5,5,5,5,5,5,5,5,5,5,5,5,5,
5,5,5,5,5,5,5,5,5,5,5,5,5,5,5,5,
5,5,5,5,5,5,5,5,5,5,5,5,5,5,5,5,
5,5,5,5,5,5,5,5,5,5,5,5,5,5,5,5,
5,5,5,5,5,5,5,5,5,5,5,5,5,5,5,5
</chunk>
   <chunk x="48" y="16" width="16" height="16">
12,2,2,2,2,2,2,2,2,2,2,2,2,2,2,2,
5,5,5,5,5,5,5,5,5,5,5,5,5,5,5,5,
5,5,5,5,5,5,5,5,5,5,5,5,5,5,5,5,
5,5,5,5,5,5,5,5,5,5,5,5,5,5,5,5,
5,5,5,5,5,5,5,5,5,5,5,5,5,5,5,5,
5,5,5,5,5,5,5,5,5,5,5,5,5,5,5,5,
5,5,5,5,5,5,5,5,5,5,5,5,5,5,5,5,
5,5,5,5,5,5,5,5,5,5,5,5,5,5,5,5,
5,5,5,5,5,5,5,5,5,5,5,5,5,5,5,5,
5,5,5,5,5,5,5,5,5,5,5,5,5,5,5,5,
5,5,5,5,5,5,5,5,5,5,5,5,5,5,5,5,
5,5,5,5,5,5,5,5,5,5,5,5,5,5,5,5,
5,5,5,5,5,5,5,5,5,5,5,5,5,5,5,5,
5,5,5,5,5,5,5,5,5,5,5,5,5,5,5,5,
5,5,5,5,5,5,5,5,5,5,5,5,5,5,5,5,
5,5,5,5,5,5,5,5,5,5,5,5,5,5,5,5
</chunk>
   <chunk x="64" y="16" width="16" height="16">
2,2,2,2,2,2,2,2,2,2,2,2,2,2,3,44,
5,5,5,5,5,5,5,5,5,5,5,5,5,5,12,2,
5,5,5,5,5,5,5,5,5,5,5,5,5,5,5,5,
5,5,5,5,5,5,5,5,5,5,5,5,5,5,5,5,
5,5,5,5,5,5,5,5,5,5,5,5,5,5,5,5,
5,5,5,5,5,5,5,5,5,5,5,5,5,5,5,5,
5,5,5,5,5,5,5,5,5,5,5,5,5,5,5,5,
5,5,5,5,5,5,5,5,5,5,5,5,5,5,5,5,
5,5,5,5,5,5,5,5,5,5,5,5,5,5,5,5,
5,5,5,5,5,5,5,5,5,5,5,5,5,5,5,5,
5,5,5,5,5,5,5,5,5,5,5,5,5,5,5,5,
5,5,5,5,5,5,5,5,5,5,5,5,5,5,5,5,
5,5,5,5,5,5,5,5,5,5,5,5,5,5,5,5,
5,5,5,5,5,5,5,5,5,5,5,5,5,5,5,5,
5,5,5,5,5,5,5,5,5,5,5,5,5,5,5,5,
5,5,5,5,5,5,5,5,5,5,5,5,5,5,5,5
</chunk>
   <chunk x="80" y="16" width="16" height="16">
40,39,44,44,40,39,38,44,42,39,40,40,44,39,39,42,
2,2,2,2,2,2,2,2,2,2,2,2,2,2,2,2,
5,5,5,5,5,5,5,5,5,5,5,5,5,5,5,5,
5,5,5,5,5,5,5,5,5,5,5,5,5,5,5,5,
5,5,5,5,5,5,5,5,5,5,5,5,5,5,5,5,
5,5,5,5,5,5,5,5,5,5,5,5,5,5,5,5,
5,5,5,5,5,5,5,5,5,5,5,5,5,5,5,5,
5,5,5,5,5,5,5,5,5,5,5,5,5,5,5,5,
5,5,5,5,5,5,5,5,5,5,5,5,5,5,5,5,
5,5,5,5,5,5,5,5,5,5,5,5,5,5,5,5,
5,5,5,5,5,5,5,5,5,5,5,5,5,5,5,5,
5,5,5,5,5,5,5,5,5,5,5,5,5,5,5,5,
5,5,5,5,5,5,5,5,5,5,5,5,5,5,5,5,
5,5,5,5,5,5,5,5,5,5,5,5,5,5,5,5,
5,5,5,5,5,5,5,5,5,5,5,5,5,5,5,5,
5,5,5,5,5,5,5,5,5,5,5,5,5,5,5,5
</chunk>
   <chunk x="96" y="16" width="16" height="16">
44,39,43,44,1,10,5,5,5,5,5,5,5,5,5,5,
2,2,2,2,10,5,5,5,5,5,5,5,5,5,5,5,
5,5,5,5,5,5,5,5,5,5,5,5,5,5,5,5,
5,5,5,5,5,5,5,5,5,5,5,5,5,5,5,5,
5,5,5,5,5,5,5,5,5,5,5,5,5,5,5,5,
5,5,5,5,5,5,5,5,5,5,5,5,5,5,5,5,
5,5,5,5,5,5,5,5,5,5,5,5,5,5,5,5,
5,5,5,5,5,5,5,5,5,5,5,5,5,5,5,5,
5,5,5,5,5,5,5,5,5,5,5,5,5,5,5,5,
5,5,5,5,5,5,5,5,5,5,5,5,5,5,5,5,
5,5,5,5,5,5,5,5,5,5,5,5,5,5,5,5,
5,5,5,5,5,5,5,5,5,5,5,5,5,5,5,5,
5,5,5,5,5,5,5,5,5,5,5,5,5,5,5,5,
5,5,5,5,5,5,5,5,5,5,5,5,5,5,5,5,
5,5,5,5,5,5,5,5,5,5,5,5,5,5,5,5,
5,5,5,5,5,5,5,5,5,5,5,5,5,5,5,5
</chunk>
   <chunk x="112" y="16" width="16" height="16">
5,5,5,5,5,5,5,5,5,5,5,5,5,5,5,5,
5,5,5,5,5,5,5,5,5,5,5,5,5,5,5,5,
5,5,5,5,5,5,5,5,5,5,5,5,5,5,5,5,
5,5,5,5,5,5,5,5,5,5,5,5,5,5,5,5,
5,5,5,5,5,5,5,5,5,5,5,5,5,5,5,5,
5,5,5,5,5,5,5,5,5,5,5,5,5,5,5,5,
5,5,5,5,5,5,5,5,5,5,5,5,5,5,5,5,
5,5,5,5,5,5,5,5,5,5,5,5,5,5,5,5,
5,5,5,5,5,5,5,5,5,5,5,5,5,5,5,5,
5,5,5,5,5,5,5,5,5,5,5,5,5,5,5,5,
5,5,5,5,5,5,5,5,5,5,5,5,5,5,5,5,
5,5,5,5,5,5,5,5,5,5,5,5,5,5,5,5,
5,5,5,5,5,5,5,5,5,5,5,5,5,5,5,5,
5,5,5,5,5,5,5,5,5,5,5,5,5,5,5,5,
5,5,5,5,5,5,5,5,5,5,5,5,5,5,5,5,
5,5,5,5,5,5,5,5,5,5,5,5,5,5,5,5
</chunk>
   <chunk x="128" y="16" width="16" height="16">
5,5,5,5,5,5,5,5,5,5,5,5,5,5,5,5,
5,5,5,5,5,5,5,5,5,5,5,5,5,5,5,5,
5,5,5,5,5,5,5,5,5,5,5,5,5,5,5,5,
5,5,5,5,5,5,5,5,5,5,5,5,5,5,5,5,
5,5,5,5,5,5,5,5,5,5,5,5,5,5,5,5,
5,5,5,5,5,5,5,5,5,5,5,5,5,5,5,5,
5,5,5,5,5,5,5,5,5,5,5,5,5,5,5,5,
5,5,5,5,5,5,5,5,5,5,5,5,5,5,5,5,
5,5,5,5,5,5,5,5,5,5,5,5,5,5,5,5,
5,5,5,5,5,5,5,5,5,5,5,5,5,5,5,5,
5,5,5,5,5,5,5,5,5,5,5,5,5,5,5,5,
5,5,5,5,5,5,5,5,5,5,5,5,5,5,5,5,
5,5,5,5,5,5,5,5,5,5,5,5,5,5,5,5,
5,5,5,5,5,5,5,5,5,5,5,5,5,5,5,5,
5,5,5,5,5,5,5,5,5,5,5,5,5,5,5,5,
5,5,5,5,5,5,5,5,5,5,5,5,5,5,5,5
</chunk>
   <chunk x="144" y="16" width="16" height="16">
5,5,5,5,5,5,5,5,5,5,5,5,5,5,5,5,
5,5,5,5,5,5,5,5,5,5,5,5,5,5,5,5,
5,5,5,5,5,5,5,5,5,5,5,5,5,5,5,5,
5,5,5,5,5,5,5,5,5,5,5,5,5,5,5,5,
5,5,5,5,5,5,5,5,5,5,5,5,5,5,5,5,
5,5,5,5,5,5,5,5,5,5,5,5,5,5,5,5,
5,5,5,5,5,5,5,5,5,5,5,5,5,5,5,5,
5,5,5,5,5,5,5,5,5,5,5,5,5,5,5,5,
5,5,5,5,5,5,5,5,5,5,5,5,5,5,5,5,
5,5,5,5,5,5,5,5,5,5,5,5,5,5,5,5,
5,5,5,5,5,5,5,5,5,5,5,5,5,5,5,5,
5,5,5,5,5,5,5,5,5,5,5,5,5,5,5,5,
5,5,5,5,5,5,5,5,5,5,5,5,5,5,5,5,
5,5,5,5,5,5,5,5,5,5,5,5,5,5,5,5,
5,5,5,5,5,5,5,5,5,5,5,5,5,5,5,5,
5,5,5,5,5,5,5,5,5,5,5,5,5,5,5,5
</chunk>
   <chunk x="160" y="16" width="16" height="16">
5,5,5,5,5,5,5,5,5,5,5,5,5,5,5,5,
5,5,5,5,5,5,5,5,5,5,5,5,5,5,5,5,
5,5,5,5,5,5,5,5,5,5,5,5,5,5,5,5,
5,5,5,5,5,5,5,5,5,5,5,5,5,5,5,5,
5,5,5,5,5,5,5,5,5,5,5,5,5,5,5,5,
5,5,5,5,5,5,5,5,5,5,5,5,5,5,5,5,
5,5,5,5,5,5,5,5,5,5,5,5,5,5,5,5,
5,5,5,5,5,5,5,5,5,5,5,5,5,5,5,5,
5,5,5,5,5,5,5,5,5,5,5,5,5,5,5,5,
5,5,5,5,5,5,5,5,5,5,5,5,5,5,5,5,
5,5,5,5,5,5,5,5,5,5,5,5,5,5,5,5,
5,5,5,5,5,5,5,5,5,5,5,5,5,5,5,5,
5,5,5,5,5,5,5,5,5,5,5,5,5,5,5,5,
5,5,5,5,5,5,5,5,5,5,5,5,5,5,5,5,
5,5,5,5,5,5,5,5,5,5,5,5,5,5,5,5,
5,5,5,5,5,5,5,5,5,5,5,5,5,5,5,5
</chunk>
   <chunk x="176" y="16" width="16" height="16">
5,5,5,5,5,5,5,5,5,5,5,5,5,5,5,5,
5,5,5,5,5,5,5,5,5,5,5,5,5,5,5,5,
5,5,5,5,5,5,5,5,5,5,5,5,5,5,5,5,
5,5,5,5,5,5,5,5,5,5,5,5,5,5,5,5,
5,5,5,5,5,5,5,5,5,5,5,5,5,5,5,5,
5,5,5,5,5,5,5,5,5,5,5,5,5,5,5,5,
5,5,5,5,5,5,5,5,5,5,5,5,5,5,5,5,
5,5,5,5,5,5,5,5,5,5,5,5,5,5,5,5,
5,5,5,5,5,5,5,5,5,5,5,5,5,5,5,5,
5,5,5,5,5,5,5,5,5,5,5,5,5,5,5,5,
5,5,5,5,5,5,5,5,5,5,5,5,5,5,5,5,
5,5,5,5,5,5,5,5,5,5,5,5,5,5,5,5,
5,5,5,5,5,5,5,5,5,5,5,5,5,5,5,5,
5,5,5,5,5,5,5,5,5,5,5,5,5,5,5,5,
5,5,5,5,5,5,5,5,5,5,5,5,5,5,5,5,
5,5,5,5,5,5,5,5,5,5,5,5,5,5,5,5
</chunk>
   <chunk x="192" y="16" width="16" height="16">
5,5,5,5,5,5,5,5,5,5,5,5,5,5,5,5,
5,5,5,5,5,5,5,5,5,5,5,5,5,5,5,5,
5,5,5,5,5,5,5,5,5,5,5,5,5,5,5,5,
5,5,5,5,5,5,5,5,5,5,5,5,5,5,5,5,
5,5,5,5,5,5,5,5,5,5,5,5,5,5,5,5,
5,5,5,5,5,5,5,5,5,5,5,5,5,5,5,5,
5,5,5,5,5,5,5,5,5,5,5,5,5,5,5,5,
5,5,5,5,5,5,5,5,5,5,5,5,5,5,5,5,
5,5,5,5,5,5,5,5,5,5,5,5,5,5,5,5,
5,5,5,5,5,5,5,5,5,5,5,5,5,5,5,5,
5,5,5,5,5,5,5,5,5,5,5,5,5,5,5,5,
5,5,5,5,5,5,5,5,5,5,5,5,5,5,5,5,
5,5,5,5,5,5,5,5,5,5,5,5,5,5,5,5,
5,5,5,5,5,5,5,5,5,5,5,5,5,5,5,5,
5,5,5,5,5,5,5,5,5,5,5,5,5,5,5,5,
5,5,5,5,5,5,5,5,5,5,5,5,5,5,5,5
</chunk>
   <chunk x="208" y="16" width="16" height="16">
5,5,5,5,5,5,5,5,5,5,5,5,5,5,5,5,
5,5,5,5,5,5,5,5,5,5,5,5,5,5,5,5,
5,5,5,5,5,5,5,5,5,5,5,5,5,5,5,5,
5,5,5,5,5,5,5,5,5,5,5,5,5,5,5,5,
5,5,5,5,5,5,5,5,5,5,5,5,5,5,5,5,
5,5,5,5,5,5,5,5,5,5,5,5,5,5,5,5,
5,5,5,5,5,5,5,5,5,5,5,5,5,5,5,5,
5,5,5,5,5,5,5,5,5,5,5,5,5,5,5,5,
5,5,5,5,5,5,5,5,5,5,5,5,5,5,5,5,
5,5,5,5,5,5,5,5,5,5,5,5,5,5,5,5,
5,5,5,5,5,5,5,5,5,5,5,5,5,5,5,5,
5,5,5,5,5,5,5,5,5,5,5,5,5,5,5,5,
5,5,5,5,5,5,5,5,5,5,5,5,5,5,5,5,
5,5,5,5,5,5,5,5,5,5,5,5,5,5,5,5,
5,5,5,5,5,5,5,5,5,5,5,5,5,5,5,5,
5,5,5,5,5,5,5,5,5,5,5,5,5,5,5,5
</chunk>
   <chunk x="224" y="16" width="16" height="16">
5,5,5,5,5,5,5,5,5,5,5,5,5,5,5,5,
5,5,5,5,5,5,5,5,5,5,5,5,5,5,5,5,
5,5,5,5,5,5,5,5,5,5,5,5,5,5,5,5,
5,5,5,5,5,5,5,5,5,5,5,5,5,5,5,5,
5,5,5,5,5,5,5,5,5,5,5,5,5,5,5,5,
5,5,5,5,5,5,5,5,5,5,5,5,5,5,5,5,
5,5,5,5,5,5,5,5,5,5,5,5,5,5,5,0,
5,5,5,5,5,5,5,5,5,5,5,5,5,5,0,0,
5,5,5,5,5,5,5,5,5,5,5,5,5,5,0,0,
5,5,5,5,5,5,5,5,5,5,5,5,5,0,0,0,
5,5,5,5,5,5,5,5,5,5,5,0,0,0,0,0,
5,5,5,5,5,5,5,5,5,5,0,0,0,0,0,0,
5,5,5,5,5,5,5,5,5,5,0,0,0,0,0,0,
5,5,5,5,5,5,5,5,5,0,0,0,0,0,0,0,
5,5,5,5,5,5,5,5,0,0,0,0,0,0,0,0,
5,5,5,5,5,5,0,0,0,0,0,0,0,0,0,0
</chunk>
   <chunk x="240" y="16" width="16" height="16">
5,5,5,5,5,5,5,5,5,5,5,5,5,5,5,5,
5,5,5,5,5,5,5,5,5,5,5,5,5,5,5,5,
5,5,5,5,5,5,5,5,5,5,5,5,5,5,5,5,
5,0,0,0,0,0,0,0,0,0,0,0,0,0,0,0,
0,0,0,0,0,0,0,0,0,0,0,0,0,0,0,0,
0,0,0,0,0,0,0,0,0,0,0,0,0,0,0,0,
0,0,0,0,0,0,0,0,0,0,0,0,0,0,0,0,
0,0,0,0,0,0,0,0,0,0,0,0,0,0,0,0,
0,0,0,0,0,0,0,0,0,0,0,0,0,0,0,0,
0,0,0,0,0,0,0,0,0,0,0,0,0,0,0,0,
0,0,0,0,0,0,0,0,0,0,0,0,0,0,0,0,
0,0,0,0,0,0,0,0,0,0,0,0,0,0,0,0,
0,0,0,0,0,0,0,0,0,0,0,0,0,0,0,0,
0,0,0,0,0,0,0,0,0,0,0,0,0,0,0,0,
0,0,0,0,0,0,0,0,0,0,0,0,0,0,0,0,
0,0,0,0,0,0,0,0,0,0,0,0,0,0,0,0
</chunk>
   <chunk x="256" y="16" width="16" height="16">
5,5,5,5,5,5,5,5,5,5,5,5,5,5,5,5,
5,5,5,5,5,5,5,5,5,5,5,5,5,5,5,5,
5,5,5,5,5,5,5,5,5,5,5,5,5,5,5,5,
0,5,5,5,5,5,5,5,5,5,5,5,5,5,5,5,
0,0,0,0,0,0,0,0,0,0,0,0,0,0,0,0,
0,0,0,0,0,0,0,0,0,0,0,0,0,0,0,0,
0,0,0,0,0,0,0,0,0,0,0,0,0,0,0,0,
0,0,0,0,0,0,0,0,0,0,0,0,0,0,0,0,
0,0,0,0,0,0,0,0,0,0,0,0,0,0,0,0,
0,0,0,0,0,0,0,0,0,0,0,0,0,0,0,0,
0,0,0,0,0,0,0,0,0,0,0,0,0,0,0,0,
0,0,0,0,0,0,0,0,0,0,0,0,0,0,0,0,
0,0,0,0,0,0,0,0,0,0,0,0,0,0,0,0,
0,0,0,0,0,0,0,0,0,0,0,0,0,0,0,0,
0,0,0,0,0,0,0,0,0,0,0,0,0,0,0,0,
0,0,0,0,0,0,0,0,0,0,0,0,0,0,0,0
</chunk>
   <chunk x="272" y="16" width="16" height="16">
5,5,5,5,5,5,5,5,5,5,5,5,5,5,5,5,
5,5,5,5,5,5,5,5,5,5,5,5,5,5,0,0,
5,5,5,5,5,5,5,5,5,5,5,5,5,5,0,0,
5,5,5,5,5,5,5,5,5,5,5,5,5,5,0,0,
0,0,0,0,0,0,0,0,0,0,0,0,0,0,0,0,
0,0,0,0,0,0,0,0,0,0,0,0,0,0,0,0,
0,0,0,0,0,0,0,0,0,0,0,0,0,0,0,0,
0,0,0,0,0,0,0,0,0,0,0,0,0,0,0,0,
0,0,0,0,0,0,0,0,0,0,0,0,0,0,0,0,
0,0,0,0,0,0,0,0,0,0,0,0,0,0,0,0,
0,0,0,0,0,0,0,0,0,0,0,0,0,0,0,0,
0,0,0,0,0,0,0,0,0,0,0,0,0,0,0,0,
0,0,0,0,0,0,0,0,0,0,0,0,0,0,0,0,
0,0,0,0,0,0,0,0,0,0,0,0,0,0,0,0,
0,0,0,0,0,0,0,0,0,0,0,0,0,0,0,0,
0,0,0,0,0,0,0,0,0,0,0,0,0,0,0,0
</chunk>
   <chunk x="288" y="16" width="16" height="16">
5,5,5,5,5,5,5,5,5,5,5,5,5,5,5,5,
0,0,0,0,0,0,0,0,0,0,0,0,0,0,0,0,
0,0,0,0,0,0,0,0,0,0,0,0,0,0,0,0,
0,0,0,0,0,0,0,0,0,0,0,0,0,0,0,0,
0,0,0,0,0,0,0,0,0,0,0,0,0,0,0,0,
0,0,0,0,0,0,0,0,0,0,0,0,0,0,0,0,
0,0,0,0,0,0,0,0,0,0,0,0,0,0,0,0,
0,0,0,0,0,0,0,0,0,0,0,0,0,0,0,0,
0,0,0,0,0,0,0,0,0,0,0,0,0,0,0,0,
0,0,0,0,0,0,0,0,0,0,0,0,0,0,0,0,
0,0,0,0,0,0,0,0,0,0,0,0,0,0,0,0,
0,0,0,0,0,0,0,0,0,0,0,0,0,0,0,0,
0,0,0,0,0,0,0,0,0,0,0,0,0,0,0,0,
0,0,0,0,0,0,0,0,0,0,0,0,0,0,0,0,
0,0,0,0,0,0,0,0,0,0,0,0,0,0,0,0,
0,0,0,0,0,0,0,0,0,0,0,0,0,0,0,0
</chunk>
   <chunk x="304" y="16" width="16" height="16">
5,5,5,5,5,5,0,0,0,0,0,0,0,0,0,0,
0,0,0,0,0,0,0,0,0,0,0,0,0,0,0,0,
0,0,0,0,0,0,0,0,0,0,0,0,0,0,0,0,
0,0,0,0,0,0,0,0,0,0,0,0,0,0,0,0,
0,0,0,0,0,0,0,0,0,0,0,0,0,0,0,0,
0,0,0,0,0,0,0,0,0,0,0,0,0,0,0,0,
0,0,0,0,0,0,0,0,0,0,0,0,0,0,0,0,
0,0,0,0,0,0,0,0,0,0,0,0,0,0,0,0,
0,0,0,0,0,0,0,0,0,0,0,0,0,0,0,0,
0,0,0,0,0,0,0,0,0,0,0,0,0,0,0,0,
0,0,0,0,0,0,0,0,0,0,0,0,0,0,0,0,
0,0,0,0,0,0,0,0,0,0,0,0,0,0,0,0,
0,0,0,0,0,0,0,0,0,0,0,0,0,0,0,0,
0,0,0,0,0,0,0,0,0,0,0,0,0,0,0,0,
0,0,0,0,0,0,0,0,0,0,0,0,0,0,0,0,
0,0,0,0,0,0,0,0,0,0,0,0,0,0,0,0
</chunk>
   <chunk x="0" y="32" width="16" height="16">
0,0,0,5,5,5,5,5,5,5,5,5,5,5,5,5,
0,0,0,0,0,5,5,5,5,5,5,5,5,5,5,5,
0,0,0,0,0,0,0,0,0,5,5,5,5,5,5,5,
0,0,0,0,0,0,0,0,0,0,0,5,5,5,5,5,
0,0,0,0,0,0,0,0,0,0,0,0,0,5,5,5,
0,0,0,0,0,0,0,0,0,0,0,0,0,0,5,5,
0,0,0,0,0,0,0,0,0,0,0,0,0,0,0,0,
0,0,0,0,0,0,0,0,0,0,0,0,0,0,0,0,
0,0,0,0,0,0,0,0,0,0,0,0,0,0,0,0,
0,0,0,0,0,0,0,0,0,0,0,0,0,0,0,0,
0,0,0,0,0,0,0,0,0,0,0,0,0,0,0,0,
0,0,0,0,0,0,0,0,0,0,0,0,0,0,0,0,
0,0,0,0,0,0,0,0,0,0,0,0,0,0,0,0,
0,0,0,0,0,0,0,0,0,0,0,0,0,0,0,0,
0,0,0,0,0,0,0,0,0,0,0,0,0,0,0,0,
0,0,0,0,0,0,0,0,0,0,0,0,0,0,0,0
</chunk>
   <chunk x="16" y="32" width="16" height="16">
5,5,5,5,5,5,5,5,5,5,5,5,5,5,5,5,
5,5,5,5,5,5,5,5,5,5,5,5,5,5,5,5,
5,5,5,5,5,5,5,5,5,5,5,5,5,5,5,5,
5,5,5,5,5,5,5,5,5,5,5,5,5,5,5,5,
5,5,5,5,5,5,5,5,5,5,5,5,5,5,5,5,
5,5,5,5,5,5,5,5,5,5,5,5,5,5,5,5,
0,0,0,0,0,0,0,0,0,0,0,0,0,0,0,0,
0,0,0,0,0,0,0,0,0,0,0,0,0,0,0,0,
0,0,0,0,0,0,0,0,0,0,0,0,0,0,0,0,
0,0,0,0,0,0,0,0,0,0,0,0,0,0,0,0,
0,0,0,0,0,0,0,0,0,0,0,0,0,0,0,0,
0,0,0,0,0,0,0,0,0,0,0,0,0,0,0,0,
0,0,0,0,0,0,0,0,0,0,0,0,0,0,0,0,
0,0,0,0,0,0,0,0,0,0,0,0,0,0,0,0,
0,0,0,0,0,0,0,0,0,0,0,0,0,0,0,0,
0,0,0,0,0,0,0,0,0,0,0,0,0,0,0,0
</chunk>
   <chunk x="32" y="32" width="16" height="16">
5,5,5,5,5,5,5,5,5,5,5,5,5,5,5,5,
5,5,5,5,5,5,5,5,5,5,5,5,5,5,5,5,
5,5,5,5,5,5,5,5,5,5,5,5,5,5,5,5,
5,5,5,5,5,5,5,5,5,5,5,5,5,5,5,5,
5,5,5,5,5,5,5,5,5,5,5,5,5,5,5,5,
5,5,5,5,5,5,5,5,5,5,5,5,5,5,5,5,
0,5,5,5,5,5,5,5,5,5,5,5,5,5,5,5,
0,5,5,5,5,5,5,5,5,5,5,5,5,5,5,5,
0,0,0,0,0,0,0,0,0,0,0,0,0,0,0,0,
0,0,0,0,0,0,0,0,0,0,0,0,0,0,0,0,
0,0,0,0,0,0,0,0,0,0,0,0,0,0,0,0,
0,0,0,0,0,0,0,0,0,0,0,0,0,0,0,0,
0,0,0,0,0,0,0,0,0,0,0,0,0,0,0,0,
0,0,0,0,0,0,0,0,0,0,0,0,0,0,0,0,
0,0,0,0,0,0,0,0,0,0,0,0,0,0,0,0,
0,0,0,0,0,0,0,0,0,0,0,0,0,0,0,0
</chunk>
   <chunk x="48" y="32" width="16" height="16">
5,5,5,5,5,5,5,5,5,5,5,5,5,5,5,5,
5,5,5,5,5,5,5,5,5,5,5,5,5,5,5,5,
5,5,5,5,5,5,5,5,5,5,5,5,5,5,5,5,
5,5,5,5,5,5,5,5,5,5,5,5,5,5,5,5,
5,5,5,5,5,5,5,5,5,5,5,5,5,5,5,5,
5,5,5,5,5,5,5,5,5,5,5,5,5,5,5,5,
5,5,5,5,5,5,5,5,5,5,5,5,5,5,5,5,
5,5,5,5,5,5,5,5,5,5,5,5,5,5,5,5,
0,0,0,0,0,0,0,0,0,0,0,0,0,0,0,5,
0,0,0,0,0,0,0,0,0,0,0,0,0,0,0,0,
0,0,0,0,0,0,0,0,0,0,0,0,0,0,0,0,
0,0,0,0,0,0,0,0,0,0,0,0,0,0,0,0,
0,0,0,0,0,0,0,0,0,0,0,0,0,0,0,0,
0,0,0,0,0,0,0,0,0,0,0,0,0,0,0,0,
0,0,0,0,0,0,0,0,0,0,0,0,0,0,0,0,
0,0,0,0,0,0,0,0,0,0,0,0,0,0,0,0
</chunk>
   <chunk x="64" y="32" width="16" height="16">
5,5,5,5,5,5,5,5,5,5,5,5,5,5,5,5,
5,5,5,5,5,5,5,5,5,5,5,5,5,5,5,5,
5,5,5,5,5,5,5,5,5,5,5,5,5,5,5,5,
5,5,5,5,5,5,5,5,5,5,5,5,5,5,5,5,
5,5,5,5,5,5,5,5,5,5,5,5,5,5,5,5,
5,5,5,5,5,5,5,5,5,5,5,5,5,5,5,5,
5,5,5,5,5,5,5,5,5,5,5,5,5,5,5,5,
5,5,5,5,5,5,5,5,5,5,5,5,5,5,5,5,
5,5,5,5,5,5,5,5,5,5,5,5,5,5,5,5,
0,0,5,5,5,5,5,5,5,5,5,5,5,5,5,5,
0,0,0,5,5,5,5,5,5,5,5,5,5,5,5,5,
0,0,0,0,0,0,0,5,5,5,5,5,5,5,5,5,
0,0,0,0,0,0,0,0,0,0,0,5,5,5,5,5,
0,0,0,0,0,0,0,0,0,0,0,0,0,0,0,0,
0,0,0,0,0,0,0,0,0,0,0,0,0,0,0,0,
0,0,0,0,0,0,0,0,0,0,0,0,0,0,0,0
</chunk>
   <chunk x="80" y="32" width="16" height="16">
5,5,5,5,5,5,5,5,5,5,5,5,5,5,5,5,
5,5,5,5,5,5,5,5,5,5,5,5,5,5,5,5,
5,5,5,5,5,5,5,5,5,5,5,5,5,5,5,5,
5,5,5,5,5,5,5,5,5,5,5,5,5,5,5,5,
5,5,5,5,5,5,5,5,5,5,5,5,5,5,5,5,
5,5,5,5,5,5,5,5,5,5,5,5,5,5,5,5,
5,5,5,5,5,5,5,5,5,5,5,5,5,5,5,5,
5,5,5,5,5,5,5,5,5,5,5,5,5,5,5,5,
5,5,5,5,5,5,5,5,5,5,5,5,5,5,5,5,
5,5,5,5,5,5,5,5,5,5,5,5,5,5,5,5,
5,5,5,5,5,5,5,5,5,5,5,5,5,5,5,5,
5,5,5,5,5,5,5,5,5,5,5,5,5,5,5,5,
5,5,5,5,5,5,5,5,5,5,5,5,5,5,5,5,
0,0,0,0,0,0,0,0,0,0,0,0,0,0,0,0,
0,0,0,0,0,0,0,0,0,0,0,0,0,0,0,0,
0,0,0,0,0,0,0,0,0,0,0,0,0,0,0,0
</chunk>
   <chunk x="96" y="32" width="16" height="16">
5,5,5,5,5,5,5,5,5,5,5,5,5,5,5,5,
5,5,5,5,5,5,5,5,5,5,5,5,5,5,5,5,
5,5,5,5,5,5,5,5,5,5,5,5,5,5,5,5,
5,5,5,5,5,5,5,5,5,5,5,5,5,5,5,5,
5,5,5,5,5,5,5,5,5,5,5,5,5,5,5,5,
5,5,5,5,5,5,5,5,5,5,5,5,5,5,5,5,
5,5,5,5,5,5,5,5,5,5,5,5,5,5,5,5,
5,5,5,5,5,5,5,5,5,5,5,5,5,5,5,5,
5,5,5,5,5,5,5,5,5,5,5,5,5,5,5,5,
5,5,5,5,5,5,5,5,5,5,5,5,5,5,5,5,
5,5,5,5,5,5,5,5,5,5,5,5,5,5,5,5,
5,5,5,5,5,5,5,5,5,5,5,5,5,5,5,5,
5,5,5,5,5,5,5,5,5,5,0,0,0,0,0,0,
0,0,0,0,0,0,0,0,0,0,0,0,0,0,0,0,
0,0,0,0,0,0,0,0,0,0,0,0,0,0,0,0,
0,0,0,0,0,0,0,0,0,0,0,0,0,0,0,0
</chunk>
   <chunk x="112" y="32" width="16" height="16">
5,5,5,5,5,5,5,5,5,5,5,5,5,5,5,5,
5,5,5,5,5,5,5,5,5,5,5,5,5,5,5,5,
5,5,5,5,5,5,5,5,5,5,5,5,5,5,5,5,
5,5,5,5,5,5,5,5,5,5,5,5,5,5,5,5,
5,5,5,5,5,5,5,5,5,5,5,5,5,5,5,5,
5,5,5,5,5,5,5,5,5,5,5,5,5,5,5,5,
5,5,5,5,5,5,5,5,5,5,5,5,5,5,5,5,
5,5,5,5,5,5,5,5,5,5,5,5,5,5,5,5,
5,5,5,5,5,5,5,5,5,5,5,5,5,5,5,5,
5,5,5,5,5,5,5,5,5,5,5,5,5,5,5,5,
5,5,5,5,5,5,5,5,5,5,5,5,5,5,5,5,
5,5,5,5,5,5,5,5,5,5,0,0,0,0,0,0,
0,0,0,0,0,0,0,0,0,0,0,0,0,0,0,0,
0,0,0,0,0,0,0,0,0,0,0,0,0,0,0,0,
0,0,0,0,0,0,0,0,0,0,0,0,0,0,0,0,
0,0,0,0,0,0,0,0,0,0,0,0,0,0,0,0
</chunk>
   <chunk x="128" y="32" width="16" height="16">
5,5,5,5,5,5,5,5,5,5,5,5,5,5,5,5,
5,5,5,5,5,5,5,5,5,5,5,5,5,5,5,5,
5,5,5,5,5,5,5,5,5,5,5,5,5,5,5,5,
5,5,5,5,5,5,5,5,5,5,5,5,5,5,5,5,
5,5,5,5,5,5,5,5,5,5,5,5,5,5,5,5,
5,5,5,5,5,5,5,5,5,5,5,5,5,5,5,5,
5,5,5,5,5,5,5,5,5,5,5,5,5,5,5,5,
5,5,5,5,5,5,5,5,5,5,5,5,5,5,5,5,
5,5,5,5,5,5,5,5,5,5,5,5,5,5,5,5,
5,5,5,5,5,5,5,5,5,5,5,5,5,5,5,5,
5,5,5,5,5,5,5,5,5,5,5,5,5,5,5,5,
0,5,5,5,5,5,5,5,5,5,5,5,5,5,5,5,
0,0,0,0,0,0,0,0,0,0,0,0,0,0,0,0,
0,0,0,0,0,0,0,0,0,0,0,0,0,0,0,0,
0,0,0,0,0,0,0,0,0,0,0,0,0,0,0,0,
0,0,0,0,0,0,0,0,0,0,0,0,0,0,0,0
</chunk>
   <chunk x="144" y="32" width="16" height="16">
5,5,5,5,5,5,5,5,5,5,5,5,5,5,5,5,
5,5,5,5,5,5,5,5,5,5,5,5,5,5,5,5,
5,5,5,5,5,5,5,5,5,5,5,5,5,5,5,5,
5,5,5,5,5,5,5,5,5,5,5,5,5,5,5,5,
5,5,5,5,5,5,5,5,5,5,5,5,5,5,5,5,
5,5,5,5,5,5,5,5,5,5,5,5,5,5,5,5,
5,5,5,5,5,5,5,5,5,5,5,5,5,5,5,5,
5,5,5,5,5,5,5,5,5,5,5,5,5,5,5,5,
5,5,5,5,5,5,5,5,5,5,5,5,5,5,5,5,
5,5,5,5,5,5,5,5,5,5,5,5,5,5,5,5,
5,5,5,5,5,5,5,5,5,5,5,5,5,5,5,5,
5,5,5,5,5,5,5,5,5,5,5,5,5,5,5,5,
0,0,0,0,0,0,0,0,0,0,0,0,0,0,0,0,
0,0,0,0,0,0,0,0,0,0,0,0,0,0,0,0,
0,0,0,0,0,0,0,0,0,0,0,0,0,0,0,0,
0,0,0,0,0,0,0,0,0,0,0,0,0,0,0,0
</chunk>
   <chunk x="160" y="32" width="16" height="16">
5,5,5,5,5,5,5,5,5,5,5,5,5,5,5,5,
5,5,5,5,5,5,5,5,5,5,5,5,5,5,5,5,
5,5,5,5,5,5,5,5,5,5,5,5,5,5,5,5,
5,5,5,5,5,5,5,5,5,5,5,5,5,5,5,5,
5,5,5,5,5,5,5,5,5,5,5,5,5,5,5,5,
5,5,5,5,5,5,5,5,5,5,5,5,5,5,5,5,
5,5,5,5,5,5,5,5,5,5,5,5,5,5,5,5,
5,5,5,5,5,5,5,5,5,5,5,5,5,5,5,5,
5,5,5,5,5,5,5,5,5,5,5,5,5,5,5,5,
5,5,5,5,5,5,5,5,5,5,5,5,5,5,5,5,
5,5,5,5,5,5,5,5,0,0,0,0,0,0,0,0,
5,5,5,5,5,5,5,0,0,0,0,0,0,0,0,0,
0,0,0,0,0,0,0,0,0,0,0,0,0,0,0,0,
0,0,0,0,0,0,0,0,0,0,0,0,0,0,0,0,
0,0,0,0,0,0,0,0,0,0,0,0,0,0,0,0,
0,0,0,0,0,0,0,0,0,0,0,0,0,0,0,0
</chunk>
   <chunk x="176" y="32" width="16" height="16">
5,5,5,5,5,5,5,5,5,5,5,5,5,5,5,5,
5,5,5,5,5,5,5,5,5,5,5,5,5,5,5,5,
5,5,5,5,5,5,5,5,5,5,5,5,5,5,5,5,
5,5,5,5,5,5,5,5,5,5,5,5,5,5,5,5,
5,5,5,5,5,5,5,5,5,5,5,5,5,5,5,5,
5,5,5,5,5,5,5,5,5,5,5,5,5,5,5,5,
5,5,5,5,5,5,5,5,5,5,5,5,5,5,5,5,
5,5,5,5,5,5,5,5,5,5,5,5,5,5,5,5,
5,5,5,5,5,5,5,5,5,5,5,5,5,5,5,5,
5,5,5,5,5,5,5,5,5,5,5,5,5,5,5,5,
0,0,0,0,0,0,0,0,0,0,0,0,0,0,0,0,
0,0,0,0,0,0,0,0,0,0,0,0,0,0,0,0,
0,0,0,0,0,0,0,0,0,0,0,0,0,0,0,0,
0,0,0,0,0,0,0,0,0,0,0,0,0,0,0,0,
0,0,0,0,0,0,0,0,0,0,0,0,0,0,0,0,
0,0,0,0,0,0,0,0,0,0,0,0,0,0,0,0
</chunk>
   <chunk x="192" y="32" width="16" height="16">
5,5,5,5,5,5,5,5,5,5,5,5,5,5,5,5,
5,5,5,5,5,5,5,5,5,5,5,5,5,5,5,5,
5,5,5,5,5,5,5,5,5,5,5,5,5,5,5,5,
5,5,5,5,5,5,5,5,5,5,5,5,5,5,5,5,
5,5,5,5,5,5,5,5,5,5,5,5,5,5,5,5,
5,5,5,5,5,5,5,5,5,5,5,5,5,5,5,5,
5,5,5,5,5,5,5,5,5,5,5,5,5,5,5,5,
5,5,5,5,5,5,5,5,5,5,5,5,5,5,5,5,
5,5,5,5,5,5,5,5,5,5,5,5,5,5,5,0,
5,5,5,5,5,5,5,5,5,5,5,5,5,5,0,0,
0,0,0,0,0,0,0,0,0,0,0,0,0,0,0,0,
0,0,0,0,0,0,0,0,0,0,0,0,0,0,0,0,
0,0,0,0,0,0,0,0,0,0,0,0,0,0,0,0,
0,0,0,0,0,0,0,0,0,0,0,0,0,0,0,0,
0,0,0,0,0,0,0,0,0,0,0,0,0,0,0,0,
0,0,0,0,0,0,0,0,0,0,0,0,0,0,0,0
</chunk>
   <chunk x="208" y="32" width="16" height="16">
5,5,5,5,5,5,5,5,5,5,5,5,5,5,5,5,
5,5,5,5,5,5,5,5,5,5,5,5,5,5,5,5,
5,5,5,5,5,5,5,5,5,5,5,5,5,5,5,5,
5,5,5,5,5,5,5,5,5,5,5,5,5,5,5,5,
5,0,0,0,0,0,0,0,0,0,0,0,0,0,0,0,
0,0,0,0,0,0,0,0,0,0,0,0,0,0,0,0,
0,0,0,0,0,0,0,0,0,0,0,0,0,0,0,0,
0,0,0,0,0,0,0,0,0,0,0,0,0,0,0,0,
0,0,0,0,0,0,0,0,0,0,0,0,0,0,0,0,
0,0,0,0,0,0,0,0,0,0,0,0,0,0,0,0,
0,0,0,0,0,0,0,0,0,0,0,0,0,0,0,0,
0,0,0,0,0,0,0,0,0,0,0,0,0,0,0,0,
0,0,0,0,0,0,0,0,0,0,0,0,0,0,0,0,
0,0,0,0,0,0,0,0,0,0,0,0,0,0,0,0,
0,0,0,0,0,0,0,0,0,0,0,0,0,0,0,0,
0,0,0,0,0,0,0,0,0,0,0,0,0,0,0,0
</chunk>
   <chunk x="224" y="32" width="16" height="16">
5,5,5,5,5,0,0,0,0,0,0,0,0,0,0,0,
5,5,5,5,0,0,0,0,0,0,0,0,0,0,0,0,
5,5,5,0,0,0,0,0,0,0,0,0,0,0,0,0,
5,5,5,0,0,0,0,0,0,0,0,0,0,0,0,0,
0,0,0,0,0,0,0,0,0,0,0,0,0,0,0,0,
0,0,0,0,0,0,0,0,0,0,0,0,0,0,0,0,
0,0,0,0,0,0,0,0,0,0,0,0,0,0,0,0,
0,0,0,0,0,0,0,0,0,0,0,0,0,0,0,0,
0,0,0,0,0,0,0,0,0,0,0,0,0,0,0,0,
0,0,0,0,0,0,0,0,0,0,0,0,0,0,0,0,
0,0,0,0,0,0,0,0,0,0,0,0,0,0,0,0,
0,0,0,0,0,0,0,0,0,0,0,0,0,0,0,0,
0,0,0,0,0,0,0,0,0,0,0,0,0,0,0,0,
0,0,0,0,0,0,0,0,0,0,0,0,0,0,0,0,
0,0,0,0,0,0,0,0,0,0,0,0,0,0,0,0,
0,0,0,0,0,0,0,0,0,0,0,0,0,0,0,0
</chunk>
  </data>
 </layer>
</map>
